transforms/AB01_cool_fpe_r709.cube
#  AB_01_FPE_r709.cube
LUT_3D_SIZE 9
0.000000 0.000000 0.000000
0.005529 0.004330 0.003227
0.042188 0.026668 0.014339
0.130509 0.056318 0.000000
0.292515 0.062438 0.000000
0.464287 0.000000 0.000000
0.558547 0.000000 0.000000
0.603405 0.000000 0.000000
0.621691 0.000000 0.000000
0.006387 0.011356 0.006724
0.013814 0.016112 0.007857
0.098211 0.069170 0.017581
0.222360 0.091591 0.000000
0.400934 0.087771 0.000000
0.527530 0.000000 0.000000
0.568027 0.000000 0.000000
0.603405 0.000000 0.000000
0.621810 0.000000 0.000000
0.000000 0.086418 0.044130
0.000000 0.090380 0.043661
0.087644 0.114835 0.037373
0.253930 0.155559 0.000000
0.479817 0.172068 0.000000
0.627505 0.146114 0.000000
0.677464 0.064710 0.000000
0.605513 0.000000 0.000000
0.621691 0.000000 0.000000
0.000000 0.157560 0.060674
0.000000 0.160610 0.060275
0.000000 0.177779 0.040234
0.244699 0.251079 0.000000
0.521339 0.300406 0.000000
0.701187 0.305589 0.000000
0.775301 0.294025 0.000000
0.777731 0.249279 0.000000
0.621691 0.000000 0.000000
0.000000 0.282303 0.116669
0.000000 0.282303 0.116669
0.000000 0.292790 0.114388
0.082948 0.351758 0.000000
0.521941 0.457083 0.000000
0.760217 0.491196 0.000000
0.853170 0.499256 0.000000
0.878596 0.494056 0.000000
0.869304 0.447011 0.000000
0.000000 0.403031 0.130806
0.000000 0.403031 0.130806
0.000000 0.403031 0.130806
0.000000 0.413032 0.115300
0.410715 0.563417 0.000000
0.774075 0.641924 0.000000
0.897533 0.662993 0.000000
0.938419 0.669184 0.000000
0.947367 0.663193 0.000000
0.000000 0.465002 0.124723
0.000000 0.465002 0.124723
0.000000 0.465002 0.124723
0.000000 0.465002 0.124723
0.000000 0.480447 0.000000
0.728850 0.718986 0.000000
0.918439 0.754613 0.000000
0.970884 0.764400 0.000000
0.983880 0.766344 0.000000
0.000000 0.495710 0.118866
0.000000 0.495710 0.118866
0.000000 0.495710 0.118866
0.000000 0.495710 0.118866
0.000000 0.495710 0.118866
0.000000 0.585964 0.000000
0.897222 0.796203 0.000000
0.983319 0.811285 0.000000
1.000807 0.814265 0.000000
0.000000 0.507379 0.120685
0.000000 0.507379 0.120685
0.000000 0.507379 0.120685
0.000000 0.507379 0.120685
0.000000 0.507379 0.120685
0.000000 0.507379 0.120685
0.509395 0.722322 0.000000
0.979775 0.827649 0.000000
1.008435 0.832055 0.000000
0.001144 0.001034 0.000827
0.007807 0.005826 0.006286
0.054598 0.035529 0.035168
0.157821 0.058443 0.047482
0.339068 0.054691 0.000000
0.492627 0.000000 0.000000
0.566191 0.000000 0.000000
0.603405 0.000000 0.000000
0.621691 0.000000 0.000000
0.005599 0.011949 0.012522
0.013545 0.016008 0.016449
0.104657 0.069384 0.059127
0.238853 0.087091 0.046234
0.424246 0.076471 0.000000
0.548359 0.000000 0.000000
0.576305 0.000000 0.000000
0.603405 0.000000 0.000000
0.621691 0.000000 0.000000
0.000000 0.090709 0.067053
0.000000 0.092111 0.066555
0.091729 0.115121 0.064005
0.269859 0.158680 0.022178
0.502567 0.169622 0.000000
0.645735 0.138696 0.000000
0.678371 0.066927 0.000000
0.606104 0.000000 0.000000
0.621810 0.000000 0.000000
0.000000 0.166575 0.080803
0.000000 0.169516 0.080163
0.000000 0.183261 0.058498
0.253542 0.256510 0.000000
0.536548 0.306099 0.000000
0.713095 0.308528 0.000000
0.775954 0.295342 0.000000
0.777731 0.249279 0.000000
0.621691 0.000000 0.000000
0.000000 0.293419 0.122453
0.000000 0.293265 0.122245
0.000000 0.304052 0.123234
0.061052 0.356075 0.000000
0.526358 0.462812 0.000000
0.763262 0.495684 0.000000
0.853817 0.500920 0.000000
0.878596 0.494056 0.000000
0.869955 0.448673 0.000000
0.000000 0.407746 0.133525
0.000000 0.407746 0.133525
0.000000 0.407623 0.133409
0.000000 0.416422 0.117465
0.406629 0.563551 0.000000
0.776791 0.646128 0.000000
0.897089 0.661739 0.000000
0.938419 0.669184 0.000000
0.947367 0.663193 0.000000
0.000000 0.465449 0.124643
0.000000 0.465449 0.124643
0.000000 0.465449 0.124643
0.000000 0.465449 0.124643
0.000000 0.480742 0.000000
0.726966 0.719145 0.000000
0.918439 0.754613 0.000000
0.970884 0.764400 0.000000
0.983880 0.766344 0.000000
0.000000 0.495710 0.118866
0.000000 0.495710 0.118866
0.000000 0.495710 0.118866
0.000000 0.495710 0.118866
0.000000 0.495710 0.118866
0.000000 0.586850 0.000000
0.897222 0.796203 0.000000
0.983319 0.811285 0.000000
1.000807 0.814265 0.000000
0.000000 0.507379 0.120685
0.000000 0.507379 0.120685
0.000000 0.507379 0.120685
0.000000 0.507379 0.120685
0.000000 0.507379 0.120685
0.000000 0.507379 0.120685
0.511989 0.723030 0.000000
0.979775 0.827649 0.000000
1.008435 0.832055 0.000000
0.005590 0.005134 0.004466
0.027327 0.020508 0.033256
0.063004 0.041160 0.066353
0.178780 0.058232 0.100658
0.363630 0.040269 0.110894
0.513238 0.000000 0.099196
0.599622 0.000000 0.050408
0.607980 0.000000 0.000000
0.621691 0.000000 0.000000
0.015872 0.034682 0.053449
0.039292 0.050843 0.090197
0.100468 0.063746 0.119193
0.239760 0.077379 0.127157
0.426673 0.060245 0.120054
0.558906 0.000000 0.099178
0.611125 0.000000 0.047125
0.607467 0.000000 0.000000
0.621691 0.000000 0.000000
0.000000 0.097741 0.127033
0.000000 0.098039 0.125864
0.081075 0.118342 0.139212
0.273718 0.157732 0.144642
0.512613 0.164048 0.126925
0.665238 0.124985 0.100632
0.704378 0.000000 0.000000
0.610343 0.000000 0.000000
0.621691 0.000000 0.000000
0.000000 0.189801 0.162107
0.000000 0.192523 0.162504
0.000000 0.201371 0.150429
0.253500 0.267397 0.136281
0.554376 0.313356 0.087117
0.742505 0.315596 0.000000
0.809286 0.300936 0.000000
0.777731 0.249279 0.000000
0.621691 0.000000 0.000000
0.000000 0.338039 0.205061
0.000000 0.338039 0.205061
0.000000 0.347320 0.203414
0.000000 0.376948 0.101072
0.550736 0.488844 0.000000
0.796431 0.517688 0.000000
0.889787 0.524728 0.000000
0.879233 0.495728 0.000000
0.869955 0.448673 0.000000
0.000000 0.439906 0.193892
0.000000 0.439498 0.192897
0.000000 0.439498 0.192897
0.000000 0.447057 0.175635
0.419706 0.587276 0.000000
0.805131 0.665656 0.000000
0.929831 0.681593 0.000000
0.938419 0.669184 0.000000
0.947367 0.663193 0.000000
0.000000 0.479205 0.148681
0.000000 0.479062 0.148372
0.000000 0.479062 0.148372
0.000000 0.478776 0.147752
0.000000 0.491669 0.000000
0.742320 0.732499 0.000000
0.936007 0.765749 0.000000
0.971107 0.765002 0.000000
0.984087 0.766929 0.000000
0.000000 0.495854 0.118894
0.000000 0.495854 0.118894
0.000000 0.495854 0.118894
0.000000 0.495854 0.118894
0.000000 0.495854 0.118894
0.000000 0.595053 0.000000
0.897222 0.796203 0.000000
0.983319 0.811285 0.000000
1.000807 0.814265 0.000000
0.000000 0.507379 0.120685
0.000000 0.507379 0.120685
0.000000 0.507379 0.120685
0.000000 0.507379 0.120685
0.000000 0.507379 0.120685
0.000000 0.507379 0.120685
0.511989 0.723030 0.000000
0.979775 0.827649 0.000000
1.008435 0.832055 0.000000
0.010828 0.010149 0.011667
0.042839 0.033322 0.078260
0.078391 0.042453 0.137679
0.196508 0.047563 0.201972
0.377430 0.000000 0.232766
0.529690 0.000000 0.241231
0.616699 0.000000 0.244310
0.653007 0.000000 0.218722
0.621691 0.000000 0.000000
0.017283 0.038335 0.079319
0.038750 0.042023 0.146617
0.097803 0.042163 0.211215
0.234100 0.055871 0.244784
0.425978 0.000000 0.262577
0.568170 0.000000 0.263383
0.628522 0.000000 0.252317
0.652694 0.000000 0.217358
0.621691 0.000000 0.000000
0.000000 0.099780 0.222090
0.000000 0.101918 0.235871
0.052386 0.114760 0.266322
0.268377 0.150208 0.299563
0.506627 0.150070 0.308406
0.660349 0.081781 0.304615
0.704881 0.000000 0.289073
0.654952 0.000000 0.220529
0.621810 0.000000 0.000000
0.000000 0.223678 0.294208
0.000000 0.230807 0.302159
0.000000 0.238918 0.310297
0.229435 0.279757 0.319593
0.548759 0.324370 0.325785
0.742827 0.325361 0.320816
0.815085 0.308881 0.311910
0.813728 0.240825 0.258688
0.621691 0.000000 0.000000
0.000000 0.400994 0.372998
0.000000 0.400994 0.372998
0.000000 0.412747 0.379766
0.000000 0.412240 0.316014
0.531856 0.516294 0.314717
0.793098 0.544195 0.304437
0.893191 0.556661 0.307204
0.921566 0.549441 0.260224
0.869955 0.448673 0.000000
0.000000 0.513147 0.390101
0.000000 0.513147 0.390101
0.000000 0.513147 0.390101
0.000000 0.525298 0.390188
0.362144 0.624791 0.286095
0.794453 0.710355 0.289974
0.933783 0.730615 0.277011
0.977209 0.726925 0.177389
0.947367 0.663193 0.000000
0.000000 0.560774 0.367612
0.000000 0.560774 0.367612
0.000000 0.560774 0.367612
0.000000 0.560227 0.366028
0.000000 0.576274 0.337925
0.725680 0.779185 0.225706
0.951138 0.815034 0.157190
1.004062 0.810834 0.000000
0.984087 0.766929 0.000000
0.000000 0.552422 0.273864
0.000000 0.552422 0.273864
0.000000 0.551990 0.272737
0.000000 0.551990 0.272737
0.000000 0.551126 0.270481
0.000000 0.616517 0.133795
0.918983 0.825107 0.000000
1.008977 0.823968 0.000000
1.000807 0.814265 0.000000
0.000000 0.507379 0.120685
0.000000 0.507379 0.120685
0.000000 0.507379 0.120685
0.000000 0.507379 0.120685
0.000000 0.507379 0.120685
0.000000 0.507379 0.120685
0.517164 0.724445 0.000000
0.979775 0.827649 0.000000
1.008435 0.832055 0.000000
0.021762 0.023764 0.049896
0.049645 0.021145 0.160342
0.093127 0.000000 0.247665
0.222110 0.000000 0.335491
0.397873 0.000000 0.372723
0.544475 0.000000 0.389737
0.632878 0.000000 0.405736
0.669429 0.000000 0.411539
0.680656 0.000000 0.385088
0.000000 0.034961 0.141498
0.038971 0.000000 0.256357
0.110867 0.000000 0.332734
0.247837 0.000000 0.377026
0.437418 0.000000 0.409727
0.585065 0.000000 0.421561
0.646852 0.000000 0.419236
0.669429 0.000000 0.411539
0.680656 0.000000 0.385088
0.000000 0.087346 0.325997
0.000000 0.082594 0.351329
0.052091 0.080200 0.391278
0.267305 0.107510 0.439335
0.495147 0.085556 0.468383
0.645101 0.000000 0.470536
0.689623 0.000000 0.456615
0.674424 0.000000 0.419926
0.680533 0.000000 0.383764
0.000000 0.236005 0.425851
0.000000 0.243537 0.441412
0.000000 0.249517 0.458690
0.212036 0.288704 0.501705
0.539612 0.327052 0.533039
0.737413 0.323767 0.541203
0.814776 0.303838 0.544162
0.811412 0.212815 0.522887
0.680933 0.000000 0.385221
0.000000 0.417057 0.520942
0.000000 0.418716 0.522809
0.000000 0.436598 0.537678
0.000000 0.450310 0.529111
0.498703 0.539823 0.555719
0.781048 0.572775 0.568656
0.887089 0.582732 0.579746
0.918268 0.578138 0.581631
0.912794 0.517955 0.537802
0.000000 0.562011 0.576876
0.000000 0.562011 0.576876
0.000000 0.562011 0.576876
0.000000 0.580325 0.588927
0.248129 0.662692 0.547142
0.774186 0.748381 0.578465
0.923247 0.771104 0.590835
0.967908 0.776687 0.587490
0.979182 0.764973 0.543176
0.000000 0.628384 0.585863
0.000000 0.628384 0.585863
0.000000 0.627544 0.585410
0.000000 0.627544 0.585410
0.000000 0.654622 0.592906
0.686514 0.827607 0.569382
0.932844 0.868269 0.581847
0.989845 0.877236 0.578677
1.006150 0.871586 0.527192
0.000000 0.650949 0.568480
0.000000 0.650606 0.567159
0.000000 0.650606 0.567159
0.000000 0.650606 0.567159
0.000000 0.650116 0.565610
0.000000 0.699161 0.555310
0.890157 0.897707 0.546613
0.994742 0.912128 0.544592
1.016642 0.903859 0.470394
0.000000 0.641629 0.514416
0.000000 0.641629 0.514416
0.000000 0.641177 0.512880
0.000000 0.641177 0.512880
0.000000 0.641177 0.512880
0.000000 0.640724 0.511345
0.325256 0.788603 0.440296
0.986386 0.906124 0.420143
1.022751 0.883584 0.164651
0.046077 0.000000 0.282960
0.098242 0.000000 0.361683
0.164171 0.000000 0.416075
0.268706 0.000000 0.461281
0.433461 0.000000 0.493609
0.576286 0.000000 0.514486
0.645513 0.000000 0.520129
0.681796 0.000000 0.533596
0.695074 0.000000 0.536897
0.022131 0.000000 0.357228
0.103379 0.000000 0.416596
0.161009 0.000000 0.446731
0.276073 0.000000 0.488957
0.459540 0.000000 0.523519
0.608987 0.000000 0.544520
0.670700 0.000000 0.544883
0.681796 0.000000 0.533596
0.695074 0.000000 0.536897
0.000000 0.000000 0.432007
0.000000 0.003015 0.454562
0.120217 0.000000 0.497088
0.280071 0.032452 0.542732
0.497461 0.000000 0.575898
0.652258 0.000000 0.590677
0.707032 0.000000 0.581256
0.696417 0.000000 0.550695
0.695074 0.000000 0.536897
0.000000 0.222403 0.520832
0.000000 0.227368 0.532065
0.000000 0.235214 0.561325
0.228621 0.274906 0.622995
0.533297 0.302435 0.661295
0.728452 0.291617 0.677619
0.806003 0.261612 0.679573
0.805392 0.154519 0.658189
0.695613 0.000000 0.538858
0.000000 0.408529 0.609042
0.000000 0.420365 0.619303
0.000000 0.431413 0.629768
0.000000 0.457864 0.657959
0.487644 0.542529 0.709409
0.769266 0.569391 0.732520
0.879739 0.580341 0.742414
0.912527 0.575703 0.745859
0.905928 0.508639 0.730088
0.000000 0.565625 0.678320
0.000000 0.565625 0.678320
0.000000 0.565625 0.678320
0.000000 0.586921 0.693493
0.111363 0.683701 0.715297
0.756679 0.767536 0.752395
0.911869 0.789594 0.767182
0.959245 0.795738 0.776431
0.972116 0.791313 0.774329
0.000000 0.649011 0.709768
0.000000 0.649011 0.709768
0.000000 0.649011 0.709768
0.000000 0.649011 0.709768
0.000000 0.684012 0.727781
0.653506 0.853432 0.753435
0.919528 0.895119 0.774290
0.979050 0.905211 0.785939
0.995011 0.908630 0.782884
0.000000 0.685417 0.719168
0.000000 0.685402 0.718565
0.000000 0.685402 0.718565
0.000000 0.685402 0.718565
0.000000 0.685402 0.718565
0.000000 0.744393 0.728015
0.868707 0.930924 0.771991
0.980342 0.948437 0.784070
1.002669 0.950809 0.784832
0.000000 0.692406 0.710233
0.000000 0.692406 0.710233
0.000000 0.692406 0.710233
0.000000 0.692236 0.709299
0.000000 0.692236 0.709299
0.000000 0.692236 0.709299
0.000000 0.828923 0.721586
0.964199 0.958342 0.769239
1.004918 0.962908 0.769212
0.180793 0.000000 0.501119
0.208594 0.000000 0.517408
0.250609 0.000000 0.537549
0.335716 0.000000 0.565909
0.486006 0.000000 0.595820
0.620923 0.000000 0.615804
0.683849 0.000000 0.618462
0.691678 0.000000 0.602944
0.704504 0.000000 0.608356
0.165990 0.000000 0.515448
0.192337 0.000000 0.532727
0.241123 0.000000 0.554039
0.337086 0.000000 0.583213
0.495153 0.000000 0.612927
0.633205 0.000000 0.629968
0.698832 0.000000 0.635220
0.695289 0.000000 0.608236
0.704504 0.000000 0.608356
0.097782 0.000000 0.544564
0.144096 0.000000 0.564305
0.214490 0.000000 0.587891
0.335517 0.000000 0.615902
0.511594 0.000000 0.643057
0.650553 0.000000 0.652646
0.714759 0.000000 0.653569
0.725775 0.000000 0.641311
0.704504 0.000000 0.608356
0.000000 0.198779 0.599859
0.000000 0.201839 0.621996
0.021079 0.213853 0.652655
0.311652 0.241820 0.691396
0.540594 0.250018 0.723727
0.711500 0.217488 0.736523
0.784284 0.156674 0.736168
0.787164 0.000000 0.711529
0.731448 0.000000 0.638509
0.000000 0.412370 0.676015
0.000000 0.422189 0.688010
0.000000 0.435929 0.706606
0.000000 0.468648 0.748782
0.511884 0.530434 0.799260
0.762577 0.550157 0.824352
0.872545 0.561201 0.832892
0.904829 0.554379 0.833438
0.896197 0.475635 0.817701
0.000000 0.559012 0.728813
0.000000 0.566397 0.734668
0.000000 0.573800 0.740388
0.000000 0.596861 0.757444
0.242014 0.697980 0.814377
0.747598 0.767805 0.852926
0.905324 0.786289 0.868271
0.954026 0.796357 0.875651
0.965825 0.790286 0.878169
0.000000 0.646925 0.764443
0.000000 0.646925 0.764443
0.000000 0.646925 0.764443
0.000000 0.646925 0.764443
0.000000 0.708296 0.798751
0.639882 0.866312 0.860625
0.907948 0.906402 0.882846
0.971926 0.916313 0.892474
0.989169 0.921089 0.895758
0.000000 0.684642 0.775896
0.000000 0.684642 0.775896
0.000000 0.684642 0.775896
0.000000 0.684642 0.775896
0.000000 0.684642 0.775896
0.000000 0.765117 0.812976
0.855357 0.943928 0.881439
0.972250 0.961514 0.895091
0.995790 0.964368 0.900739
0.000000 0.695951 0.777218
0.000000 0.695951 0.777218
0.000000 0.695951 0.777218
0.000000 0.695951 0.777218
0.000000 0.695951 0.777218
0.000000 0.695951 0.777218
0.000000 0.845285 0.831265
0.954821 0.974638 0.894329
0.996470 0.981069 0.901807
0.294860 0.000000 0.625174
0.334074 0.000000 0.636176
0.378979 0.000000 0.646069
0.448960 0.000000 0.659384
0.554794 0.000000 0.674782
0.657828 0.000000 0.686512
0.719787 0.000000 0.692103
0.738982 0.000000 0.688445
0.712007 0.000000 0.649021
0.285464 0.000000 0.639199
0.327620 0.000000 0.649669
0.374310 0.000000 0.659779
0.451943 0.000000 0.672256
0.562016 0.000000 0.687920
0.664458 0.000000 0.696154
0.726276 0.000000 0.700626
0.746406 0.000000 0.697371
0.712007 0.000000 0.649021
0.270308 0.000000 0.661944
0.318786 0.000000 0.673859
0.371870 0.042352 0.683423
0.453583 0.000000 0.695910
0.571577 0.000000 0.709548
0.677659 0.000000 0.716605
0.739848 0.000000 0.717462
0.755417 0.000000 0.708274
0.717124 0.000000 0.655102
0.205810 0.242766 0.718584
0.282318 0.250518 0.731224
0.355353 0.258810 0.744464
0.452686 0.262128 0.758457
0.592721 0.258909 0.775280
0.723091 0.237376 0.786463
0.795490 0.203442 0.789878
0.808333 0.107537 0.776370
0.764866 0.000000 0.711662
0.000000 0.430471 0.763746
0.000000 0.448078 0.782733
0.111657 0.465395 0.801053
0.371361 0.491568 0.824911
0.582077 0.520907 0.851188
0.768760 0.529584 0.869941
0.864914 0.538303 0.877830
0.898593 0.532137 0.877804
0.891914 0.459756 0.862027
0.000000 0.583874 0.782517
0.000000 0.598280 0.795242
0.000000 0.613373 0.810568
0.000000 0.649605 0.839824
0.460666 0.717060 0.880006
0.758481 0.757491 0.905638
0.897224 0.778286 0.919382
0.948570 0.781613 0.924770
0.960271 0.774279 0.926369
0.000000 0.649590 0.795597
0.000000 0.654866 0.798719
0.000000 0.660943 0.802945
0.000000 0.679213 0.815341
0.000000 0.757643 0.855976
0.668890 0.869875 0.915698
0.903314 0.904989 0.935826
0.967004 0.912166 0.943893
0.984565 0.915745 0.946935
0.000000 0.681515 0.805667
0.000000 0.681515 0.805667
0.000000 0.681515 0.805667
0.000000 0.681515 0.805667
0.000000 0.681515 0.805667
0.000000 0.809808 0.867963
0.848617 0.947700 0.938105
0.967321 0.965302 0.950408
0.992616 0.968860 0.954139
0.000000 0.695522 0.808491
0.000000 0.695522 0.808491
0.000000 0.695522 0.808491
0.000000 0.695522 0.808491
0.000000 0.695522 0.808491
0.000000 0.695522 0.808491
0.243923 0.882242 0.898192
0.948812 0.981445 0.951147
0.993754 0.987834 0.956644
0.503171 0.138051 0.744839
0.538916 0.131831 0.749436
0.573252 0.121657 0.753333
0.614967 0.102045 0.757265
0.664016 0.077660 0.763320
0.723846 0.000000 0.769769
0.770644 0.000000 0.773365
0.788845 0.000000 0.767655
0.777142 0.000000 0.743504
0.505343 0.193523 0.762155
0.540538 0.193143 0.767160
0.579512 0.187547 0.771275
0.623239 0.182543 0.776699
0.671114 0.171614 0.781367
0.734563 0.146297 0.787351
0.783786 0.103535 0.790422
0.798802 0.000000 0.781193
0.786785 0.000000 0.755590
0.505635 0.261245 0.784424
0.539984 0.259782 0.788554
0.580457 0.256006 0.792742
0.629225 0.255201 0.799001
0.681761 0.252020 0.804885
0.748927 0.234837 0.810209
0.801432 0.215378 0.813929
0.817043 0.165936 0.805654
0.797718 0.000000 0.769620
0.494729 0.357121 0.815743
0.538993 0.358602 0.821375
0.579377 0.360788 0.826801
0.635821 0.362242 0.833848
0.695038 0.362597 0.840430
0.770895 0.354166 0.846941
0.830124 0.341680 0.851456
0.848173 0.313086 0.844645
0.829049 0.186331 0.810387
0.438986 0.509621 0.857017
0.505302 0.518314 0.865168
0.558866 0.524333 0.871772
0.628681 0.533065 0.880713
0.706453 0.538261 0.888942
0.796018 0.541593 0.896896
0.866982 0.546129 0.903223
0.898741 0.540468 0.903758
0.897768 0.482119 0.890898
0.200853 0.678089 0.883891
0.358779 0.691799 0.893838
0.449083 0.706124 0.902259
0.556333 0.722652 0.912805
0.673824 0.738078 0.923534
0.804187 0.753957 0.935982
0.899204 0.767407 0.945987
0.944108 0.772884 0.950654
0.957187 0.763303 0.951549
0.000000 0.728029 0.865340
0.000000 0.744626 0.875579
0.000000 0.767996 0.888788
0.184047 0.801661 0.908253
0.533369 0.843468 0.932255
0.754278 0.876508 0.951312
0.906551 0.898231 0.965223
0.963637 0.906816 0.970815
0.980957 0.908383 0.973090
0.000000 0.697820 0.830525
0.000000 0.701081 0.832695
0.000000 0.706608 0.836122
0.000000 0.718496 0.843819
0.000000 0.761703 0.869869
0.481285 0.893136 0.936591
0.866608 0.950850 0.968880
0.965714 0.965219 0.978158
0.990392 0.968135 0.980724
0.000000 0.693364 0.822304
0.000000 0.693364 0.822304
0.000000 0.693364 0.822304
0.000000 0.693364 0.822304
0.000000 0.693364 0.822304
0.000000 0.693364 0.822304
0.557860 0.926229 0.947373
0.946859 0.984205 0.980243
0.991064 0.990471 0.984409
