transforms/AB01_cool_fpe_r709.cube
#  AB_01_FPE_r709.cube
LUT_3D_SIZE 5
0.000000 0.000000 0.000000
0.042188 0.026668 0.014339
0.292515 0.062438 0.000000
0.558547 0.000000 0.000000
0.621691 0.000000 0.000000
0.000000 0.086418 0.044130
0.087644 0.114835 0.037373
0.479817 0.172068 0.000000
0.677464 0.064710 0.000000
0.621691 0.000000 0.000000
0.000000 0.282303 0.116669
0.000000 0.292790 0.114388
0.521941 0.457083 0.000000
0.853170 0.499256 0.000000
0.869304 0.447011 0.000000
0.000000 0.465002 0.124723
0.000000 0.465002 0.124723
0.000000 0.480447 0.000000
0.918439 0.754613 0.000000
0.983880 0.766344 0.000000
0.000000 0.507379 0.120685
0.000000 0.507379 0.120685
0.000000 0.507379 0.120685
0.509395 0.722322 0.000000
1.008435 0.832055 0.000000
0.005590 0.005134 0.004466
0.063004 0.041160 0.066353
0.363630 0.040269 0.110894
0.599622 0.000000 0.050408
0.621691 0.000000 0.000000
0.000000 0.097741 0.127033
0.081075 0.118342 0.139212
0.512613 0.164048 0.126925
0.704378 0.000000 0.000000
0.621691 0.000000 0.000000
0.000000 0.338039 0.205061
0.000000 0.347320 0.203414
0.550736 0.488844 0.000000
0.889787 0.524728 0.000000
0.869955 0.448673 0.000000
0.000000 0.479205 0.148681
0.000000 0.479062 0.148372
0.000000 0.491669 0.000000
0.936007 0.765749 0.000000
0.984087 0.766929 0.000000
0.000000 0.507379 0.120685
0.000000 0.507379 0.120685
0.000000 0.507379 0.120685
0.511989 0.723030 0.000000
1.008435 0.832055 0.000000
0.021762 0.023764 0.049896
0.093127 0.000000 0.247665
0.397873 0.000000 0.372723
0.632878 0.000000 0.405736
0.680656 0.000000 0.385088
0.000000 0.087346 0.325997
0.052091 0.080200 0.391278
0.495147 0.085556 0.468383
0.689623 0.000000 0.456615
0.680533 0.000000 0.383764
0.000000 0.417057 0.520942
0.000000 0.436598 0.537678
0.498703 0.539823 0.555719
0.887089 0.582732 0.579746
0.912794 0.517955 0.537802
0.000000 0.628384 0.585863
0.000000 0.627544 0.585410
0.000000 0.654622 0.592906
0.932844 0.868269 0.581847
1.006150 0.871586 0.527192
0.000000 0.641629 0.514416
0.000000 0.641177 0.512880
0.000000 0.641177 0.512880
0.325256 0.788603 0.440296
1.022751 0.883584 0.164651
0.180793 0.000000 0.501119
0.250609 0.000000 0.537549
0.486006 0.000000 0.595820
0.683849 0.000000 0.618462
0.704504 0.000000 0.608356
0.097782 0.000000 0.544564
0.214490 0.000000 0.587891
0.511594 0.000000 0.643057
0.714759 0.000000 0.653569
0.704504 0.000000 0.608356
0.000000 0.412370 0.676015
0.000000 0.435929 0.706606
0.511884 0.530434 0.799260
0.872545 0.561201 0.832892
0.896197 0.475635 0.817701
0.000000 0.646925 0.764443
0.000000 0.646925 0.764443
0.000000 0.708296 0.798751
0.907948 0.906402 0.882846
0.989169 0.921089 0.895758
0.000000 0.695951 0.777218
0.000000 0.695951 0.777218
0.000000 0.695951 0.777218
0.000000 0.845285 0.831265
0.996470 0.981069 0.901807
0.503171 0.138051 0.744839
0.573252 0.121657 0.753333
0.664016 0.077660 0.763320
0.770644 0.000000 0.773365
0.777142 0.000000 0.743504
0.505635 0.261245 0.784424
0.580457 0.256006 0.792742
0.681761 0.252020 0.804885
0.801432 0.215378 0.813929
0.797718 0.000000 0.769620
0.438986 0.509621 0.857017
0.558866 0.524333 0.871772
0.706453 0.538261 0.888942
0.866982 0.546129 0.903223
0.897768 0.482119 0.890898
0.000000 0.728029 0.865340
0.000000 0.767996 0.888788
0.533369 0.843468 0.932255
0.906551 0.898231 0.965223
0.980957 0.908383 0.973090
0.000000 0.693364 0.822304
0.000000 0.693364 0.822304
0.000000 0.693364 0.822304
0.557860 0.926229 0.947373
0.991064 0.990471 0.984409
