transforms/AB01_cool_fpe_r709.cube
#  AB_01_FPE_r709.cube
LUT_3D_SIZE 33
0.000000 0.000000 0.000000
0.000215 0.000195 0.000153
0.000924 0.000817 0.000631
0.002379 0.002084 0.001593
0.005529 0.004330 0.003227
0.010140 0.007298 0.005308
0.016831 0.011415 0.007872
0.027003 0.017685 0.010898
0.042188 0.026668 0.014339
0.057578 0.036404 0.015879
0.076030 0.048190 0.016119
0.101998 0.052433 0.000000
0.130509 0.056318 0.000000
0.160611 0.059113 0.000000
0.195873 0.062633 0.000000
0.241056 0.066858 0.000000
0.292515 0.062438 0.000000
0.345409 0.052049 0.000000
0.391944 0.024035 0.000000
0.432370 0.000000 0.000000
0.464287 0.000000 0.000000
0.493930 0.000000 0.000000
0.518531 0.000000 0.000000
0.540814 0.000000 0.000000
0.558547 0.000000 0.000000
0.574973 0.000000 0.000000
0.585678 0.000000 0.000000
0.596755 0.000000 0.000000
0.603405 0.000000 0.000000
0.610158 0.000000 0.000000
0.615142 0.000000 0.000000
0.618960 0.000000 0.000000
0.621691 0.000000 0.000000
0.000331 0.000306 0.000237
0.000476 0.000447 0.000338
0.001566 0.001443 0.001083
0.004064 0.003360 0.002444
0.008569 0.006406 0.004480
0.015192 0.011002 0.006973
0.024330 0.017231 0.009726
0.038183 0.026235 0.012871
0.059129 0.039800 0.015949
0.077117 0.051120 0.015757
0.101729 0.054462 0.000000
0.127972 0.057493 0.000000
0.157030 0.060043 0.000000
0.188812 0.063319 0.000000
0.227053 0.068188 0.000000
0.270358 0.067666 0.000000
0.317978 0.061550 0.000000
0.364596 0.048175 0.000000
0.404099 0.014293 0.000000
0.438260 0.000000 0.000000
0.468389 0.000000 0.000000
0.494742 0.000000 0.000000
0.518531 0.000000 0.000000
0.540814 0.000000 0.000000
0.558547 0.000000 0.000000
0.574973 0.000000 0.000000
0.585678 0.000000 0.000000
0.596544 0.000000 0.000000
0.603405 0.000000 0.000000
0.610158 0.000000 0.000000
0.615142 0.000000 0.000000
0.618960 0.000000 0.000000
0.621691 0.000000 0.000000
0.001490 0.001495 0.001116
0.001768 0.001868 0.001340
0.002245 0.002266 0.001549
0.005234 0.004770 0.003097
0.011067 0.009282 0.005492
0.019440 0.015809 0.008279
0.030901 0.024493 0.011370
0.049924 0.036958 0.014513
0.076429 0.053432 0.016630
0.100230 0.057624 0.008882
0.126552 0.060563 0.000000
0.156381 0.063974 0.000000
0.185657 0.066620 0.000000
0.223620 0.071745 0.000000
0.259990 0.074932 0.000000
0.303421 0.069765 0.000000
0.343369 0.062574 0.000000
0.381961 0.048035 0.000000
0.418144 0.011681 0.000000
0.449539 0.000000 0.000000
0.479158 0.000000 0.000000
0.503358 0.000000 0.000000
0.522527 0.000000 0.000000
0.541405 0.000000 0.000000
0.558547 0.000000 0.000000
0.575370 0.000000 0.000000
0.585678 0.000000 0.000000
0.596544 0.000000 0.000000
0.603405 0.000000 0.000000
0.610158 0.000000 0.000000
0.614996 0.000000 0.000000
0.618666 0.000000 0.000000
0.621691 0.000000 0.000000
0.003644 0.004661 0.003072
0.003982 0.005163 0.003322
0.004833 0.005894 0.003625
0.006313 0.006734 0.003814
0.012248 0.011828 0.006009
0.021844 0.020405 0.009257
0.035777 0.031186 0.012543
0.058703 0.045709 0.015434
0.090843 0.061154 0.014899
0.118076 0.064249 0.000000
0.148288 0.068354 0.000000
0.178172 0.073077 0.000000
0.210447 0.078157 0.000000
0.247012 0.083633 0.000000
0.285841 0.085190 0.000000
0.330355 0.081017 0.000000
0.372752 0.073500 0.000000
0.413621 0.059726 0.000000
0.448806 0.030290 0.000000
0.474907 0.000000 0.000000
0.499602 0.000000 0.000000
0.515585 0.000000 0.000000
0.532674 0.000000 0.000000
0.548394 0.000000 0.000000
0.559139 0.000000 0.000000
0.575370 0.000000 0.000000
0.585678 0.000000 0.000000
0.596544 0.000000 0.000000
0.603405 0.000000 0.000000
0.610158 0.000000 0.000000
0.615142 0.000000 0.000000
0.618666 0.000000 0.000000
0.621691 0.000000 0.000000
0.006387 0.011356 0.006724
0.006705 0.012150 0.007073
0.007371 0.012974 0.007347
0.010368 0.014663 0.007749
0.013814 0.016112 0.007857
0.021677 0.023283 0.010611
0.037207 0.035745 0.014824
0.063057 0.052464 0.018428
0.098211 0.069170 0.017581
0.126189 0.074147 0.000000
0.156396 0.079763 0.000000
0.186490 0.085527 0.000000
0.222360 0.091591 0.000000
0.262501 0.098033 0.000000
0.305674 0.099048 0.000000
0.353460 0.094926 0.000000
0.400934 0.087771 0.000000
0.444688 0.075904 0.000000
0.478169 0.054896 0.000000
0.505443 0.000000 0.000000
0.527530 0.000000 0.000000
0.540375 0.000000 0.000000
0.552791 0.000000 0.000000
0.559235 0.000000 0.000000
0.568027 0.000000 0.000000
0.576083 0.000000 0.000000
0.585678 0.000000 0.000000
0.596544 0.000000 0.000000
0.603405 0.000000 0.000000
0.610158 0.000000 0.000000
0.614996 0.000000 0.000000
0.618666 0.000000 0.000000
0.621810 0.000000 0.000000
0.007049 0.021884 0.012265
0.007397 0.022642 0.012529
0.007798 0.023893 0.012878
0.013060 0.026094 0.013236
0.019694 0.027894 0.013211
0.023876 0.029623 0.013329
0.035375 0.038789 0.016288
0.062606 0.057244 0.021096
0.098837 0.076357 0.022574
0.129446 0.083455 0.010350
0.160239 0.090059 0.000000
0.192995 0.096841 0.000000
0.232444 0.104429 0.000000
0.276065 0.111186 0.000000
0.323785 0.112481 0.000000
0.375568 0.109925 0.000000
0.425023 0.104414 0.000000
0.472604 0.095699 0.000000
0.506311 0.080413 0.000000
0.534900 0.054441 0.000000
0.555783 0.000000 0.000000
0.569878 0.000000 0.000000
0.576840 0.000000 0.000000
0.578425 0.000000 0.000000
0.580256 0.000000 0.000000
0.582689 0.000000 0.000000
0.586392 0.000000 0.000000
0.596544 0.000000 0.000000
0.603405 0.000000 0.000000
0.610158 0.000000 0.000000
0.614996 0.000000 0.000000
0.618666 0.000000 0.000000
0.621810 0.000000 0.000000
0.000000 0.037261 0.020131
0.000000 0.037614 0.020193
0.000000 0.039022 0.020677
0.000000 0.041714 0.021452
0.020193 0.044053 0.021593
0.029961 0.047009 0.021695
0.035561 0.049203 0.021491
0.058436 0.063521 0.024174
0.098593 0.088456 0.027472
0.129643 0.096086 0.018381
0.164426 0.104751 0.000000
0.198901 0.112557 0.000000
0.241118 0.119882 0.000000
0.288524 0.127014 0.000000
0.339891 0.129289 0.000000
0.393034 0.128026 0.000000
0.446850 0.124040 0.000000
0.493434 0.116631 0.000000
0.527897 0.105201 0.000000
0.560158 0.085816 0.000000
0.583086 0.061482 0.000000
0.600822 0.000000 0.000000
0.610886 0.000000 0.000000
0.609936 0.000000 0.000000
0.603666 0.000000 0.000000
0.596244 0.000000 0.000000
0.592421 0.000000 0.000000
0.596544 0.000000 0.000000
0.603405 0.000000 0.000000
0.610158 0.000000 0.000000
0.614996 0.000000 0.000000
0.618666 0.000000 0.000000
0.621691 0.000000 0.000000
0.000000 0.059296 0.032027
0.000000 0.060282 0.032480
0.000000 0.061227 0.032617
0.000000 0.063077 0.032936
0.000000 0.066334 0.033400
0.032266 0.068994 0.033660
0.042675 0.073729 0.033124
0.060574 0.079748 0.031293
0.094839 0.099746 0.032678
0.129648 0.110218 0.024999
0.165482 0.119247 0.000000
0.202689 0.127670 0.000000
0.248940 0.136020 0.000000
0.298425 0.142794 0.000000
0.352997 0.146390 0.000000
0.409885 0.147530 0.000000
0.463809 0.146636 0.000000
0.515184 0.142761 0.000000
0.548827 0.134458 0.000000
0.583192 0.122651 0.000000
0.606418 0.109107 0.000000
0.627558 0.089397 0.000000
0.639059 0.054490 0.000000
0.646851 0.000000 0.000000
0.644742 0.000000 0.000000
0.628645 0.000000 0.000000
0.609014 0.000000 0.000000
0.600437 0.000000 0.000000
0.603405 0.000000 0.000000
0.610304 0.000000 0.000000
0.614996 0.000000 0.000000
0.618666 0.000000 0.000000
0.621691 0.000000 0.000000
0.000000 0.086418 0.044130
0.000000 0.086874 0.044192
0.000000 0.087826 0.044072
0.000000 0.089156 0.044024
0.000000 0.090380 0.043661
0.000000 0.093523 0.043792
0.029486 0.099184 0.042975
0.055501 0.105829 0.040912
0.087644 0.114835 0.037373
0.124686 0.125272 0.030014
0.164915 0.136366 0.000000
0.206903 0.146128 0.000000
0.253930 0.155559 0.000000
0.308166 0.164723 0.000000
0.364303 0.169285 0.000000
0.424660 0.171716 0.000000
0.479817 0.172068 0.000000
0.532801 0.170322 0.000000
0.569094 0.164953 0.000000
0.603953 0.156009 0.000000
0.627505 0.146114 0.000000
0.650195 0.133831 0.000000
0.664875 0.122202 0.000000
0.674809 0.102957 0.000000
0.677464 0.064710 0.000000
0.673605 0.000000 0.000000
0.657287 0.000000 0.000000
0.619591 0.000000 0.000000
0.605513 0.000000 0.000000
0.610158 0.000000 0.000000
0.614996 0.000000 0.000000
0.618666 0.000000 0.000000
0.621691 0.000000 0.000000
0.000000 0.101520 0.048844
0.000000 0.101998 0.049020
0.000000 0.102635 0.048974
0.000000 0.103218 0.048765
0.000000 0.103842 0.048442
0.000000 0.105925 0.048347
0.000000 0.112103 0.048254
0.019604 0.119517 0.046467
0.074822 0.128807 0.042414
0.116394 0.140247 0.035183
0.160799 0.152771 0.016309
0.206999 0.164258 0.000000
0.255667 0.174979 0.000000
0.312688 0.185350 0.000000
0.373534 0.192933 0.000000
0.436259 0.197743 0.000000
0.494569 0.199679 0.000000
0.548756 0.199490 0.000000
0.586281 0.195811 0.000000
0.622489 0.189933 0.000000
0.647748 0.184754 0.000000
0.671050 0.176766 0.000000
0.687323 0.169424 0.000000
0.698626 0.157930 0.000000
0.704157 0.142256 0.000000
0.704475 0.117232 0.000000
0.699113 0.073474 0.000000
0.679034 0.000000 0.000000
0.636211 0.000000 0.000000
0.610451 0.000000 0.000000
0.614996 0.000000 0.000000
0.618666 0.000000 0.000000
0.621691 0.000000 0.000000
0.000000 0.118042 0.052859
0.000000 0.118042 0.052859
0.000000 0.118735 0.052783
0.000000 0.119575 0.052427
0.000000 0.120296 0.051922
0.000000 0.121752 0.051365
0.000000 0.125888 0.049638
0.000000 0.133891 0.047282
0.043485 0.143665 0.042949
0.101013 0.156277 0.034249
0.152248 0.171697 0.000000
0.203426 0.186130 0.000000
0.255728 0.199140 0.000000
0.317391 0.211394 0.000000
0.379283 0.220943 0.000000
0.445019 0.226798 0.000000
0.505837 0.231241 0.000000
0.559836 0.231913 0.000000
0.602841 0.230316 0.000000
0.638925 0.226143 0.000000
0.666063 0.221326 0.000000
0.689611 0.216392 0.000000
0.707541 0.210589 0.000000
0.720463 0.204210 0.000000
0.729406 0.197128 0.000000
0.732258 0.183067 0.000000
0.729734 0.161546 0.000000
0.721083 0.128950 0.000000
0.702623 0.039132 0.000000
0.650378 0.000000 0.000000
0.615289 0.000000 0.000000
0.618666 0.000000 0.000000
0.621691 0.000000 0.000000
0.000000 0.136254 0.055592
0.000000 0.136254 0.055592
0.000000 0.136888 0.055686
0.000000 0.137632 0.055002
0.000000 0.139069 0.054411
0.000000 0.139885 0.053417
0.000000 0.142650 0.051298
0.000000 0.147504 0.047335
0.000000 0.156994 0.043108
0.076473 0.171053 0.032575
0.138061 0.188931 0.000000
0.192952 0.206422 0.000000
0.249824 0.223809 0.000000
0.317388 0.236902 0.000000
0.382317 0.248581 0.000000
0.452019 0.257806 0.000000
0.514975 0.264470 0.000000
0.574443 0.267269 0.000000
0.616853 0.267275 0.000000
0.655263 0.265680 0.000000
0.684144 0.263369 0.000000
0.708131 0.261198 0.000000
0.726699 0.256458 0.000000
0.742563 0.253309 0.000000
0.752682 0.245859 0.000000
0.757390 0.236583 0.000000
0.758570 0.222876 0.000000
0.753951 0.205759 0.000000
0.744404 0.176250 0.000000
0.723612 0.113007 0.000000
0.673387 0.000000 0.000000
0.618812 0.000000 0.000000
0.621691 0.000000 0.000000
0.000000 0.157560 0.060674
0.000000 0.157560 0.060674
0.000000 0.158447 0.061011
0.000000 0.158571 0.060581
0.000000 0.160610 0.060275
0.000000 0.162645 0.059828
0.000000 0.164872 0.058879
0.000000 0.169324 0.051623
0.000000 0.177779 0.040234
0.000000 0.192622 0.022433
0.111626 0.210470 0.000000
0.179152 0.231366 0.000000
0.244699 0.251079 0.000000
0.315181 0.268309 0.000000
0.385997 0.282541 0.000000
0.457307 0.293426 0.000000
0.521339 0.300406 0.000000
0.581280 0.305199 0.000000
0.630858 0.307184 0.000000
0.669459 0.307854 0.000000
0.701187 0.305589 0.000000
0.724879 0.303591 0.000000
0.746885 0.301677 0.000000
0.763199 0.298084 0.000000
0.775301 0.294025 0.000000
0.781397 0.288374 0.000000
0.784492 0.278712 0.000000
0.782185 0.266357 0.000000
0.777731 0.249279 0.000000
0.766097 0.217391 0.000000
0.745712 0.162966 0.000000
0.689029 0.000000 0.000000
0.621691 0.000000 0.000000
0.000000 0.185215 0.071153
0.000000 0.185215 0.071153
0.000000 0.185215 0.071153
0.000000 0.186113 0.071492
0.000000 0.187280 0.071027
0.000000 0.188539 0.070166
0.000000 0.190869 0.069103
0.000000 0.195437 0.063400
0.000000 0.200154 0.042732
0.000000 0.212112 0.000000
0.055909 0.233556 0.000000
0.154743 0.255980 0.000000
0.233005 0.279226 0.000000
0.309469 0.300127 0.000000
0.382976 0.316547 0.000000
0.457374 0.328328 0.000000
0.525635 0.338940 0.000000
0.589379 0.346520 0.000000
0.642973 0.350548 0.000000
0.683571 0.351398 0.000000
0.718492 0.351738 0.000000
0.743007 0.351910 0.000000
0.766141 0.350670 0.000000
0.783860 0.349403 0.000000
0.797402 0.346268 0.000000
0.804343 0.341482 0.000000
0.809472 0.334711 0.000000
0.808977 0.324786 0.000000
0.806851 0.311488 0.000000
0.800377 0.291680 0.000000
0.789387 0.262852 0.000000
0.766827 0.209568 0.000000
0.713652 0.041630 0.000000
0.000000 0.213934 0.082988
0.000000 0.213934 0.082988
0.000000 0.213934 0.082988
0.000000 0.213934 0.082988
0.000000 0.215077 0.083562
0.000000 0.217746 0.083679
0.000000 0.220639 0.083057
0.000000 0.225252 0.081410
0.000000 0.229264 0.065664
0.000000 0.234554 0.024565
0.000000 0.256202 0.000000
0.122937 0.283198 0.000000
0.213313 0.308964 0.000000
0.296562 0.332420 0.000000
0.380032 0.350978 0.000000
0.456717 0.365937 0.000000
0.527440 0.378620 0.000000
0.594201 0.386295 0.000000
0.652491 0.393383 0.000000
0.696120 0.397072 0.000000
0.734558 0.398445 0.000000
0.761089 0.399096 0.000000
0.784986 0.397945 0.000000
0.802828 0.398325 0.000000
0.817952 0.395746 0.000000
0.825272 0.393190 0.000000
0.832634 0.390530 0.000000
0.833578 0.383800 0.000000
0.834066 0.375655 0.000000
0.830750 0.361974 0.000000
0.823779 0.339702 0.000000
0.810872 0.305681 0.000000
0.787714 0.252730 0.000000
0.000000 0.247269 0.099733
0.000000 0.247269 0.099733
0.000000 0.247269 0.099733
0.000000 0.247269 0.099733
0.000000 0.247269 0.099733
0.000000 0.249581 0.100894
0.000000 0.252151 0.101426
0.000000 0.255496 0.099890
0.000000 0.261829 0.097764
0.000000 0.263665 0.073124
0.000000 0.271674 0.000000
0.000000 0.302847 0.000000
0.173223 0.333322 0.000000
0.271245 0.360334 0.000000
0.364424 0.383807 0.000000
0.449885 0.402856 0.000000
0.527472 0.417988 0.000000
0.597144 0.429230 0.000000
0.662114 0.438896 0.000000
0.707074 0.442398 0.000000
0.749901 0.446844 0.000000
0.777215 0.447979 0.000000
0.803507 0.448967 0.000000
0.820845 0.448027 0.000000
0.837089 0.448336 0.000000
0.845178 0.447152 0.000000
0.852598 0.445699 0.000000
0.856033 0.441982 0.000000
0.857904 0.436423 0.000000
0.857294 0.427142 0.000000
0.854141 0.414515 0.000000
0.847383 0.394055 0.000000
0.834258 0.358308 0.000000
0.000000 0.282303 0.116669
0.000000 0.282303 0.116669
0.000000 0.282303 0.116669
0.000000 0.282303 0.116669
0.000000 0.282303 0.116669
0.000000 0.282303 0.116669
0.000000 0.283562 0.116982
0.000000 0.286081 0.117606
0.000000 0.292790 0.114388
0.000000 0.297676 0.105608
0.000000 0.299012 0.064767
0.000000 0.315438 0.000000
0.082948 0.351758 0.000000
0.239626 0.386764 0.000000
0.338653 0.413264 0.000000
0.432208 0.438164 0.000000
0.521941 0.457083 0.000000
0.598231 0.470046 0.000000
0.665026 0.481316 0.000000
0.715278 0.488375 0.000000
0.760217 0.491196 0.000000
0.792077 0.494949 0.000000
0.818937 0.497827 0.000000
0.837388 0.498779 0.000000
0.853170 0.499256 0.000000
0.862890 0.499559 0.000000
0.870682 0.499723 0.000000
0.875559 0.496313 0.000000
0.878596 0.494056 0.000000
0.880024 0.488280 0.000000
0.878895 0.480162 0.000000
0.875588 0.466979 0.000000
0.869304 0.447011 0.000000
0.000000 0.318978 0.125670
0.000000 0.318978 0.125670
0.000000 0.318978 0.125670
0.000000 0.318978 0.125670
0.000000 0.318978 0.125670
0.000000 0.318978 0.125670
0.000000 0.318978 0.125670
0.000000 0.318978 0.125670
0.000000 0.323906 0.126864
0.000000 0.331706 0.122298
0.000000 0.335851 0.113998
0.000000 0.332842 0.000000
0.000000 0.360931 0.000000
0.186851 0.408375 0.000000
0.306373 0.439755 0.000000
0.410137 0.466667 0.000000
0.508137 0.489185 0.000000
0.595405 0.507684 0.000000
0.666139 0.520947 0.000000
0.724242 0.530400 0.000000
0.769632 0.536668 0.000000
0.803431 0.541206 0.000000
0.831385 0.543285 0.000000
0.850299 0.544355 0.000000
0.866602 0.548133 0.000000
0.877796 0.546909 0.000000
0.886674 0.548790 0.000000
0.893203 0.547206 0.000000
0.896930 0.546650 0.000000
0.899766 0.544356 0.000000
0.900039 0.538429 0.000000
0.899274 0.530706 0.000000
0.896948 0.519406 0.000000
0.000000 0.354827 0.134289
0.000000 0.354827 0.134289
0.000000 0.354827 0.134289
0.000000 0.354827 0.134289
0.000000 0.354827 0.134289
0.000000 0.354827 0.134289
0.000000 0.354827 0.134289
0.000000 0.354827 0.134289
0.000000 0.354827 0.134289
0.000000 0.357309 0.134879
0.000000 0.364390 0.127041
0.000000 0.365134 0.105171
0.000000 0.370179 0.000000
0.000000 0.414018 0.000000
0.252222 0.458908 0.000000
0.379574 0.492524 0.000000
0.487144 0.519335 0.000000
0.584757 0.542210 0.000000
0.663413 0.557019 0.000000
0.728004 0.570380 0.000000
0.774887 0.575852 0.000000
0.810762 0.579596 0.000000
0.839215 0.583689 0.000000
0.861229 0.588250 0.000000
0.877427 0.589290 0.000000
0.891074 0.591305 0.000000
0.900390 0.593146 0.000000
0.908819 0.593342 0.000000
0.912262 0.592390 0.000000
0.915083 0.589972 0.000000
0.916781 0.587351 0.000000
0.916820 0.581510 0.000000
0.916114 0.574021 0.000000
0.000000 0.380338 0.133292
0.000000 0.380338 0.133292
0.000000 0.380338 0.133292
0.000000 0.380338 0.133292
0.000000 0.380338 0.133292
0.000000 0.380338 0.133292
0.000000 0.380338 0.133292
0.000000 0.380338 0.133292
0.000000 0.380338 0.133292
0.000000 0.380338 0.133292
0.000000 0.381956 0.133133
0.000000 0.389513 0.122210
0.000000 0.388946 0.060157
0.000000 0.409648 0.000000
0.152995 0.464620 0.000000
0.335366 0.511497 0.000000
0.456183 0.543887 0.000000
0.565344 0.570724 0.000000
0.650786 0.589393 0.000000
0.727099 0.603735 0.000000
0.774746 0.611151 0.000000
0.817016 0.617580 0.000000
0.845552 0.620617 0.000000
0.871134 0.624528 0.000000
0.888441 0.628733 0.000000
0.903434 0.630108 0.000000
0.912574 0.632030 0.000000
0.921730 0.633963 0.000000
0.926361 0.633533 0.000000
0.929978 0.632912 0.000000
0.931948 0.631034 0.000000
0.933198 0.629027 0.000000
0.933569 0.624630 0.000000
0.000000 0.403031 0.130806
0.000000 0.403031 0.130806
0.000000 0.403031 0.130806
0.000000 0.403031 0.130806
0.000000 0.403031 0.130806
0.000000 0.403031 0.130806
0.000000 0.403031 0.130806
0.000000 0.403031 0.130806
0.000000 0.403031 0.130806
0.000000 0.403031 0.130806
0.000000 0.403031 0.130806
0.000000 0.404656 0.130606
0.000000 0.413032 0.115300
0.000000 0.415136 0.000000
0.000000 0.462606 0.000000
0.254343 0.520425 0.000000
0.410715 0.563417 0.000000
0.540270 0.596075 0.000000
0.637572 0.617905 0.000000
0.720670 0.634105 0.000000
0.774075 0.641924 0.000000
0.821222 0.649298 0.000000
0.850668 0.653412 0.000000
0.880145 0.658741 0.000000
0.897533 0.662993 0.000000
0.914028 0.664731 0.000000
0.923814 0.666666 0.000000
0.932546 0.668410 0.000000
0.938419 0.669184 0.000000
0.942367 0.668307 0.000000
0.944830 0.667346 0.000000
0.946115 0.665264 0.000000
0.947367 0.663193 0.000000
0.000000 0.421783 0.129289
0.000000 0.421783 0.129289
0.000000 0.421783 0.129289
0.000000 0.421783 0.129289
0.000000 0.421783 0.129289
0.000000 0.421783 0.129289
0.000000 0.421783 0.129289
0.000000 0.421783 0.129289
0.000000 0.421783 0.129289
0.000000 0.421783 0.129289
0.000000 0.421783 0.129289
0.000000 0.421783 0.129289
0.000000 0.422988 0.129221
0.000000 0.431676 0.095031
0.000000 0.446309 0.000000
0.000000 0.507398 0.000000
0.337721 0.566144 0.000000
0.497360 0.608894 0.000000
0.616043 0.638613 0.000000
0.704941 0.655975 0.000000
0.771126 0.668607 0.000000
0.820273 0.676701 0.000000
0.855179 0.682207 0.000000
0.886141 0.687759 0.000000
0.904767 0.691005 0.000000
0.922520 0.694341 0.000000
0.933645 0.696748 0.000000
0.942555 0.699536 0.000000
0.948810 0.700767 0.000000
0.953145 0.700484 0.000000
0.956962 0.701722 0.000000
0.958544 0.700489 0.000000
0.959825 0.699215 0.000000
0.000000 0.438072 0.128252
0.000000 0.438072 0.128252
0.000000 0.438072 0.128252
0.000000 0.438072 0.128252
0.000000 0.438072 0.128252
0.000000 0.438072 0.128252
0.000000 0.438072 0.128252
0.000000 0.438072 0.128252
0.000000 0.438072 0.128252
0.000000 0.438072 0.128252
0.000000 0.438072 0.128252
0.000000 0.438072 0.128252
0.000000 0.438072 0.128252
0.000000 0.439280 0.128165
0.000000 0.451038 0.071423
0.000000 0.473545 0.000000
0.203214 0.554156 0.000000
0.437137 0.614260 0.000000
0.587418 0.652656 0.000000
0.684123 0.673886 0.000000
0.762879 0.689961 0.000000
0.817403 0.698004 0.000000
0.858155 0.705573 0.000000
0.887982 0.711287 0.000000
0.910892 0.714931 0.000000
0.928529 0.718554 0.000000
0.941446 0.720915 0.000000
0.950730 0.723566 0.000000
0.957451 0.725006 0.000000
0.961815 0.725870 0.000000
0.965306 0.726308 0.000000
0.967277 0.725479 0.000000
0.968967 0.724551 0.000000
0.000000 0.452962 0.126784
0.000000 0.452962 0.126784
0.000000 0.452962 0.126784
0.000000 0.452962 0.126784
0.000000 0.452962 0.126784
0.000000 0.452962 0.126784
0.000000 0.452962 0.126784
0.000000 0.452962 0.126784
0.000000 0.452962 0.126784
0.000000 0.452962 0.126784
0.000000 0.452962 0.126784
0.000000 0.452962 0.126784
0.000000 0.452962 0.126784
0.000000 0.452962 0.126784
0.000000 0.453853 0.126638
0.000000 0.466499 0.000000
0.000000 0.517157 0.000000
0.328884 0.602340 0.000000
0.528161 0.656284 0.000000
0.656839 0.688584 0.000000
0.752399 0.708781 0.000000
0.810409 0.719122 0.000000
0.858214 0.727726 0.000000
0.890400 0.733649 0.000000
0.915628 0.738536 0.000000
0.934597 0.741939 0.000000
0.948515 0.744230 0.000000
0.958180 0.746737 0.000000
0.965434 0.748229 0.000000
0.969514 0.749354 0.000000
0.973456 0.750943 0.000000
0.976027 0.750532 0.000000
0.977896 0.749174 0.000000
0.000000 0.465002 0.124723
0.000000 0.465002 0.124723
0.000000 0.465002 0.124723
0.000000 0.465002 0.124723
0.000000 0.465002 0.124723
0.000000 0.465002 0.124723
0.000000 0.465002 0.124723
0.000000 0.465002 0.124723
0.000000 0.465002 0.124723
0.000000 0.465002 0.124723
0.000000 0.465002 0.124723
0.000000 0.465002 0.124723
0.000000 0.465002 0.124723
0.000000 0.465002 0.124723
0.000000 0.465002 0.124723
0.000000 0.465895 0.124562
0.000000 0.480447 0.000000
0.072060 0.566088 0.000000
0.445418 0.647583 0.000000
0.614350 0.692903 0.000000
0.728850 0.718986 0.000000
0.799569 0.733121 0.000000
0.855486 0.743504 0.000000
0.889421 0.749226 0.000000
0.918439 0.754613 0.000000
0.938055 0.758141 0.000000
0.953570 0.761101 0.000000
0.962792 0.762759 0.000000
0.970884 0.764400 0.000000
0.975214 0.766267 0.000000
0.979124 0.767318 0.000000
0.981911 0.767722 0.000000
0.983880 0.766344 0.000000
0.000000 0.476617 0.122540
0.000000 0.476617 0.122540
0.000000 0.476617 0.122540
0.000000 0.476617 0.122540
0.000000 0.476617 0.122540
0.000000 0.476617 0.122540
0.000000 0.476617 0.122540
0.000000 0.476617 0.122540
0.000000 0.476617 0.122540
0.000000 0.476617 0.122540
0.000000 0.476617 0.122540
0.000000 0.476617 0.122540
0.000000 0.476617 0.122540
0.000000 0.476617 0.122540
0.000000 0.476617 0.122540
0.000000 0.476617 0.122540
0.000000 0.476617 0.122540
0.000000 0.494148 0.000000
0.246921 0.608307 0.000000
0.529434 0.684305 0.000000
0.681386 0.724654 0.000000
0.783056 0.746751 0.000000
0.844285 0.757466 0.000000
0.886602 0.764726 0.000000
0.919403 0.770373 0.000000
0.939670 0.774030 0.000000
0.958131 0.777394 0.000000
0.967745 0.778951 0.000000
0.976359 0.780949 0.000000
0.980394 0.782039 0.000000
0.984482 0.783642 0.000000
0.987268 0.783492 0.000000
0.989657 0.783285 0.000000
0.000000 0.484027 0.120840
0.000000 0.484027 0.120840
0.000000 0.484027 0.120840
0.000000 0.484027 0.120840
0.000000 0.484027 0.120840
0.000000 0.484027 0.120840
0.000000 0.484027 0.120840
0.000000 0.484027 0.120840
0.000000 0.484027 0.120840
0.000000 0.484027 0.120840
0.000000 0.484027 0.120840
0.000000 0.484027 0.120840
0.000000 0.484027 0.120840
0.000000 0.484027 0.120840
0.000000 0.484027 0.120840
0.000000 0.484027 0.120840
0.000000 0.484027 0.120840
0.000000 0.484027 0.120840
0.000000 0.517869 0.000000
0.371720 0.650174 0.000000
0.611703 0.718267 0.000000
0.746017 0.750777 0.000000
0.826287 0.766322 0.000000
0.879494 0.775468 0.000000
0.915431 0.781229 0.000000
0.939498 0.785146 0.000000
0.959616 0.788816 0.000000
0.970596 0.791104 0.000000
0.980084 0.793129 0.000000
