transforms/AB02_cool_d65_r709.cube
#  AB_02_D65_r709.cube
LUT_3D_SIZE 33
0.000000 0.000000 0.000000
0.001401 0.001827 0.001598
0.003142 0.003867 0.003455
0.005095 0.006140 0.005500
0.007329 0.008574 0.007702
0.009955 0.010901 0.009798
0.015981 0.003083 0.002566
0.026432 0.000000 0.000000
0.042220 0.000000 0.000000
0.052935 0.000000 0.000000
0.073093 0.000000 0.000000
0.101222 0.000000 0.000000
0.140356 0.000000 0.000000
0.185297 0.000000 0.000000
0.254654 0.000000 0.000000
0.343305 0.000000 0.000000
0.424231 0.000000 0.000000
0.510161 0.000000 0.000000
0.597290 0.000000 0.000000
0.680156 0.000000 0.000000
0.748573 0.000000 0.000000
0.810649 0.000000 0.000000
0.865886 0.000000 0.000000
0.912705 0.000000 0.000000
0.956135 0.000000 0.000000
0.993843 0.000000 0.000000
1.025706 0.000000 0.000000
1.049484 0.000000 0.000000
1.065046 0.000000 0.000000
1.076452 0.000000 0.000000
1.082724 0.000000 0.000000
1.086441 0.000000 0.000000
1.088038 0.000000 0.000000
0.001346 0.001872 0.001628
0.001414 0.001915 0.001671
0.003142 0.004148 0.003631
0.005099 0.006577 0.005615
0.007467 0.008969 0.007877
0.009160 0.003518 0.002512
0.017620 0.003833 0.002504
0.029775 0.000000 0.000000
0.046441 0.000000 0.000000
0.061824 0.000000 0.000000
0.083402 0.000000 0.000000
0.114199 0.000000 0.000000
0.154136 0.000000 0.000000
0.198000 0.000000 0.000000
0.266215 0.000000 0.000000
0.346420 0.000000 0.000000
0.424231 0.000000 0.000000
0.508459 0.000000 0.000000
0.597290 0.000000 0.000000
0.680156 0.000000 0.000000
0.748573 0.000000 0.000000
0.810649 0.000000 0.000000
0.865886 0.000000 0.000000
0.912705 0.000000 0.000000
0.956135 0.000000 0.000000
0.993843 0.000000 0.000000
1.025706 0.000000 0.000000
1.049484 0.000000 0.000000
1.065046 0.000000 0.000000
1.076452 0.000000 0.000000
1.082724 0.000000 0.000000
1.086441 0.000000 0.000000
1.088038 0.000000 0.000000
0.002841 0.004248 0.003625
0.002988 0.004340 0.003614
0.003135 0.004431 0.003704
0.005193 0.006868 0.005901
0.007321 0.004811 0.001883
0.014850 0.006613 0.001188
0.027231 0.007745 0.000000
0.043742 0.006396 0.000000
0.067700 0.000000 0.000000
0.091311 0.000000 0.000000
0.121313 0.000000 0.000000
0.158722 0.000000 0.000000
0.205638 0.000000 0.000000
0.267675 0.000000 0.000000
0.344861 0.000000 0.000000
0.410941 0.000000 0.000000
0.482965 0.000000 0.000000
0.554149 0.000000 0.000000
0.621232 0.000000 0.000000
0.683440 0.000000 0.000000
0.748573 0.000000 0.000000
0.810649 0.000000 0.000000
0.864459 0.000000 0.000000
0.912705 0.000000 0.000000
0.956135 0.000000 0.000000
0.993843 0.000000 0.000000
1.025706 0.000000 0.000000
1.049484 0.000000 0.000000
1.065046 0.000000 0.000000
1.076452 0.000000 0.000000
1.082724 0.000000 0.000000
1.086441 0.000000 0.000000
1.088038 0.000000 0.000000
0.000000 0.003658 0.001270
0.000000 0.003957 0.001249
0.001647 0.004759 0.001033
0.003939 0.005588 0.000447
0.009870 0.008890 0.000000
0.019728 0.012525 0.000000
0.035696 0.015963 0.000000
0.058864 0.017847 0.000000
0.091010 0.014890 0.000000
0.121108 0.000000 0.000000
0.157441 0.000000 0.000000
0.202999 0.000000 0.000000
0.258836 0.000000 0.000000
0.324630 0.000000 0.000000
0.388105 0.000000 0.000000
0.452570 0.000000 0.000000
0.515326 0.000000 0.000000
0.580233 0.000000 0.000000
0.639760 0.000000 0.000000
0.703167 0.000000 0.000000
0.761282 0.000000 0.000000
0.810649 0.000000 0.000000
0.864459 0.000000 0.000000
0.912705 0.000000 0.000000
0.956135 0.000000 0.000000
0.993843 0.000000 0.000000
1.025706 0.000000 0.000000
1.049484 0.000000 0.000000
1.065046 0.000000 0.000000
1.076452 0.000000 0.000000
1.082724 0.000000 0.000000
1.086441 0.000000 0.000000
1.088038 0.000000 0.000000
0.000000 0.009472 0.000000
0.000000 0.009869 0.000000
0.000000 0.011470 0.000000
0.000000 0.013268 0.000000
0.009146 0.014845 0.000000
0.021023 0.021023 0.000000
0.040601 0.026587 0.000000
0.067186 0.031457 0.000000
0.107192 0.033021 0.000000
0.142018 0.024633 0.000000
0.184876 0.000000 0.000000
0.233646 0.000000 0.000000
0.289585 0.000000 0.000000
0.346316 0.000000 0.000000
0.404274 0.000000 0.000000
0.465987 0.000000 0.000000
0.531162 0.000000 0.000000
0.593866 0.000000 0.000000
0.659977 0.000000 0.000000
0.722933 0.000000 0.000000
0.780374 0.000000 0.000000
0.825816 0.000000 0.000000
0.865886 0.000000 0.000000
0.912705 0.000000 0.000000
0.956135 0.000000 0.000000
0.993843 0.000000 0.000000
1.025706 0.000000 0.000000
1.049484 0.000000 0.000000
1.065046 0.000000 0.000000
1.076452 0.000000 0.000000
1.082724 0.000000 0.000000
1.086441 0.000000 0.000000
1.088038 0.000000 0.000000
0.000000 0.020047 0.000000
0.000000 0.020381 0.000000
0.000000 0.022729 0.000000
0.000000 0.025427 0.000000
0.000000 0.028116 0.000000
0.015986 0.030395 0.000000
0.039116 0.039116 0.000000
0.071108 0.047535 0.000000
0.115260 0.053816 0.000000
0.152737 0.049768 0.000000
0.197016 0.039476 0.000000
0.245640 0.000000 0.000000
0.301123 0.000000 0.000000
0.357130 0.000000 0.000000
0.417365 0.000000 0.000000
0.479435 0.000000 0.000000
0.545223 0.000000 0.000000
0.610914 0.000000 0.000000
0.680110 0.000000 0.000000
0.742190 0.000000 0.000000
0.798510 0.000000 0.000000
0.844497 0.000000 0.000000
0.882350 0.000000 0.000000
0.912705 0.000000 0.000000
0.956135 0.000000 0.000000
0.993843 0.000000 0.000000
1.025706 0.000000 0.000000
1.049484 0.000000 0.000000
1.065046 0.000000 0.000000
1.076452 0.000000 0.000000
1.082724 0.000000 0.000000
1.086441 0.000000 0.000000
1.088038 0.000000 0.000000
0.000000 0.033489 0.000000
0.000000 0.033489 0.000000
0.000000 0.035243 0.000000
0.000000 0.037764 0.000000
0.000000 0.042829 0.000000
0.000000 0.046851 0.000000
0.032159 0.051277 0.000000
0.066236 0.062702 0.000000
0.114392 0.073987 0.000000
0.154812 0.073439 0.000000
0.201158 0.067615 0.000000
0.253277 0.055277 0.000000
0.309781 0.000000 0.000000
0.366438 0.000000 0.000000
0.427075 0.000000 0.000000
0.491111 0.000000 0.000000
0.560994 0.000000 0.000000
0.626125 0.000000 0.000000
0.696383 0.000000 0.000000
0.761126 0.000000 0.000000
0.815111 0.000000 0.000000
0.862990 0.000000 0.000000
0.900805 0.000000 0.000000
0.931051 0.000000 0.000000
0.956135 0.000000 0.000000
0.993843 0.000000 0.000000
1.025706 0.000000 0.000000
1.049484 0.000000 0.000000
1.065046 0.000000 0.000000
1.076452 0.000000 0.000000
1.082724 0.000000 0.000000
1.086441 0.000000 0.000000
1.088038 0.000000 0.000000
0.000000 0.056089 0.000000
0.000000 0.056089 0.000000
0.000000 0.058527 0.000000
0.000000 0.062488 0.000000
0.000000 0.066760 0.000000
0.000000 0.071034 0.000000
0.000000 0.077340 0.000000
0.052549 0.081955 0.000000
0.106346 0.098112 0.000000
0.150925 0.100833 0.000000
0.202996 0.099949 0.000000
0.256211 0.090355 0.000000
0.315023 0.075028 0.000000
0.370574 0.045887 0.000000
0.433209 0.000000 0.000000
0.499223 0.000000 0.000000
0.567789 0.000000 0.000000
0.640932 0.000000 0.000000
0.712473 0.000000 0.000000
0.779848 0.000000 0.000000
0.835564 0.000000 0.000000
0.882132 0.000000 0.000000
0.922595 0.000000 0.000000
0.951443 0.000000 0.000000
0.971066 0.000000 0.000000
0.993843 0.000000 0.000000
1.025706 0.000000 0.000000
1.049484 0.000000 0.000000
1.065046 0.000000 0.000000
1.076452 0.000000 0.000000
1.082724 0.000000 0.000000
1.086441 0.000000 0.000000
1.088038 0.000000 0.000000
0.000000 0.092119 0.000000
0.000000 0.092119 0.000000
0.000000 0.093795 0.000000
0.000000 0.097258 0.000000
0.000000 0.101053 0.000000
0.000000 0.104853 0.000000
0.000000 0.111480 0.000000
0.007520 0.117895 0.000000
0.086461 0.123878 0.000000
0.139425 0.127511 0.000000
0.194811 0.129186 0.000000
0.252397 0.125993 0.000000
0.313378 0.115398 0.000000
0.372661 0.098000 0.000000
0.435672 0.072341 0.000000
0.500269 0.000000 0.000000
0.572386 0.000000 0.000000
0.647036 0.000000 0.000000
0.723355 0.000000 0.000000
0.789767 0.000000 0.000000
0.847755 0.000000 0.000000
0.896092 0.000000 0.000000
0.938991 0.000000 0.000000
0.972005 0.000000 0.000000
0.995661 0.000000 0.000000
1.007690 0.000000 0.000000
1.025706 0.000000 0.000000
1.049484 0.000000 0.000000
1.065046 0.000000 0.000000
1.076452 0.000000 0.000000
1.082724 0.000000 0.000000
1.086441 0.000000 0.000000
1.088038 0.000000 0.000000
0.000000 0.122115 0.000000
0.000000 0.122115 0.000000
0.000000 0.122115 0.000000
0.000000 0.124044 0.000000
0.000000 0.125976 0.000000
0.000000 0.131215 0.000000
0.000000 0.135491 0.000000
0.000000 0.145045 0.000000
0.037360 0.151109 0.000000
0.114963 0.156603 0.000000
0.180662 0.160246 0.000000
0.243186 0.160742 0.000000
0.306111 0.153479 0.000000
0.369113 0.141306 0.000000
0.432595 0.124223 0.000000
0.497504 0.097707 0.000000
0.569867 0.039287 0.000000
0.651109 0.046996 0.000000
0.727278 0.012406 0.000000
0.793304 0.000000 0.000000
0.853890 0.000000 0.000000
0.903057 0.000000 0.000000
0.945353 0.000000 0.000000
0.982001 0.000000 0.000000
1.012039 0.000000 0.000000
1.031826 0.000000 0.000000
1.038020 0.000000 0.000000
1.049484 0.000000 0.000000
1.065046 0.000000 0.000000
1.076452 0.000000 0.000000
1.082724 0.000000 0.000000
1.086441 0.000000 0.000000
1.088038 0.000000 0.000000
0.000000 0.159239 0.000000
0.000000 0.159239 0.000000
0.000000 0.159239 0.000000
0.000000 0.159239 0.000000
0.000000 0.162590 0.000000
0.000000 0.166130 0.000000
0.000000 0.170857 0.000000
0.000000 0.179133 0.000000
0.000000 0.186098 0.000000
0.067135 0.190248 0.000000
0.153754 0.194858 0.000000
0.223434 0.194999 0.000000
0.291434 0.190246 0.000000
0.358034 0.182705 0.000000
0.427029 0.170043 0.000000
0.495847 0.150848 0.000000
0.566768 0.130076 0.000000
0.647904 0.146154 0.000000
0.727270 0.154675 0.000000
0.794788 0.148412 0.000000
0.855285 0.128508 0.000000
0.904296 0.089912 0.000000
0.947637 0.000000 0.000000
0.983958 0.000000 0.000000
1.016468 0.000000 0.000000
1.042111 0.000000 0.000000
1.055509 0.000000 0.000000
1.056773 0.000000 0.000000
1.065046 0.000000 0.000000
1.076452 0.000000 0.000000
1.082724 0.000000 0.000000
1.086441 0.000000 0.000000
1.088038 0.000000 0.000000
0.000000 0.203270 0.000000
0.000000 0.203270 0.000000
0.000000 0.203270 0.000000
0.000000 0.203270 0.000000
0.000000 0.203270 0.000000
0.000000 0.207114 0.000000
0.000000 0.212249 0.000000
0.000000 0.218680 0.000000
0.000000 0.226380 0.000000
0.000000 0.229960 0.000000
0.101386 0.231706 0.000000
0.193286 0.232622 0.000000
0.271660 0.229905 0.000000
0.341968 0.226244 0.000000
0.415170 0.216767 0.000000
0.486424 0.200895 0.000000
0.562664 0.193682 0.000000
0.639104 0.204405 0.000000
0.721822 0.221907 0.000000
0.792668 0.223151 0.000000
0.853206 0.217904 0.000000
0.903620 0.205202 0.000000
0.945676 0.182927 0.000000
0.983147 0.144967 0.000000
1.014657 0.046419 0.000000
1.041785 0.000000 0.000000
1.058232 0.000000 0.000000
1.070688 0.000000 0.000000
1.070746 0.000000 0.000000
1.076452 0.000000 0.000000
1.082724 0.000000 0.000000
1.086441 0.000000 0.000000
1.088038 0.000000 0.000000
0.000000 0.248871 0.000000
0.000000 0.248871 0.000000
0.000000 0.248871 0.000000
0.000000 0.248871 0.000000
0.000000 0.248871 0.000000
0.000000 0.248871 0.000000
0.000000 0.252985 0.000000
0.000000 0.259856 0.000000
0.000000 0.268111 0.000000
0.000000 0.274932 0.000000
0.000000 0.277247 0.000000
0.145027 0.274698 0.000000
0.237573 0.274160 0.000000
0.318903 0.271283 0.000000
0.398412 0.262852 0.000000
0.475586 0.252885 0.000000
0.554953 0.260859 0.000000
0.632426 0.265561 0.000000
0.712421 0.277717 0.000000
0.786798 0.286785 0.000000
0.848975 0.288565 0.000000
0.899546 0.284086 0.000000
0.943119 0.270083 0.000000
0.979532 0.253972 0.000000
1.012166 0.228211 0.000000
1.038721 0.184021 0.000000
1.056942 0.081166 0.000000
1.070336 0.000000 0.000000
1.079159 0.000000 0.000000
1.079276 0.000000 0.000000
1.082724 0.000000 0.000000
1.086441 0.000000 0.000000
1.088038 0.000000 0.000000
0.000000 0.299155 0.000000
0.000000 0.299155 0.000000
0.000000 0.299155 0.000000
0.000000 0.299155 0.000000
0.000000 0.299155 0.000000
0.000000 0.299155 0.000000
0.000000 0.299155 0.000000
0.000000 0.306403 0.000000
0.000000 0.315117 0.000000
0.000000 0.325293 0.000000
0.000000 0.330981 0.000000
0.000000 0.328776 0.000000
0.192400 0.322972 0.000000
0.287831 0.320790 0.000000
0.373085 0.317713 0.000000
0.455781 0.321212 0.000000
0.541898 0.325293 0.000000
0.620601 0.330615 0.000000
0.695275 0.333891 0.000000
0.769463 0.345069 0.000000
0.841186 0.351205 0.000000
0.894892 0.350066 0.000000
0.938568 0.344227 0.000000
0.975280 0.333139 0.000000
1.009912 0.319669 0.000000
1.036096 0.298772 0.000000
1.053148 0.263146 0.000000
1.067329 0.206339 0.000000
1.076897 0.000000 0.000000
1.084612 0.000000 0.000000
1.085465 0.000000 0.000000
1.086441 0.000000 0.000000
1.088038 0.000000 0.000000
0.000000 0.356778 0.000000
0.000000 0.356778 0.000000
0.000000 0.356778 0.000000
0.000000 0.356778 0.000000
0.000000 0.356778 0.000000
0.000000 0.356778 0.000000
0.000000 0.356778 0.000000
0.000000 0.356778 0.000000
0.000000 0.364346 0.000000
0.000000 0.376478 0.000000
0.000000 0.387239 0.000000
0.000000 0.390064 0.000000
0.058943 0.387559 0.000000
0.238891 0.384322 0.000000
0.343321 0.389732 0.000000
0.434097 0.389785 0.000000
0.521067 0.389012 0.000000
0.605563 0.392300 0.000000
0.683095 0.395267 0.000000
0.757125 0.399528 0.000000
0.828371 0.408778 0.000000
0.889383 0.413445 0.000000
0.932102 0.410777 0.000000
0.972404 0.404427 0.000000
1.005173 0.394899 0.000000
1.030802 0.384018 0.000000
1.049743 0.364097 0.000000
1.063697 0.334362 0.000000
1.073079 0.282657 0.000000
1.081230 0.152113 0.000000
1.086417 0.000000 0.000000
1.087150 0.000000 0.000000
1.088038 0.000000 0.000000
0.000000 0.416843 0.000000
0.000000 0.416843 0.000000
0.000000 0.416843 0.000000
0.000000 0.416843 0.000000
0.000000 0.416843 0.000000
0.000000 0.416843 0.000000
0.000000 0.416843 0.000000
0.000000 0.416843 0.000000
0.000000 0.416843 0.000000
0.000000 0.426216 0.000000
0.000000 0.448325 0.000000
0.000000 0.459384 0.000000
0.000000 0.463682 0.000000
0.141754 0.462374 0.000000
0.291556 0.457380 0.000000
0.406010 0.457889 0.000000
0.502366 0.456222 0.000000
0.584723 0.454229 0.000000
0.670890 0.457868 0.000000
0.744593 0.459985 0.000000
0.814730 0.463741 0.000000
0.876386 0.473109 0.000000
0.926175 0.472482 0.000000
0.965674 0.468879 0.000000
0.999700 0.463725 0.000000
1.025357 0.459226 0.000000
1.043709 0.447869 0.000000
1.058241 0.431021 0.000000
1.067215 0.403672 0.000000
1.075315 0.354252 0.000000
1.080761 0.251640 0.000000
1.087185 0.000000 0.000000
1.088126 0.000000 0.000000
0.000000 0.486690 0.000000
0.000000 0.486690 0.000000
0.000000 0.486690 0.000000
0.000000 0.486690 0.000000
0.000000 0.486690 0.000000
0.000000 0.486690 0.000000
0.000000 0.486690 0.000000
0.000000 0.486690 0.000000
0.000000 0.486690 0.000000
0.000000 0.486690 0.000000
0.000000 0.494926 0.000000
0.000000 0.518036 0.000000
0.000000 0.527853 0.000000
0.000000 0.531952 0.000000
0.212398 0.530389 0.000000
0.359121 0.524987 0.000000
0.469783 0.523921 0.000000
0.564402 0.519023 0.000000
0.652152 0.516949 0.000000
0.728802 0.521267 0.000000
0.799677 0.520435 0.000000
0.864313 0.526291 0.000000
0.919403 0.532565 0.000000
0.958090 0.531337 0.000000
0.991428 0.530382 0.000000
1.016186 0.526558 0.000000
1.035307 0.519631 0.000000
1.049957 0.511254 0.000000
1.059609 0.496171 0.000000
1.067027 0.471585 0.000000
1.072527 0.429275 0.000000
1.078629 0.339797 0.000000
1.086298 0.000000 0.000000
0.000000 0.555183 0.000000
0.000000 0.555183 0.000000
0.000000 0.555183 0.000000
0.000000 0.555183 0.000000
0.000000 0.555183 0.000000
0.000000 0.555183 0.000000
0.000000 0.555183 0.000000
0.000000 0.555183 0.000000
0.000000 0.553588 0.000000
0.000000 0.555183 0.000000
0.000000 0.553588 0.000000
0.000000 0.563165 0.000000
0.000000 0.588621 0.000000
0.000000 0.594622 0.000000
0.000000 0.596609 0.000000
0.296186 0.596208 0.000000
0.427998 0.589195 0.000000
0.536389 0.586371 0.000000
0.629953 0.583169 0.000000
0.707738 0.583155 0.000000
0.781989 0.582812 0.000000
0.846720 0.582539 0.000000
0.902217 0.587453 0.000000
0.946594 0.589575 0.000000
0.979212 0.587344 0.000000
1.005768 0.587123 0.000000
1.025150 0.583998 0.000000
1.041351 0.579366 0.000000
1.052405 0.569987 0.000000
1.059078 0.559199 0.000000
1.064416 0.538060 0.000000
1.068857 0.498803 0.000000
1.074818 0.417726 0.000000
0.000000 0.620139 0.000000
0.000000 0.620139 0.000000
0.000000 0.620139 0.000000
0.000000 0.620139 0.000000
0.000000 0.620139 0.000000
0.000000 0.620139 0.000000
0.000000 0.620139 0.000000
0.000000 0.620139 0.000000
0.000000 0.618561 0.000000
0.000000 0.618561 0.000000
0.000000 0.618561 0.000000
0.000000 0.618561 0.000000
0.000000 0.629612 0.000000
0.000000 0.651150 0.000000
0.000000 0.656723 0.000000
0.113334 0.659785 0.000000
0.369469 0.656028 0.000000
0.499021 0.648870 0.000000
0.597421 0.646191 0.000000
0.686879 0.641566 0.000000
0.761738 0.640089 0.000000
0.827354 0.638620 0.000000
0.883090 0.638930 0.000000
0.931342 0.642654 0.000000
0.967814 0.645335 0.000000
0.994610 0.645300 0.000000
1.017111 0.642233 0.000000
1.034289 0.639464 0.000000
1.045904 0.635406 0.000000
1.052401 0.628406 0.000000
1.057440 0.614924 0.000000
1.060696 0.594840 0.000000
1.064948 0.555280 0.000000
0.000000 0.680464 0.000000
0.000000 0.680464 0.000000
0.000000 0.680464 0.000000
0.000000 0.680464 0.000000
0.000000 0.680464 0.000000
0.000000 0.680464 0.000000
0.000000 0.680464 0.000000
0.000000 0.680464 0.000000
0.000000 0.680464 0.000000
0.000000 0.680464 0.000000
0.000000 0.680464 0.000000
0.000000 0.680464 0.000000
0.000000 0.680464 0.000000
0.000000 0.689417 0.000000
0.000000 0.710053 0.000000
0.000000 0.716548 0.000000
0.246624 0.716099 0.000000
0.444438 0.713626 0.000000
0.563530 0.706605 0.000000
0.658287 0.699421 0.000000
0.738443 0.695152 0.000000
0.804847 0.692505 0.000000
0.863495 0.689885 0.000000
0.915371 0.693494 0.000000
0.954412 0.696089 0.000000
0.985864 0.695917 0.000000
1.009132 0.697702 0.000000
1.027103 0.696653 0.000000
1.039313 0.692805 0.000000
1.046102 0.689269 0.000000
1.050567 0.679613 0.000000
1.053590 0.663766 0.000000
1.056802 0.639560 0.000000
0.000000 0.735188 0.000000
0.000000 0.735188 0.000000
0.000000 0.735188 0.000000
0.000000 0.735188 0.000000
0.000000 0.735188 0.000000
0.000000 0.735188 0.000000
0.000000 0.735188 0.000000
0.000000 0.735188 0.000000
0.000000 0.735188 0.000000
0.000000 0.735188 0.000000
0.000000 0.735188 0.000000
0.000000 0.735188 0.000000
0.000000 0.735188 0.000000
0.000000 0.735188 0.000000
0.000000 0.743673 0.000000
0.000000 0.764665 0.000000
0.000000 0.770310 0.000000
0.354201 0.767913 0.000000
0.515671 0.762547 0.000000
0.624689 0.755752 0.000000
0.714094 0.745964 0.000000
0.784395 0.743529 0.000000
0.844637 0.742625 0.000000
0.896880 0.741836 0.000000
0.941479 0.744152 0.000000
0.978746 0.746725 0.000000
1.002873 0.748436 0.000000
1.021299 0.747470 0.000000
1.032862 0.746850 0.000000
1.039532 0.745010 0.000000
1.043343 0.737415 0.000000
1.046309 0.725421 0.000000
1.048580 0.710493 0.000000
0.000000 0.784161 0.000000
0.000000 0.784161 0.000000
0.000000 0.784161 0.000000
0.000000 0.784161 0.000000
0.000000 0.784161 0.000000
0.000000 0.784161 0.000000
0.000000 0.784161 0.000000
0.000000 0.784161 0.000000
0.000000 0.784161 0.000000
0.000000 0.784161 0.000000
0.000000 0.784161 0.000000
0.000000 0.784161 0.000000
0.000000 0.784161 0.000000
0.000000 0.784161 0.000000
0.000000 0.784161 0.000000
0.000000 0.796143 0.000000
0.000000 0.814405 0.000000
0.102850 0.812205 0.000000
0.444832 0.808205 0.000000
0.583300 0.805672 0.000000
0.682752 0.799185 0.000000
0.765993 0.792628 0.000000
0.828545 0.789099 0.000000
0.882244 0.788395 0.000000
0.929857 0.789142 0.000000
0.968510 0.791539 0.000000
0.996187 0.793003 0.000000
1.015513 0.793455 0.000000
1.026598 0.794291 0.000000
1.033257 0.791202 0.000000
1.036616 0.786892 0.000000
1.039355 0.777086 0.000000
1.041025 0.767327 0.000000
0.000000 0.827331 0.000000
0.000000 0.827331 0.000000
0.000000 0.827331 0.000000
0.000000 0.827331 0.000000
0.000000 0.827331 0.000000
0.000000 0.827331 0.000000
0.000000 0.827331 0.000000
0.000000 0.827331 0.000000
0.000000 0.827331 0.000000
0.000000 0.827331 0.000000
0.000000 0.827331 0.000000
0.000000 0.827331 0.000000
0.000000 0.827331 0.000000
0.000000 0.827331 0.000000
0.000000 0.827331 0.000000
0.000000 0.827331 0.000000
0.000000 0.842129 0.000000
0.000000 0.853713 0.000000
0.301384 0.849592 0.000000
0.527202 0.845489 0.000000
0.650024 0.846675 0.000000
0.739220 0.841850 0.000000
0.809439 0.837194 0.000000
0.867057 0.832692 0.000000
0.917263 0.833315 0.000000
0.957318 0.832956 0.000000
0.987493 0.834204 0.000000
1.008574 0.836965 0.000000
1.020262 0.836439 0.000000
1.027244 0.833696 0.000000
1.030356 0.828464 0.000000
1.032503 0.823273 0.000000
1.033895 0.815571 0.000000
0.000000 0.869276 0.000000
0.000000 0.869276 0.000000
0.000000 0.869276 0.000000
0.000000 0.869276 0.000000
0.000000 0.869276 0.000000
0.000000 0.869276 0.000000
0.000000 0.869276 0.000000
0.000000 0.869276 0.000000
0.000000 0.869276 0.000000
0.000000 0.869276 0.000000
0.000000 0.869276 0.000000
0.000000 0.869276 0.000000
0.000000 0.869276 0.000000
0.000000 0.869276 0.000000
0.000000 0.869276 0.000000
0.000000 0.869276 0.000000
0.000000 0.869276 0.000000
0.000000 0.883859 0.000000
0.000000 0.888164 0.000000
0.417451 0.885763 0.000000
0.597093 0.884051 0.000000
0.708319 0.882679 0.000000
0.787348 0.879387 0.000000
0.851026 0.876263 0.000000
0.902542 0.872202 0.000000
0.943221 0.871836 0.000000
0.976908 0.871660 0.000000
1.000679 0.871836 0.000000
1.013803 0.871285 0.000000
1.021421 0.868654 0.000000
1.024129 0.866232 0.000000
1.026266 0.861528 0.000000
1.027046 0.858034 0.000000
0.000000 0.905809 0.000000
0.000000 0.905809 0.000000
0.000000 0.905809 0.000000
0.000000 0.905809 0.000000
0.000000 0.905809 0.000000
0.000000 0.905809 0.000000
0.000000 0.905809 0.000000
0.000000 0.905809 0.000000
0.000000 0.905809 0.000000
0.000000 0.905809 0.000000
0.000000 0.905809 0.000000
0.000000 0.905809 0.000000
0.000000 0.905809 0.000000
0.000000 0.905809 0.000000
0.000000 0.905809 0.000000
0.000000 0.905809 0.000000
0.000000 0.905809 0.000000
0.000000 0.905809 0.000000
0.000000 0.918784 0.000000
0.000000 0.919472 0.000000
0.497604 0.919773 0.000000
0.660422 0.916836 0.000000
0.760825 0.917031 0.000000
0.832367 0.915010 0.000000
0.885924 0.910697 0.000000
0.931226 0.906232 0.000000
0.965232 0.902949 0.000000
0.991148 0.901952 0.000000
1.007257 0.901314 0.000000
1.015486 0.898938 0.000000
1.018768 0.896759 0.000000
1.020497 0.894643 0.000000
1.021060 0.892575 0.000000
0.000000 0.937723 0.000000
0.000000 0.937723 0.000000
0.000000 0.937723 0.000000
0.000000 0.937723 0.000000
0.000000 0.937723 0.000000
0.000000 0.937723 0.000000
0.000000 0.937723 0.000000
0.000000 0.937723 0.000000
0.000000 0.937723 0.000000
0.000000 0.937723 0.000000
0.000000 0.937723 0.000000
0.000000 0.937723 0.000000
0.000000 0.937723 0.000000
0.000000 0.937723 0.000000
0.000000 0.937723 0.000000
0.000000 0.937723 0.000000
0.000000 0.937723 0.000000
0.000000 0.937723 0.000000
0.000000 0.937723 0.000000
0.000000 0.943756 0.000000
0.000000 0.948610 0.000000
0.571987 0.946146 0.000000
0.715127 0.943995 0.000000
0.804788 0.941718 0.000000
0.868257 0.939869 0.000000
0.913642 0.935205 0.000000
0.951334 0.929518 0.000000
0.979657 0.926730 0.000000
0.998252 0.926031 0.000000
1.009646 0.925592 0.000000
1.013524 0.924559 0.000000
1.015493 0.921835 0.000000
1.016024 0.920050 0.000000
0.000000 0.961758 0.000000
0.000000 0.961758 0.000000
0.000000 0.961758 0.000000
0.000000 0.961758 0.000000
0.000000 0.961758 0.000000
0.000000 0.961758 0.000000
0.000000 0.961758 0.000000
0.000000 0.961758 0.000000
0.000000 0.961758 0.000000
0.000000 0.961758 0.000000
0.000000 0.961758 0.000000
0.000000 0.961758 0.000000
0.000000 0.961758 0.000000
0.000000 0.961758 0.000000
0.000000 0.961758 0.000000
0.000000 0.961758 0.000000
0.000000 0.961758 0.000000
0.000000 0.961758 0.000000
0.000000 0.961758 0.000000
0.000000 0.961758 0.000000
0.000000 0.963871 0.000000
0.301089 0.967987 0.000000
0.630455 0.965313 0.000000
0.759303 0.963238 0.000000
0.840057 0.961097 0.000000
0.896428 0.959416 0.000000
0.938087 0.955147 0.000000
0.968220 0.949719 0.000000
0.988850 0.948980 0.000000
