transforms/AB02_cool_d65_r709.cube
#  AB_02_D65_r709.cube
LUT_3D_SIZE 5
0.000000 0.000000 0.000000
0.042220 0.000000 0.000000
0.424231 0.000000 0.000000
0.956135 0.000000 0.000000
1.088038 0.000000 0.000000
0.000000 0.092119 0.000000
0.086461 0.123878 0.000000
0.572386 0.000000 0.000000
0.995661 0.000000 0.000000
1.088038 0.000000 0.000000
0.000000 0.486690 0.000000
0.000000 0.486690 0.000000
0.469783 0.523921 0.000000
0.991428 0.530382 0.000000
1.086298 0.000000 0.000000
0.000000 0.905809 0.000000
0.000000 0.905809 0.000000
0.000000 0.905809 0.000000
0.885924 0.910697 0.000000
1.021060 0.892575 0.000000
0.000000 1.014910 0.000000
0.000000 1.014910 0.000000
0.000000 1.014910 0.000000
0.000000 1.014910 0.000000
0.999031 0.999444 0.000000
0.004886 0.004886 0.009893
0.066330 0.000000 0.065082
0.498250 0.000000 0.124324
0.960401 0.000000 0.000000
1.088038 0.000000 0.000000
0.000000 0.120187 0.152332
0.101767 0.160144 0.197182
0.606019 0.000000 0.143309
1.000265 0.000000 0.000000
1.088038 0.000000 0.000000
0.000000 0.521352 0.000000
0.000000 0.521352 0.000000
0.463951 0.538578 0.000000
0.990473 0.530461 0.000000
1.086043 0.000000 0.000000
0.000000 0.907805 0.000000
0.000000 0.907805 0.000000
0.000000 0.905809 0.000000
0.888344 0.910617 0.000000
1.021060 0.892575 0.000000
0.000000 1.014910 0.000000
0.000000 1.014910 0.000000
0.000000 1.014910 0.000000
0.000000 1.014910 0.000000
0.999031 0.999444 0.000000
0.077181 0.000000 0.456588
0.199259 0.000000 0.493723
0.561224 0.000000 0.532258
0.996607 0.000000 0.577933
1.088126 0.000000 0.000000
0.000000 0.095386 0.530927
0.166278 0.091697 0.544178
0.599868 0.000000 0.585904
1.028511 0.000000 0.611604
1.088126 0.000000 0.000000
0.000000 0.514736 0.581831
0.000000 0.526319 0.582744
0.492695 0.561974 0.596523
0.985806 0.559957 0.589064
1.083903 0.150671 0.000000
0.000000 0.914792 0.539092
0.000000 0.914792 0.539092
0.000000 0.915790 0.535169
0.877846 0.924973 0.543202
1.021060 0.892575 0.000000
0.000000 1.015490 0.000000
0.000000 1.015490 0.000000
0.000000 1.015490 0.000000
0.000000 1.015159 0.000000
0.999031 0.999444 0.000000
0.359406 0.106583 0.884099
0.430367 0.087612 0.883737
0.599502 0.000000 0.881347
1.013970 0.000000 0.960119
1.088120 0.000000 0.933232
0.336385 0.188385 0.882535
0.413022 0.178582 0.881039
0.586961 0.139508 0.879840
1.006371 0.200898 0.955510
1.088120 0.000000 0.933232
0.112787 0.410622 0.874600
0.275711 0.408622 0.870813
0.561790 0.471792 0.894813
0.970407 0.571189 0.938665
1.076584 0.385209 0.915740
0.000000 0.902816 0.928186
0.000000 0.902816 0.928186
0.000000 0.927196 0.928128
0.877362 0.906045 0.909859
1.020135 0.897725 0.888193
0.000000 1.015656 0.868302
0.000000 1.015656 0.868302
0.000000 1.015656 0.868302
0.000000 1.015656 0.867082
0.998720 0.999960 0.867620
0.697673 0.434466 1.003842
0.742686 0.431314 1.003976
0.798418 0.426971 1.003359
0.920082 0.408482 1.002539
1.061010 0.598211 1.021858
0.686447 0.484324 1.003227
0.732401 0.479887 1.002823
0.792258 0.474181 1.002218
0.913503 0.462766 1.001303
1.055552 0.651093 1.019852
0.662063 0.564086 1.000928
0.711401 0.560197 1.001109
0.772791 0.557059 1.000462
0.958137 0.675786 1.015534
1.044332 0.743269 1.015755
0.683210 0.916330 1.010693
0.742590 0.915765 1.010048
0.813168 0.915578 1.009230
0.945673 0.915656 1.007170
1.016690 0.916494 1.005826
0.000000 1.016236 1.007510
0.000000 1.016236 1.007510
0.000000 1.016236 1.007510
0.000000 1.015394 1.007186
0.999120 0.999946 0.998679
