transforms/AB02_cool_d65_r709.cube
#  AB_02_D65_r709.cube
LUT_3D_SIZE 9
0.000000 0.000000 0.000000
0.007329 0.008574 0.007702
0.042220 0.000000 0.000000
0.140356 0.000000 0.000000
0.424231 0.000000 0.000000
0.748573 0.000000 0.000000
0.956135 0.000000 0.000000
1.065046 0.000000 0.000000
1.088038 0.000000 0.000000
0.000000 0.009472 0.000000
0.009146 0.014845 0.000000
0.107192 0.033021 0.000000
0.289585 0.000000 0.000000
0.531162 0.000000 0.000000
0.780374 0.000000 0.000000
0.956135 0.000000 0.000000
1.065046 0.000000 0.000000
1.088038 0.000000 0.000000
0.000000 0.092119 0.000000
0.000000 0.101053 0.000000
0.086461 0.123878 0.000000
0.313378 0.115398 0.000000
0.572386 0.000000 0.000000
0.847755 0.000000 0.000000
0.995661 0.000000 0.000000
1.065046 0.000000 0.000000
1.088038 0.000000 0.000000
0.000000 0.248871 0.000000
0.000000 0.248871 0.000000
0.000000 0.268111 0.000000
0.237573 0.274160 0.000000
0.554953 0.260859 0.000000
0.848975 0.288565 0.000000
1.012166 0.228211 0.000000
1.079159 0.000000 0.000000
1.088038 0.000000 0.000000
0.000000 0.486690 0.000000
0.000000 0.486690 0.000000
0.000000 0.486690 0.000000
0.000000 0.527853 0.000000
0.469783 0.523921 0.000000
0.799677 0.520435 0.000000
0.991428 0.530382 0.000000
1.059609 0.496171 0.000000
1.086298 0.000000 0.000000
0.000000 0.735188 0.000000
0.000000 0.735188 0.000000
0.000000 0.735188 0.000000
0.000000 0.735188 0.000000
0.000000 0.770310 0.000000
0.714094 0.745964 0.000000
0.941479 0.744152 0.000000
1.032862 0.746850 0.000000
1.048580 0.710493 0.000000
0.000000 0.905809 0.000000
0.000000 0.905809 0.000000
0.000000 0.905809 0.000000
0.000000 0.905809 0.000000
0.000000 0.905809 0.000000
0.497604 0.919773 0.000000
0.885924 0.910697 0.000000
1.007257 0.901314 0.000000
1.021060 0.892575 0.000000
0.000000 0.991902 0.000000
0.000000 0.991902 0.000000
0.000000 0.991902 0.000000
0.000000 0.991902 0.000000
0.000000 0.991902 0.000000
0.000000 0.991902 0.000000
0.734925 0.991005 0.000000
0.971808 0.983532 0.000000
1.004516 0.978227 0.000000
0.000000 1.014910 0.000000
0.000000 1.014910 0.000000
0.000000 1.014910 0.000000
0.000000 1.014910 0.000000
0.000000 1.014910 0.000000
0.000000 1.014910 0.000000
0.000000 1.014910 0.000000
0.892206 1.003082 0.000000
0.999031 0.999444 0.000000
0.000953 0.001044 0.000553
0.007350 0.002646 0.007017
0.052946 0.000000 0.022866
0.170336 0.000000 0.009821
0.455921 0.000000 0.000000
0.753337 0.000000 0.000000
0.956135 0.000000 0.000000
1.065046 0.000000 0.000000
1.088038 0.000000 0.000000
0.000000 0.013708 0.015464
0.013534 0.020877 0.023939
0.125300 0.041997 0.054477
0.302857 0.000000 0.000000
0.548814 0.000000 0.000000
0.783395 0.000000 0.000000
0.956135 0.000000 0.000000
1.065046 0.000000 0.000000
1.088038 0.000000 0.000000
0.000000 0.109632 0.030461
0.000000 0.123076 0.030529
0.095258 0.152641 0.017540
0.332422 0.138271 0.000000
0.588967 0.000000 0.000000
0.847717 0.000000 0.000000
0.996582 0.000000 0.000000
1.065046 0.000000 0.000000
1.088038 0.000000 0.000000
0.000000 0.269497 0.000000
0.000000 0.268117 0.000000
0.000000 0.291914 0.000000
0.241216 0.304424 0.000000
0.554713 0.264029 0.000000
0.850330 0.290225 0.000000
1.012104 0.230534 0.000000
1.079156 0.000000 0.000000
1.088038 0.000000 0.000000
0.000000 0.494926 0.000000
0.000000 0.494926 0.000000
0.000000 0.494926 0.000000
0.000000 0.534335 0.000000
0.471825 0.523860 0.000000
0.799477 0.522123 0.000000
0.991428 0.530382 0.000000
1.059609 0.496171 0.000000
1.086298 0.000000 0.000000
0.000000 0.733775 0.000000
0.000000 0.733775 0.000000
0.000000 0.735188 0.000000
0.000000 0.735188 0.000000
0.000000 0.770272 0.000000
0.712038 0.747469 0.000000
0.941479 0.744152 0.000000
1.033143 0.746835 0.000000
1.048580 0.710493 0.000000
0.000000 0.905809 0.000000
0.000000 0.905809 0.000000
0.000000 0.905809 0.000000
0.000000 0.905809 0.000000
0.000000 0.905809 0.000000
0.497604 0.919773 0.000000
0.885924 0.910697 0.000000
1.007257 0.901314 0.000000
1.021060 0.892575 0.000000
0.000000 0.991902 0.000000
0.000000 0.991902 0.000000
0.000000 0.991902 0.000000
0.000000 0.991902 0.000000
0.000000 0.991902 0.000000
0.000000 0.991902 0.000000
0.734925 0.991005 0.000000
0.971808 0.983532 0.000000
1.004516 0.978227 0.000000
0.000000 1.014910 0.000000
0.000000 1.014910 0.000000
0.000000 1.014910 0.000000
0.000000 1.014910 0.000000
0.000000 1.014910 0.000000
0.000000 1.014910 0.000000
0.000000 1.014910 0.000000
0.892206 1.003082 0.000000
0.999031 0.999444 0.000000
0.004886 0.004886 0.009893
0.025041 0.000000 0.045503
0.066330 0.000000 0.065082
0.204378 0.000000 0.096585
0.498250 0.000000 0.124324
0.778785 0.000000 0.000000
0.960401 0.000000 0.000000
1.065046 0.000000 0.000000
1.088038 0.000000 0.000000
0.000000 0.032244 0.091359
0.034818 0.041246 0.138208
0.131041 0.024448 0.155252
0.309031 0.000000 0.158611
0.562987 0.000000 0.140364
0.810640 0.000000 0.000000
0.960401 0.000000 0.000000
1.065046 0.000000 0.000000
1.088038 0.000000 0.000000
0.000000 0.120187 0.152332
0.000000 0.138712 0.171437
0.101767 0.160144 0.197182
0.344886 0.140546 0.188683
0.606019 0.000000 0.143309
0.857747 0.000000 0.000000
1.000265 0.000000 0.000000
1.065046 0.000000 0.000000
1.088038 0.000000 0.000000
0.000000 0.286144 0.149445
0.000000 0.286144 0.149445
0.000000 0.316566 0.150704
0.252504 0.342789 0.144873
0.588138 0.323453 0.069304
0.851411 0.297499 0.000000
1.012972 0.232589 0.000000
1.079115 0.000000 0.000000
1.088038 0.000000 0.000000
0.000000 0.521352 0.000000
0.000000 0.521352 0.000000
0.000000 0.521352 0.000000
0.000000 0.551872 0.000000
0.463951 0.538578 0.000000
0.801141 0.533741 0.000000
0.990473 0.530461 0.000000
1.059476 0.497959 0.000000
1.086043 0.000000 0.000000
0.000000 0.749335 0.000000
0.000000 0.747920 0.000000
0.000000 0.747920 0.000000
0.000000 0.747920 0.000000
0.000000 0.781195 0.000000
0.710712 0.760455 0.000000
0.943461 0.744058 0.000000
1.033143 0.746835 0.000000
1.048580 0.710493 0.000000
0.000000 0.907805 0.000000
0.000000 0.907805 0.000000
0.000000 0.907805 0.000000
0.000000 0.907805 0.000000
0.000000 0.905809 0.000000
0.497604 0.919773 0.000000
0.888344 0.910617 0.000000
1.007257 0.901314 0.000000
1.021060 0.892575 0.000000
0.000000 0.991902 0.000000
0.000000 0.991902 0.000000
0.000000 0.991902 0.000000
0.000000 0.991902 0.000000
0.000000 0.991902 0.000000
0.000000 0.991902 0.000000
0.733153 0.991045 0.000000
0.971808 0.983532 0.000000
1.004516 0.978227 0.000000
0.000000 1.014910 0.000000
0.000000 1.014910 0.000000
0.000000 1.014910 0.000000
0.000000 1.014910 0.000000
0.000000 1.014910 0.000000
0.000000 1.014910 0.000000
0.000000 1.014910 0.000000
0.893280 1.003051 0.000000
0.999031 0.999444 0.000000
0.012620 0.006758 0.079693
0.052946 0.000000 0.140601
0.125476 0.000000 0.202192
0.280910 0.000000 0.252210
0.518849 0.000000 0.302982
0.784914 0.000000 0.322465
0.981749 0.000000 0.291906
1.067677 0.000000 0.000000
1.088038 0.000000 0.000000
0.000000 0.025163 0.266984
0.061372 0.017915 0.302755
0.155174 0.000000 0.305358
0.318415 0.000000 0.310981
0.580221 0.000000 0.349174
0.827322 0.000000 0.349956
0.981749 0.000000 0.291906
1.067677 0.000000 0.000000
1.088038 0.000000 0.000000
0.000000 0.109632 0.312390
0.000000 0.122084 0.339088
0.111313 0.131693 0.361906
0.335727 0.105282 0.367965
0.609955 0.000000 0.374608
0.861023 0.000000 0.364065
1.015950 0.000000 0.318561
1.067677 0.000000 0.000000
1.088038 0.000000 0.000000
0.000000 0.287587 0.348595
0.000000 0.296260 0.356027
0.000000 0.322373 0.373578
0.267717 0.346998 0.394757
0.593287 0.324671 0.382393
0.852043 0.284326 0.348343
1.013684 0.234674 0.296529
1.079256 0.000000 0.000000
1.088038 0.000000 0.000000
0.000000 0.531290 0.355475
0.000000 0.531290 0.355475
0.000000 0.531290 0.355475
0.000000 0.563040 0.350921
0.481457 0.565522 0.337385
0.801817 0.552097 0.306812
0.981383 0.546729 0.259628
1.058663 0.505126 0.000000
1.085953 0.000000 0.000000
0.000000 0.753584 0.270873
0.000000 0.753584 0.270873
0.000000 0.753584 0.268638
0.000000 0.753584 0.266394
0.000000 0.781212 0.250342
0.705895 0.766174 0.247884
0.938312 0.764125 0.153353
1.033143 0.746835 0.000000
1.048393 0.711985 0.000000
0.000000 0.917787 0.089734
0.000000 0.917787 0.089734
0.000000 0.917787 0.089734
0.000000 0.917787 0.069094
0.000000 0.916789 0.000000
0.470155 0.933112 0.000000
0.882714 0.924817 0.000000
1.007257 0.901314 0.000000
1.021060 0.892575 0.000000
0.000000 0.993039 0.000000
0.000000 0.993039 0.000000
0.000000 0.993039 0.000000
0.000000 0.993039 0.000000
0.000000 0.992471 0.000000
0.000000 0.991902 0.000000
0.736698 0.990965 0.000000
0.971808 0.983532 0.000000
1.004516 0.978227 0.000000
0.000000 1.014910 0.000000
0.000000 1.014910 0.000000
0.000000 1.014910 0.000000
0.000000 1.014910 0.000000
0.000000 1.014910 0.000000
0.000000 1.014910 0.000000
0.000000 1.014910 0.000000
0.892206 1.003082 0.000000
0.999031 0.999444 0.000000
0.077181 0.000000 0.456588
0.130591 0.000000 0.484083
0.199259 0.000000 0.493723
0.326198 0.000000 0.506389
0.561224 0.000000 0.532258
0.810643 0.000000 0.570123
0.996607 0.000000 0.577933
1.075573 0.000000 0.544365
1.088126 0.000000 0.000000
0.055010 0.033385 0.509208
0.117721 0.022957 0.520937
0.193908 0.000000 0.529168
0.335415 0.000000 0.538489
0.592097 0.000000 0.574766
0.852935 0.000000 0.611927
1.001221 0.000000 0.582817
1.075573 0.000000 0.544365
1.088126 0.000000 0.000000
0.000000 0.095386 0.530927
0.058329 0.095597 0.539361
0.166278 0.091697 0.544178
0.324728 0.058060 0.549887
0.599868 0.000000 0.585904
0.857954 0.000000 0.619627
1.028511 0.000000 0.611604
1.075573 0.000000 0.542659
1.088126 0.000000 0.000000
0.000000 0.306401 0.594668
0.000000 0.318006 0.607288
0.000000 0.326451 0.611833
0.312449 0.328994 0.618787
0.590290 0.299097 0.603204
0.849242 0.282889 0.617323
1.020599 0.235101 0.604277
1.079868 0.000000 0.555700
1.088126 0.000000 0.000000
0.000000 0.514736 0.581831
0.000000 0.514736 0.581831
0.000000 0.526319 0.582744
0.000000 0.554902 0.593999
0.492695 0.561974 0.596523
0.808461 0.558400 0.595137
0.985806 0.559957 0.589064
1.055842 0.515989 0.538362
1.083903 0.150671 0.000000
0.000000 0.756417 0.584963
0.000000 0.756417 0.584963
0.000000 0.756417 0.584963
0.000000 0.756417 0.584963
0.000000 0.785052 0.583818
0.705650 0.774266 0.577312
0.937761 0.761412 0.551685
1.030789 0.763720 0.507852
1.047068 0.722420 0.000000
0.000000 0.914792 0.539092
0.000000 0.914792 0.539092
0.000000 0.914792 0.539092
0.000000 0.914792 0.537211
0.000000 0.915790 0.535169
0.454749 0.932445 0.558093
0.877846 0.924973 0.543202
1.002912 0.911745 0.445022
1.021060 0.892575 0.000000
0.000000 0.990198 0.466767
0.000000 0.990198 0.466767
0.000000 0.990198 0.466767
0.000000 0.990198 0.464740
0.000000 0.990198 0.462707
0.000000 0.990766 0.456204
0.719137 0.995895 0.441202
0.967073 0.989524 0.295657
1.004516 0.978227 0.000000
0.000000 1.015490 0.000000
0.000000 1.015490 0.000000
0.000000 1.015490 0.000000
0.000000 1.015490 0.000000
0.000000 1.015490 0.000000
0.000000 1.015490 0.000000
0.000000 1.015159 0.000000
0.893280 1.003051 0.000000
0.999031 0.999444 0.000000
0.194901 0.000000 0.713529
0.239019 0.000000 0.717951
0.292411 0.000000 0.722298
0.394424 0.000000 0.726289
0.554070 0.000000 0.730990
0.852719 0.000000 0.815779
1.016754 0.000000 0.820934
1.079534 0.000000 0.791852
1.088126 0.000000 0.746510
0.178515 0.059882 0.724141
0.227186 0.049392 0.727050
0.282995 0.000000 0.729890
0.387629 0.000000 0.732379
0.552171 0.000000 0.734034
0.851059 0.000000 0.815716
1.021438 0.000000 0.826254
1.079534 0.000000 0.791852
1.088126 0.000000 0.746510
0.147283 0.110002 0.731616
0.203783 0.106168 0.731492
0.266204 0.097033 0.734343
0.376771 0.063241 0.735333
0.544588 0.000000 0.733992
0.844548 0.000000 0.814138
1.020966 0.000000 0.826032
1.079534 0.000000 0.791852
1.088126 0.000000 0.746510
0.000000 0.229845 0.732040
0.102272 0.230403 0.731952
0.192391 0.230032 0.731777
0.332633 0.222738 0.732785
0.550423 0.248937 0.762943
0.834890 0.283278 0.811704
1.011718 0.244130 0.820887
1.080850 0.000000 0.800639
1.088126 0.000000 0.746510
0.000000 0.559919 0.819867
0.000000 0.563050 0.821096
0.000000 0.570891 0.822082
0.169291 0.572137 0.819995
0.548290 0.560256 0.809893
0.801805 0.540393 0.797300
0.978143 0.560534 0.805180
1.057508 0.529906 0.781888
1.082286 0.234398 0.741563
0.000000 0.736602 0.786204
0.000000 0.736602 0.786204
0.000000 0.736602 0.786204
0.000000 0.762083 0.794310
0.219471 0.777223 0.790235
0.714176 0.760346 0.774078
0.941076 0.765369 0.770425
1.031182 0.760938 0.759676
1.047068 0.722420 0.720726
0.000000 0.916789 0.784441
0.000000 0.916789 0.784441
0.000000 0.916789 0.784441
0.000000 0.916789 0.784441
0.000000 0.916789 0.784441
0.500920 0.932688 0.783192
0.877244 0.922365 0.776792
1.003098 0.908211 0.732957
1.019576 0.900815 0.691743
0.000000 0.986789 0.730792
0.000000 0.986789 0.730792
0.000000 0.986789 0.730792
0.000000 0.986789 0.730792
0.000000 0.986789 0.730792
0.000000 0.986789 0.729215
0.712099 0.995635 0.740833
0.965978 0.988310 0.724811
1.003726 0.982010 0.656252
0.000000 1.015739 0.668643
0.000000 1.015739 0.668643
0.000000 1.015739 0.668643
0.000000 1.015739 0.668643
0.000000 1.015821 0.666938
0.000000 1.015739 0.665255
0.000000 1.015739 0.660166
0.879288 1.003706 0.655307
0.998720 0.999960 0.569900
0.359406 0.106583 0.884099
0.393701 0.099350 0.883933
0.430367 0.087612 0.883737
0.493147 0.048819 0.883348
0.599502 0.000000 0.881347
0.754222 0.000000 0.879678
1.013970 0.000000 0.960119
1.080201 0.000000 0.963798
1.088120 0.000000 0.933232
0.351140 0.142307 0.882813
0.385685 0.136388 0.882658
0.424003 0.130154 0.882451
0.486915 0.113387 0.882067
0.593638 0.043845 0.881248
0.750577 0.000000 0.878435
1.012118 0.000000 0.958893
1.080179 0.000000 0.963675
1.088120 0.000000 0.933232
0.336385 0.188385 0.882535
0.372760 0.184004 0.882384
0.413022 0.178582 0.881039
0.476231 0.169088 0.881811
0.586961 0.139508 0.879840
0.747987 0.000000 0.878177
1.006371 0.200898 0.955510
1.078171 0.000000 0.958945
1.088120 0.000000 0.933232
0.291386 0.273804 0.879390
0.333861 0.272040 0.879229
0.382124 0.269589 0.879009
0.451936 0.263644 0.878637
0.571550 0.248232 0.877800
0.741502 0.247204 0.884937
0.990478 0.374430 0.945154
1.069988 0.287625 0.945062
1.088120 0.000000 0.933232
0.112787 0.410622 0.874600
0.200610 0.409833 0.873318
0.275711 0.408622 0.870813
0.376389 0.407666 0.866538
0.561790 0.471792 0.894813
0.799887 0.543852 0.922480
0.970407 0.571189 0.938665
1.054789 0.549299 0.937748
1.076584 0.385209 0.915740
0.000000 0.768881 0.936741
0.000000 0.771600 0.936535
0.000000 0.772622 0.935404
0.000000 0.775323 0.932854
0.501135 0.765680 0.927160
0.762798 0.771089 0.933078
0.943290 0.763897 0.930518
1.030446 0.758216 0.926323
1.045714 0.732849 0.909786
0.000000 0.902816 0.928186
0.000000 0.902816 0.928186
0.000000 0.902816 0.928186
0.000000 0.902816 0.928186
0.000000 0.927196 0.928128
0.585345 0.930459 0.929543
0.877362 0.906045 0.909859
1.004231 0.907285 0.896439
1.020135 0.897725 0.888193
0.000000 0.987358 0.901731
0.000000 0.987358 0.901731
0.000000 0.987358 0.901731
0.000000 0.987358 0.901731
0.000000 0.987358 0.900656
0.000000 0.987358 0.900656
0.734105 0.993500 0.898204
0.964475 0.985861 0.892704
1.004165 0.979908 0.867219
0.000000 1.015656 0.868302
0.000000 1.015656 0.868302
0.000000 1.015656 0.868302
0.000000 1.015656 0.868302
0.000000 1.015656 0.868302
0.000000 1.015656 0.868302
0.000000 1.015656 0.867082
0.879288 1.003706 0.875230
0.998720 0.999960 0.867620
0.534913 0.239695 0.980893
0.563694 0.236510 0.979950
0.591581 0.231518 0.979015
0.629590 0.226365 0.976483
0.685607 0.217566 0.973749
0.778329 0.199070 0.968308
0.948277 0.260788 0.990505
1.067061 0.327719 1.015411
1.085012 0.000000 1.020692
0.528332 0.277536 0.978264
0.557469 0.274959 0.976581
0.585438 0.272266 0.975630
0.623620 0.269869 0.973817
0.680114 0.261372 0.970362
0.775000 0.247173 0.964301
0.954894 0.332415 0.993448
1.065133 0.379169 1.014515
1.084197 0.126429 1.020125
0.518995 0.317286 0.974782
0.548415 0.315184 0.973101
0.576846 0.312976 0.972149
0.615523 0.309678 0.969618
0.675637 0.305521 0.966524
0.769618 0.292685 0.961092
0.957738 0.397018 0.995668
1.062594 0.432404 1.013818
1.082769 0.214151 1.019838
0.503163 0.370611 0.968736
0.534971 0.368855 0.966743
0.564134 0.367099 0.965641
0.603416 0.364504 0.962659
0.664371 0.361598 0.960299
0.761151 0.349382 0.958450
0.959898 0.473065 0.998454
1.057295 0.512325 1.012167
1.078190 0.351812 1.018358
0.466376 0.462416 0.958725
0.495896 0.459720 0.957700
0.530553 0.459958 0.957421
0.575031 0.457977 0.957091
0.637993 0.456414 0.956511
0.744408 0.446430 0.956414
0.958294 0.603820 1.000127
1.046180 0.635387 1.008810
1.063576 0.570782 1.013115
0.434788 0.713794 0.989278
0.479099 0.718957 0.989922
0.523912 0.721022 0.990681
0.587882 0.726700 0.991640
0.678434 0.737033 0.993772
0.806955 0.748465 0.996276
0.945834 0.766520 0.999178
1.028302 0.779031 1.003569
1.041416 0.764543 1.004634
0.000000 0.912799 0.997347
0.000000 0.914462 0.997075
0.000000 0.912890 0.996905
0.166619 0.911740 0.996431
0.481187 0.908142 0.994560
0.714523 0.904656 0.992647
0.912051 0.914201 0.996881
1.005578 0.913404 0.996866
1.019576 0.900815 0.993422
0.000000 0.983382 0.989789
0.000000 0.983382 0.989789
0.000000 0.983382 0.989789
0.000000 0.983382 0.989789
0.000000 0.983382 0.989789
0.000000 1.002318 0.994962
0.794822 0.993709 0.991104
0.965869 0.979565 0.978882
1.004253 0.979487 0.972262
0.000000 1.015988 0.976822
0.000000 1.015988 0.976822
0.000000 1.015988 0.976822
0.000000 1.015988 0.976822
0.000000 1.015988 0.976822
0.000000 1.015988 0.976822
0.000000 1.015988 0.976214
0.892141 1.003336 0.972958
0.998720 0.999960 0.971315
0.697673 0.434466 1.003842
0.719386 0.434671 1.004175
0.742686 0.431314 1.003976
0.768671 0.429352 1.003697
0.798418 0.426971 1.003359
0.846274 0.421087 1.002820
0.920082 0.408482 1.002539
1.048820 0.607350 1.021230
1.061010 0.598211 1.021858
0.694937 0.458092 1.003857
0.716947 0.456704 1.003641
0.740180 0.455167 1.003403
0.763139 0.453572 1.003158
0.794583 0.451262 1.002804
0.844199 0.445582 1.002248
0.915668 0.435621 1.001969
1.046533 0.632092 1.020383
1.058362 0.624704 1.020883
0.686447 0.484324 1.003227
0.710486 0.482943 1.002995
0.732401 0.479887 1.002823
0.758899 0.478197 1.002542
0.792258 0.474181 1.002218
0.840432 0.470624 1.001638
0.913503 0.462766 1.001303
1.043588 0.661288 1.019386
1.055552 0.651093 1.019852
0.680112 0.517224 1.002307
0.702755 0.516055 1.002091
0.726554 0.513106 1.001905
0.751541 0.513337 1.001592
0.783572 0.509728 1.001879
0.835719 0.502768 1.001365
0.910811 0.493559 1.000477
1.039764 0.695898 1.017989
1.051402 0.687378 1.018332
0.662063 0.564086 1.000928
0.689129 0.561241 1.001326
0.711401 0.560197 1.001109
0.738635 0.558853 1.000831
0.772791 0.557059 1.000462
0.823896 0.554144 0.999864
0.958137 0.675786 1.015534
1.033831 0.743845 1.015928
1.044332 0.743269 1.015755
0.624570 0.643767 0.998769
0.650542 0.642886 0.998547
0.678082 0.641895 0.998297
0.709666 0.640684 0.997993
0.771063 0.698451 1.007029
0.876785 0.768170 1.013861
0.963427 0.802320 1.012990
1.022678 0.825004 1.011634
1.032493 0.824546 1.011473
0.683210 0.916330 1.010693
0.714605 0.916462 1.010332
0.742590 0.915765 1.010048
0.773159 0.914959 1.009809
0.813168 0.915578 1.009230
0.869146 0.915620 1.008413
0.945673 0.915656 1.007170
1.006860 0.920409 1.005738
1.016690 0.916494 1.005826
0.000000 0.998101 1.008171
0.000000 0.997562 1.007922
0.270414 0.996858 1.007598
0.421782 0.996080 1.007020
0.567968 0.995010 1.006086
0.732329 0.993540 1.004524
0.879302 0.984368 1.003209
0.981793 0.984859 1.001438
1.003550 0.982851 1.001190
0.000000 1.016236 1.007510
0.000000 1.016236 1.007510
0.000000 1.016236 1.007510
0.000000 1.016236 1.007510
0.000000 1.016236 1.007510
0.000000 1.016236 1.007510
0.000000 1.015394 1.007186
0.931619 1.002149 1.000961
0.999120 0.999946 0.998679
