transforms/AB03_warm_fpe_r709.cube
#  AB_03_FPE_r709.cube
LUT_3D_SIZE 9
0.000000 0.000000 0.000000
0.012820 0.009137 0.005580
0.083771 0.053178 0.017228
0.188157 0.062857 0.000000
0.324267 0.065385 0.000000
0.436762 0.000000 0.000000
0.502948 0.000000 0.000000
0.563373 0.000000 0.000000
0.594989 0.000000 0.000000
0.005314 0.013457 0.007920
0.013510 0.015730 0.008151
0.094452 0.070025 0.028069
0.223353 0.092967 0.000000
0.382018 0.097345 0.000000
0.496549 0.004472 0.000000
0.528646 0.000000 0.000000
0.563373 0.000000 0.000000
0.594989 0.000000 0.000000
0.000000 0.069859 0.039175
0.006385 0.077413 0.042413
0.100372 0.106170 0.038454
0.261892 0.157388 0.000000
0.458513 0.173994 0.000000
0.593352 0.146688 0.000000
0.628197 0.027433 0.000000
0.571484 0.000000 0.000000
0.594989 0.000000 0.000000
0.000000 0.116327 0.054152
0.000000 0.125606 0.054992
0.062568 0.159548 0.040737
0.286001 0.238548 0.000000
0.529963 0.305021 0.000000
0.693767 0.313665 0.000000
0.752628 0.288121 0.000000
0.747995 0.209640 0.000000
0.594989 0.000000 0.000000
0.000000 0.178639 0.070504
0.000000 0.178639 0.070504
0.000000 0.197483 0.076267
0.244291 0.328742 0.000000
0.570085 0.437150 0.000000
0.773662 0.497967 0.000000
0.851032 0.507803 0.000000
0.875377 0.496211 0.000000
0.850021 0.408096 0.000000
0.000000 0.268531 0.110393
0.000000 0.268531 0.110393
0.000000 0.268412 0.110333
0.000000 0.295932 0.119146
0.573411 0.544367 0.000000
0.818067 0.626099 0.000000
0.909655 0.661370 0.000000
0.940125 0.674110 0.000000
0.946500 0.667408 0.000000
0.000000 0.359357 0.135113
0.000000 0.359357 0.135113
0.000000 0.359357 0.135113
0.000000 0.359357 0.135113
0.000000 0.373330 0.132996
0.823508 0.696581 0.000000
0.937321 0.741851 0.000000
0.971376 0.760085 0.000000
0.981774 0.764929 0.000000
0.000000 0.418772 0.129456
0.000000 0.418772 0.129456
0.000000 0.418772 0.129456
0.000000 0.418772 0.129456
0.000000 0.418772 0.129456
0.000000 0.418772 0.129456
0.940594 0.779400 0.000000
0.984656 0.797641 0.000000
0.996921 0.805539 0.000000
0.000000 0.458310 0.125893
0.000000 0.458310 0.125893
0.000000 0.458310 0.125893
0.000000 0.458310 0.125893
0.000000 0.458310 0.125893
0.000000 0.458310 0.125893
0.000000 0.458310 0.125893
0.988653 0.814444 0.000000
1.003509 0.821034 0.000000
0.007032 0.007509 0.011037
0.012460 0.008880 0.011183
0.087223 0.054556 0.045846
0.202274 0.064857 0.037677
0.349197 0.065568 0.000000
0.466123 0.000000 0.000000
0.522176 0.000000 0.000000
0.563373 0.000000 0.000000
0.594989 0.000000 0.000000
0.002172 0.013542 0.014135
0.012664 0.015736 0.015227
0.099069 0.069680 0.054179
0.238332 0.097341 0.047218
0.413694 0.105899 0.000000
0.537309 0.014419 0.000000
0.563933 0.000000 0.000000
0.563373 0.000000 0.000000
0.594989 0.000000 0.000000
0.000000 0.074150 0.061529
0.000000 0.082076 0.064055
0.101644 0.109953 0.062480
0.277548 0.160053 0.037085
0.488108 0.179192 0.000000
0.628924 0.153740 0.000000
0.659460 0.053048 0.000000
0.571484 0.000000 0.000000
0.594989 0.000000 0.000000
0.000000 0.128082 0.072925
0.000000 0.136304 0.072587
0.000000 0.165448 0.061711
0.303993 0.253390 0.000000
0.561236 0.321884 0.000000
0.725501 0.323926 0.000000
0.769817 0.293482 0.000000
0.748618 0.210843 0.000000
0.594989 0.000000 0.000000
0.000000 0.195139 0.092538
0.000000 0.195047 0.092308
0.000000 0.215460 0.097856
0.234501 0.347443 0.000000
0.598397 0.464134 0.000000
0.799856 0.521071 0.000000
0.865551 0.524611 0.000000
0.875377 0.496211 0.000000
0.850021 0.408096 0.000000
0.000000 0.288409 0.121137
0.000000 0.288409 0.121137
0.000000 0.288255 0.120930
0.000000 0.318768 0.127677
0.593291 0.573587 0.000000
0.836791 0.647354 0.000000
0.918220 0.675379 0.000000
0.940125 0.674110 0.000000
0.946500 0.667408 0.000000
0.000000 0.374378 0.137679
0.000000 0.374378 0.137679
0.000000 0.374378 0.137679
0.000000 0.374255 0.137579
0.000000 0.386828 0.135853
0.835395 0.710211 0.000000
0.938870 0.744435 0.000000
0.971376 0.760085 0.000000
0.981774 0.764929 0.000000
0.000000 0.418772 0.129456
0.000000 0.418772 0.129456
0.000000 0.418772 0.129456
0.000000 0.418772 0.129456
0.000000 0.418772 0.129456
0.000000 0.418772 0.129456
0.940594 0.779400 0.000000
0.984518 0.797263 0.000000
0.996921 0.805539 0.000000
0.000000 0.458310 0.125893
0.000000 0.458310 0.125893
0.000000 0.458310 0.125893
0.000000 0.458310 0.125893
0.000000 0.458310 0.125893
0.000000 0.458310 0.125893
0.000000 0.458310 0.125893
0.988653 0.814444 0.000000
1.003509 0.821034 0.000000
0.020371 0.026256 0.069624
0.041906 0.031769 0.072546
0.088799 0.053948 0.085168
0.209889 0.061008 0.090620
0.363477 0.059502 0.078846
0.489322 0.000000 0.043298
0.551546 0.000000 0.000000
0.579701 0.000000 0.000000
0.594989 0.000000 0.000000
0.000000 0.049915 0.084313
0.028970 0.051240 0.084697
0.097008 0.068972 0.097241
0.245025 0.094273 0.099706
0.430347 0.104611 0.092477
0.559581 0.000000 0.072077
0.590319 0.000000 0.000000
0.579556 0.000000 0.000000
0.594989 0.000000 0.000000
0.000000 0.083750 0.101527
0.000000 0.088314 0.103266
0.091497 0.116109 0.115068
0.283924 0.160070 0.113529
0.499165 0.176507 0.102714
0.654059 0.171557 0.105562
0.707049 0.114441 0.073316
0.593337 0.000000 0.000000
0.594989 0.000000 0.000000
0.000000 0.147665 0.139583
0.000000 0.158266 0.142420
0.000000 0.174588 0.124709
0.307311 0.268684 0.121936
0.573911 0.316707 0.083039
0.743048 0.329922 0.075531
0.811839 0.327237 0.000000
0.771779 0.223019 0.000000
0.594989 0.000000 0.000000
0.000000 0.238246 0.181216
0.000000 0.237774 0.180116
0.000000 0.265536 0.187162
0.111918 0.353904 0.112177
0.617263 0.497137 0.000000
0.825107 0.546879 0.000000
0.905892 0.560147 0.000000
0.889879 0.512482 0.000000
0.850021 0.408096 0.000000
0.000000 0.348847 0.210669
0.000000 0.348847 0.210669
0.000000 0.348847 0.210669
0.000000 0.375681 0.209003
0.589282 0.607384 0.000000
0.862938 0.677046 0.000000
0.957065 0.710482 0.000000
0.950268 0.690194 0.000000
0.946500 0.667408 0.000000
0.000000 0.413640 0.181366
0.000000 0.413393 0.180904
0.000000 0.413393 0.180904
0.000000 0.412332 0.180381
0.000000 0.427062 0.174643
0.865782 0.741539 0.000000
0.965053 0.767500 0.000000
0.972601 0.763122 0.000000
0.981982 0.765513 0.000000
0.000000 0.432541 0.134681
0.000000 0.432541 0.134681
0.000000 0.432541 0.134681
0.000000 0.432417 0.134547
0.000000 0.431565 0.134299
0.000000 0.430094 0.133385
0.941901 0.781389 0.000000
0.984656 0.797641 0.000000
0.996921 0.805539 0.000000
0.000000 0.458310 0.125893
0.000000 0.458310 0.125893
0.000000 0.458310 0.125893
0.000000 0.458310 0.125893
0.000000 0.458310 0.125893
0.000000 0.458310 0.125893
0.000000 0.458310 0.125893
0.988653 0.814444 0.000000
1.003509 0.821034 0.000000
0.013819 0.020937 0.131134
0.041402 0.023002 0.138842
0.097217 0.041898 0.157297
0.212067 0.053868 0.179193
0.375487 0.000000 0.201467
0.505597 0.000000 0.192672
0.571344 0.000000 0.168861
0.616592 0.000000 0.129639
0.609761 0.000000 0.000000
0.000000 0.041202 0.153543
0.023340 0.042642 0.158672
0.087936 0.056839 0.178404
0.241012 0.076817 0.204981
0.431401 0.080071 0.225713
0.565729 0.000000 0.218324
0.606594 0.000000 0.181793
0.616592 0.000000 0.129639
0.609295 0.000000 0.000000
0.000000 0.097672 0.184314
0.000000 0.101978 0.193002
0.051630 0.111844 0.212771
0.277022 0.160314 0.241484
0.506044 0.175494 0.230937
0.662564 0.168946 0.244026
0.716326 0.108183 0.251916
0.629668 0.000000 0.136516
0.609147 0.000000 0.000000
0.000000 0.174055 0.225388
0.000000 0.189498 0.239423
0.000000 0.210049 0.253255
0.293172 0.291266 0.278578
0.578046 0.334313 0.275300
0.744038 0.329288 0.272196
0.814938 0.334933 0.287140
0.825990 0.298144 0.276237
0.608854 0.000000 0.000000
0.000000 0.288124 0.302880
0.000000 0.288124 0.302880
0.000000 0.327628 0.331164
0.000000 0.387184 0.276276
0.611598 0.527903 0.286625
0.822852 0.554347 0.267811
0.898861 0.558272 0.295522
0.922809 0.561383 0.292156
0.870579 0.425015 0.000000
0.000000 0.421847 0.377734
0.000000 0.421847 0.377734
0.000000 0.421847 0.377734
0.000000 0.455458 0.391681
0.499180 0.634207 0.258964
0.860504 0.717659 0.233085
0.955648 0.748619 0.257477
0.983086 0.755231 0.260945
0.957869 0.683365 0.000000
0.000000 0.505301 0.396532
0.000000 0.505301 0.396532
0.000000 0.505301 0.396532
0.000000 0.505301 0.396532
0.000000 0.524766 0.400701
0.854572 0.789662 0.187455
0.975626 0.822155 0.198366
1.007451 0.833484 0.162308
0.984300 0.770468 0.000000
0.000000 0.537810 0.356606
0.000000 0.537810 0.356606
0.000000 0.537810 0.356606
0.000000 0.537810 0.356606
0.000000 0.537273 0.355058
0.000000 0.533973 0.347070
0.976745 0.841217 0.000000
1.017740 0.841712 0.000000
0.996921 0.805539 0.000000
0.000000 0.470378 0.132417
0.000000 0.470378 0.132417
0.000000 0.470378 0.132417
0.000000 0.469718 0.132160
0.000000 0.469056 0.131903
0.000000 0.468047 0.131166
0.000000 0.463070 0.128368
0.988653 0.814444 0.000000
1.003509 0.821034 0.000000
0.000000 0.000000 0.214818
0.051919 0.000000 0.231574
0.109830 0.000000 0.254061
0.239459 0.000000 0.285140
0.387516 0.000000 0.316789
0.523372 0.000000 0.335904
0.588809 0.000000 0.327187
0.634520 0.000000 0.316832
0.652749 0.000000 0.276781
0.000000 0.000000 0.235971
0.031191 0.000000 0.259663
0.095955 0.000000 0.283508
0.259865 0.050390 0.320672
0.432148 0.000000 0.353678
0.568975 0.000000 0.369194
0.625458 0.000000 0.351916
0.634520 0.000000 0.316832
0.652749 0.000000 0.276781
0.000000 0.104775 0.286551
0.000000 0.107082 0.305342
0.000000 0.101460 0.327287
0.268886 0.145060 0.376050
0.499484 0.153722 0.408329
0.659910 0.133441 0.420984
0.713816 0.000000 0.418065
0.650156 0.000000 0.330279
0.652749 0.000000 0.276781
0.000000 0.219798 0.355757
0.000000 0.239835 0.376582
0.000000 0.247821 0.394599
0.244073 0.295912 0.433231
0.574090 0.353379 0.468586
0.750392 0.351817 0.451120
0.820837 0.349145 0.451524
0.833978 0.312655 0.463775
0.652749 0.000000 0.276781
0.000000 0.325152 0.416455
0.000000 0.332779 0.422909
0.000000 0.369455 0.451882
0.000000 0.430389 0.464584
0.591967 0.570338 0.511513
0.818788 0.591696 0.512043
0.896095 0.579406 0.510954
0.917998 0.572885 0.518020
0.913185 0.525704 0.500632
0.000000 0.454724 0.499236
0.000000 0.454724 0.499236
0.000000 0.454724 0.499236
0.000000 0.505567 0.538505
0.426983 0.676182 0.511933
0.848728 0.760630 0.532743
0.946187 0.774211 0.530938
0.969952 0.766201 0.543408
0.976775 0.758452 0.531810
0.000000 0.555764 0.558193
0.000000 0.555764 0.558193
0.000000 0.555764 0.558193
0.000000 0.555764 0.558193
0.000000 0.588874 0.583396
0.808127 0.836061 0.528041
0.962878 0.869384 0.539276
0.996453 0.877901 0.544439
1.005844 0.876038 0.537385
0.000000 0.611764 0.581165
0.000000 0.611764 0.581165
0.000000 0.611764 0.581165
0.000000 0.611764 0.581165
0.000000 0.611764 0.581165
0.000000 0.616374 0.584442
0.957441 0.897213 0.527941
1.003623 0.908113 0.526466
1.014960 0.909839 0.512686
0.000000 0.634194 0.563275
0.000000 0.634194 0.563275
0.000000 0.634194 0.563275
0.000000 0.634194 0.563275
0.000000 0.634194 0.563275
0.000000 0.633834 0.561979
0.000000 0.631983 0.555897
1.004811 0.912051 0.476786
1.018529 0.907081 0.420727
0.057386 0.000000 0.327761
0.090959 0.000000 0.344353
0.144698 0.000000 0.365932
0.277421 0.000000 0.398680
0.428352 0.000000 0.422099
0.547343 0.000000 0.444739
0.609549 0.000000 0.448398
0.648339 0.000000 0.453574
0.668859 0.000000 0.450859
0.001759 0.000000 0.356369
0.078474 0.000000 0.377364
0.134327 0.000000 0.397255
0.285335 0.000000 0.434623
0.467066 0.000000 0.459732
0.589195 0.000000 0.480650
0.646063 0.000000 0.480930
0.648339 0.000000 0.453574
0.668859 0.000000 0.450859
0.000000 0.088692 0.394774
0.000000 0.072419 0.410442
0.081018 0.082463 0.435969
0.261397 0.120207 0.480413
0.517452 0.122029 0.518073
0.659138 0.039663 0.545915
0.715857 0.000000 0.550294
0.669805 0.000000 0.474828
0.668859 0.000000 0.450859
0.000000 0.251053 0.472152
0.000000 0.252340 0.485455
0.000000 0.238145 0.496062
0.244345 0.299681 0.557075
0.569565 0.353728 0.605888
0.748467 0.353066 0.628985
0.820875 0.346737 0.625092
0.834263 0.306598 0.620441
0.668859 0.000000 0.450859
0.000000 0.370028 0.527089
0.000000 0.397430 0.547104
0.000000 0.433715 0.577175
0.000000 0.463879 0.597358
0.577177 0.586005 0.661824
0.815108 0.616068 0.681762
0.899086 0.620542 0.676460
0.922000 0.605974 0.668415
0.914775 0.544556 0.657251
0.000000 0.474604 0.580499
0.000000 0.473264 0.579867
0.000000 0.473264 0.579867
0.000000 0.551343 0.640714
0.394062 0.710491 0.680935
0.839562 0.792690 0.716817
0.938651 0.803979 0.721266
0.965001 0.796880 0.724420
0.971663 0.780079 0.714338
0.000000 0.572762 0.643330
0.000000 0.572762 0.643330
0.000000 0.572762 0.643330
0.000000 0.572762 0.643330
0.000000 0.628568 0.689914
0.772756 0.866249 0.720083
0.950444 0.899497 0.739259
0.986519 0.905019 0.742378
0.995677 0.897424 0.733047
0.000000 0.633150 0.681773
0.000000 0.633150 0.681773
0.000000 0.633150 0.681773
0.000000 0.633150 0.681773
0.000000 0.633150 0.681773
0.000000 0.653492 0.702001
0.937582 0.930424 0.739163
0.992131 0.942596 0.747801
1.004544 0.943459 0.740138
0.000000 0.667996 0.700834
0.000000 0.667996 0.700834
0.000000 0.667996 0.700834
0.000000 0.667996 0.700834
0.000000 0.667996 0.700834
0.000000 0.667996 0.700834
0.000000 0.667545 0.700614
0.989158 0.953065 0.743335
1.006352 0.955881 0.741535
0.163858 0.000000 0.450247
0.197269 0.000000 0.463467
0.243309 0.000000 0.480594
0.346910 0.000000 0.504390
0.494455 0.000000 0.525307
0.593474 0.000000 0.537523
0.645167 0.000000 0.541595
0.658295 0.000000 0.533586
0.679027 0.000000 0.541962
0.138507 0.000000 0.480440
0.172038 0.000000 0.494377
0.226609 0.000000 0.513241
0.348551 0.000000 0.541796
0.526514 0.000000 0.567078
0.635623 0.000000 0.580106
0.675436 0.000000 0.574144
0.658295 0.000000 0.533586
0.679027 0.000000 0.541962
0.055514 0.083729 0.517169
0.131976 0.093398 0.531161
0.200762 0.114179 0.550762
0.335522 0.139935 0.582488
0.550156 0.134714 0.614556
0.679610 0.059946 0.631313
0.735395 0.000000 0.642036
0.699646 0.000000 0.577897
0.679027 0.000000 0.541962
0.000000 0.238640 0.566078
0.000000 0.235405 0.581194
0.086415 0.256420 0.608819
0.326244 0.309139 0.652644
0.577793 0.343613 0.691961
0.751281 0.347596 0.714058
0.815683 0.319273 0.725981
0.829690 0.279537 0.719743
0.679027 0.000000 0.541962
0.000000 0.448092 0.645437
0.000000 0.455006 0.656395
0.000000 0.457607 0.669630
0.086194 0.494450 0.706717
0.588920 0.591244 0.757877
0.811848 0.622930 0.785314
0.896083 0.627497 0.799800
0.919803 0.614709 0.792091
0.912156 0.545388 0.773793
0.000000 0.498154 0.650183
0.000000 0.514427 0.661112
0.000000 0.553556 0.688340
0.000000 0.599466 0.722451
0.450515 0.736141 0.784127
0.829933 0.803784 0.821341
0.933248 0.820139 0.830446
0.963593 0.824879 0.831199
0.971496 0.811878 0.825427
0.000000 0.580239 0.691038
0.000000 0.580239 0.691038
0.000000 0.580239 0.691038
0.000000 0.580239 0.691038
0.000000 0.672217 0.758699
0.762666 0.883627 0.828616
0.942803 0.915108 0.847513
0.979765 0.918351 0.852789
0.990253 0.914331 0.850393
0.000000 0.638104 0.728282
0.000000 0.638104 0.728282
0.000000 0.638104 0.728282
0.000000 0.638104 0.728282
0.000000 0.638104 0.728282
0.000000 0.707325 0.778758
0.921594 0.945500 0.850997
0.984660 0.957843 0.861351
0.997068 0.958941 0.862989
0.000000 0.671070 0.750621
0.000000 0.671070 0.750621
0.000000 0.671070 0.750621
0.000000 0.671070 0.750621
0.000000 0.671070 0.750621
0.000000 0.671070 0.750621
0.000000 0.673688 0.753609
0.979906 0.969442 0.865013
0.998525 0.973977 0.867953
0.315863 0.000000 0.593378
0.353700 0.000000 0.602832
0.401566 0.000000 0.610727
0.477744 0.000000 0.623833
0.583052 0.000000 0.634729
0.668234 0.000000 0.643795
0.705463 0.000000 0.641943
0.687090 0.000000 0.600936
0.686716 0.000000 0.590514
0.306152 0.088001 0.615818
0.348503 0.097215 0.625899
0.396362 0.098177 0.634154
0.475666 0.090878 0.646076
0.596034 0.000000 0.657895
0.687450 0.000000 0.666475
0.725255 0.000000 0.664439
0.715549 0.000000 0.633461
0.686716 0.000000 0.590514
0.294938 0.167142 0.640876
0.332261 0.170723 0.648625
0.384717 0.173660 0.658953
0.472324 0.177779 0.673278
0.605531 0.144208 0.685963
0.709200 0.075069 0.695317
0.751092 0.000000 0.695029
0.751826 0.000000 0.674819
0.686716 0.000000 0.590514
0.274312 0.304928 0.696992
0.329490 0.318350 0.708161
0.387842 0.327433 0.718269
0.468203 0.340598 0.732313
0.628469 0.351876 0.754963
0.768540 0.348423 0.771088
0.823778 0.338487 0.778315
0.831142 0.273861 0.771271
0.730363 0.000000 0.640315
0.000000 0.474533 0.745453
0.183805 0.485271 0.757292
0.317075 0.512109 0.773372
0.473191 0.556835 0.797138
0.647888 0.596462 0.821884
0.819221 0.621559 0.842719
0.896363 0.635371 0.855777
0.917463 0.613825 0.859369
0.909190 0.538699 0.842631
0.000000 0.616042 0.765667
0.000000 0.626146 0.774460
0.000000 0.638204 0.784034
0.000000 0.694583 0.813763
0.599492 0.757651 0.852813
0.832480 0.804977 0.877061
0.931948 0.827095 0.891611
0.961012 0.827830 0.894684
0.968933 0.816536 0.887892
0.000000 0.594377 0.731033
0.000000 0.594377 0.731033
0.000000 0.594377 0.731033
0.000000 0.659785 0.777823
0.000000 0.773188 0.828868
0.786514 0.894931 0.890791
0.939895 0.921480 0.907788
0.976977 0.926469 0.911877
0.988582 0.926759 0.910219
0.000000 0.639174 0.753335
0.000000 0.639174 0.753335
0.000000 0.639174 0.753335
0.000000 0.639174 0.753335
0.000000 0.639174 0.753335
0.000000 0.780964 0.834056
0.917992 0.952814 0.910493
0.980848 0.964033 0.918795
0.993913 0.963501 0.920458
0.000000 0.671508 0.774861
0.000000 0.671508 0.774861
0.000000 0.671508 0.774861
0.000000 0.671508 0.774861
0.000000 0.671508 0.774861
0.000000 0.671508 0.774861
0.000000 0.754495 0.828646
0.971403 0.976657 0.920834
0.995741 0.981137 0.925917
0.540229 0.196015 0.723275
0.572303 0.191687 0.727057
0.605680 0.188363 0.731568
0.642971 0.176692 0.734781
0.692240 0.165299 0.740849
0.744734 0.130141 0.744515
0.779588 0.095690 0.749150
0.780409 0.000000 0.732328
0.710570 0.000000 0.639387
0.543269 0.243849 0.740418
0.573363 0.243183 0.744615
0.610942 0.246036 0.751023
0.651981 0.244330 0.756503
0.702147 0.235128 0.761109
0.760031 0.209451 0.764305
0.796200 0.197559 0.769411
0.801110 0.116150 0.758423
0.732584 0.000000 0.664965
0.537898 0.302329 0.761172
0.578144 0.307225 0.767699
0.614828 0.308461 0.772842
0.661221 0.311307 0.779813
0.714215 0.307689 0.785230
0.781065 0.292705 0.791004
0.818159 0.286307 0.796087
0.824465 0.238693 0.786609
0.761811 0.000000 0.702701
0.550606 0.418900 0.801093
0.580533 0.422459 0.805054
0.623085 0.429396 0.811521
0.676009 0.435312 0.818730
0.733817 0.441016 0.826278
0.809192 0.443032 0.836033
0.859133 0.443454 0.844094
0.871575 0.422004 0.841892
0.836199 0.247963 0.796290
0.578910 0.601719 0.850947
0.617197 0.610375 0.856691
0.654241 0.615068 0.861253
0.702875 0.623098 0.867744
0.752386 0.632396 0.873857
0.844406 0.647796 0.885069
0.906529 0.660834 0.895473
0.925860 0.654290 0.898982
0.918155 0.579169 0.887802
0.506793 0.736233 0.876801
0.572722 0.744649 0.883539
0.628938 0.758760 0.890073
0.697930 0.773988 0.897611
0.772668 0.793469 0.906616
0.861087 0.811660 0.916519
0.934272 0.830041 0.926829
0.960598 0.836049 0.932270
0.967412 0.820866 0.932293
0.000000 0.776892 0.858985
0.000000 0.801489 0.872016
0.295417 0.825591 0.884585
0.499592 0.854515 0.900004
0.696867 0.883472 0.916260
0.849071 0.905210 0.930813
0.942550 0.922565 0.940424
0.975032 0.928602 0.945268
0.986332 0.929638 0.944878
0.000000 0.647172 0.778252
0.000000 0.647172 0.778252
0.000000 0.647172 0.778252
0.000000 0.647172 0.778252
0.000000 0.732277 0.834100
0.680414 0.919593 0.922563
0.925330 0.957748 0.945529
0.979653 0.966945 0.952741
0.992181 0.968163 0.953616
0.000000 0.671437 0.790252
0.000000 0.671437 0.790252
0.000000 0.671437 0.790252
0.000000 0.671437 0.790252
0.000000 0.671437 0.790252
0.000000 0.671437 0.790252
0.620554 0.926355 0.923375
0.971190 0.980698 0.954122
0.994068 0.984192 0.956731
