transforms/AB03_warm_fpe_r709.cube
#  AB_03_FPE_r709.cube
LUT_3D_SIZE 33
0.000000 0.000000 0.000000
0.000727 0.000692 0.000515
0.002708 0.002238 0.001609
0.006613 0.004883 0.003373
0.012820 0.009137 0.005580
0.021816 0.015287 0.008290
0.036171 0.024876 0.011776
0.056374 0.038009 0.015337
0.083771 0.053178 0.017228
0.107262 0.056358 0.009916
0.131903 0.058963 0.000000
0.160964 0.061281 0.000000
0.188157 0.062857 0.000000
0.221771 0.068438 0.000000
0.251782 0.073188 0.000000
0.286779 0.071027 0.000000
0.324267 0.065385 0.000000
0.353650 0.057899 0.000000
0.382966 0.043084 0.000000
0.413354 0.000000 0.000000
0.436762 0.000000 0.000000
0.456675 0.000000 0.000000
0.475614 0.000000 0.000000
0.488765 0.000000 0.000000
0.502948 0.000000 0.000000
0.521012 0.000000 0.000000
0.537698 0.000000 0.000000
0.550576 0.000000 0.000000
0.563373 0.000000 0.000000
0.574114 0.000000 0.000000
0.581476 0.000000 0.000000
0.588330 0.000000 0.000000
0.594989 0.000000 0.000000
0.000886 0.001084 0.000763
0.000980 0.001120 0.000762
0.002530 0.002503 0.001638
0.006369 0.005502 0.003469
0.012801 0.010412 0.005897
0.021668 0.017173 0.008813
0.036623 0.027888 0.012692
0.058233 0.041685 0.016693
0.087033 0.056321 0.018811
0.110756 0.059458 0.013370
0.137203 0.062388 0.000000
0.167275 0.065323 0.000000
0.197393 0.068518 0.000000
0.230648 0.073744 0.000000
0.263092 0.078846 0.000000
0.301096 0.076199 0.000000
0.337655 0.070935 0.000000
0.369283 0.061034 0.000000
0.398745 0.045045 0.000000
0.427173 0.000000 0.000000
0.446938 0.000000 0.000000
0.465782 0.000000 0.000000
0.485310 0.000000 0.000000
0.496515 0.000000 0.000000
0.504573 0.000000 0.000000
0.521012 0.000000 0.000000
0.537698 0.000000 0.000000
0.550576 0.000000 0.000000
0.563373 0.000000 0.000000
0.574114 0.000000 0.000000
0.581476 0.000000 0.000000
0.588330 0.000000 0.000000
0.594989 0.000000 0.000000
0.002320 0.003344 0.002190
0.002570 0.003490 0.002221
0.003125 0.003647 0.002235
0.006074 0.006007 0.003527
0.012446 0.011406 0.006142
0.021436 0.019176 0.009404
0.036434 0.030356 0.013583
0.059228 0.044624 0.018013
0.089760 0.059568 0.020926
0.114991 0.062638 0.016645
0.142886 0.066101 0.000000
0.174185 0.069833 0.000000
0.205821 0.073919 0.000000
0.241510 0.079586 0.000000
0.275147 0.084102 0.000000
0.313024 0.082081 0.000000
0.351934 0.078060 0.000000
0.384129 0.068612 0.000000
0.416127 0.053155 0.000000
0.444261 0.019071 0.000000
0.462778 0.000000 0.000000
0.478437 0.000000 0.000000
0.494063 0.000000 0.000000
0.503769 0.000000 0.000000
0.512342 0.000000 0.000000
0.521012 0.000000 0.000000
0.537698 0.000000 0.000000
0.550576 0.000000 0.000000
0.563373 0.000000 0.000000
0.574114 0.000000 0.000000
0.581476 0.000000 0.000000
0.588330 0.000000 0.000000
0.594989 0.000000 0.000000
0.004136 0.007308 0.004417
0.004556 0.007507 0.004456
0.005409 0.007770 0.004492
0.007181 0.008303 0.004589
0.012064 0.012395 0.006510
0.021004 0.020739 0.010331
0.036134 0.032919 0.015387
0.060021 0.048293 0.020723
0.092468 0.064726 0.024446
0.118741 0.069003 0.020398
0.147516 0.073045 0.007311
0.180846 0.078151 0.000000
0.215191 0.082860 0.000000
0.251416 0.088643 0.000000
0.288222 0.092583 0.000000
0.327932 0.090433 0.000000
0.365930 0.086602 0.000000
0.401820 0.076842 0.000000
0.433588 0.064286 0.000000
0.461123 0.042902 0.000000
0.478822 0.000000 0.000000
0.495665 0.000000 0.000000
0.507607 0.000000 0.000000
0.512642 0.000000 0.000000
0.519671 0.000000 0.000000
0.527696 0.000000 0.000000
0.537698 0.000000 0.000000
0.550576 0.000000 0.000000
0.563373 0.000000 0.000000
0.574114 0.000000 0.000000
0.581476 0.000000 0.000000
0.588330 0.000000 0.000000
0.594989 0.000000 0.000000
0.005314 0.013457 0.007920
0.006012 0.013919 0.008041
0.007291 0.014240 0.008034
0.010532 0.014978 0.008117
0.013510 0.015730 0.008151
0.019980 0.021805 0.011053
0.035684 0.034902 0.016982
0.060789 0.051827 0.023586
0.094452 0.070025 0.028069
0.122628 0.075842 0.023601
0.153461 0.081148 0.013218
0.187434 0.087505 0.000000
0.223353 0.092967 0.000000
0.262101 0.098616 0.000000
0.301508 0.102771 0.000000
0.341745 0.100661 0.000000
0.382018 0.097345 0.000000
0.418223 0.089057 0.000000
0.449361 0.076245 0.000000
0.478746 0.055907 0.000000
0.496549 0.004472 0.000000
0.513436 0.000000 0.000000
0.523435 0.000000 0.000000
0.527373 0.000000 0.000000
0.528646 0.000000 0.000000
0.536361 0.000000 0.000000
0.538878 0.000000 0.000000
0.550576 0.000000 0.000000
0.563373 0.000000 0.000000
0.574114 0.000000 0.000000
0.581476 0.000000 0.000000
0.588330 0.000000 0.000000
0.594989 0.000000 0.000000
0.003946 0.021904 0.012669
0.005467 0.022641 0.012885
0.008188 0.023140 0.012938
0.013674 0.023949 0.012881
0.018922 0.025055 0.012949
0.022056 0.026440 0.013496
0.034665 0.036535 0.018306
0.061307 0.054921 0.025601
0.096475 0.076240 0.031039
0.125555 0.083698 0.026614
0.158710 0.090767 0.016077
0.194446 0.097950 0.000000
0.231325 0.103689 0.000000
0.273123 0.109306 0.000000
0.314332 0.112455 0.000000
0.357482 0.111240 0.000000
0.396553 0.107855 0.000000
0.435082 0.100078 0.000000
0.469469 0.089468 0.000000
0.497509 0.073102 0.000000
0.515419 0.047614 0.000000
0.532368 0.000000 0.000000
0.538111 0.000000 0.000000
0.541294 0.000000 0.000000
0.541001 0.000000 0.000000
0.544033 0.000000 0.000000
0.545303 0.000000 0.000000
0.550576 0.000000 0.000000
0.563373 0.000000 0.000000
0.574114 0.000000 0.000000
0.581476 0.000000 0.000000
0.588330 0.000000 0.000000
0.594989 0.000000 0.000000
0.000000 0.034036 0.019222
0.000000 0.034803 0.019579
0.000000 0.035876 0.019953
0.015025 0.037303 0.020186
0.024226 0.038821 0.020338
0.029058 0.040634 0.020964
0.035512 0.043399 0.021713
0.060864 0.061417 0.027891
0.098658 0.086204 0.034061
0.129341 0.096976 0.029846
0.163400 0.104772 0.018364
0.201861 0.113714 0.000000
0.240962 0.120426 0.000000
0.285999 0.126617 0.000000
0.331165 0.130255 0.000000
0.375964 0.130074 0.000000
0.418568 0.127646 0.000000
0.459178 0.120160 0.000000
0.494419 0.110033 0.000000
0.520677 0.092999 0.000000
0.538881 0.075769 0.000000
0.556022 0.044022 0.000000
0.560943 0.000000 0.000000
0.561778 0.000000 0.000000
0.558564 0.000000 0.000000
0.555677 0.000000 0.000000
0.553915 0.000000 0.000000
0.552377 0.000000 0.000000
0.563373 0.000000 0.000000
0.574114 0.000000 0.000000
0.581476 0.000000 0.000000
0.588330 0.000000 0.000000
0.594989 0.000000 0.000000
0.000000 0.049974 0.028007
0.000000 0.050854 0.028815
0.000000 0.052071 0.029254
0.000000 0.053821 0.029617
0.025535 0.055968 0.030055
0.035459 0.059276 0.030806
0.044167 0.063526 0.031727
0.061614 0.069746 0.031010
0.099788 0.095755 0.036757
0.132226 0.107689 0.032254
0.168989 0.119097 0.020005
0.208910 0.128992 0.000000
0.252215 0.138316 0.000000
0.298847 0.143931 0.000000
0.345967 0.147352 0.000000
0.394329 0.148842 0.000000
0.438665 0.148353 0.000000
0.481729 0.143145 0.000000
0.518664 0.137166 0.000000
0.544978 0.126413 0.000000
0.567345 0.112884 0.000000
0.584988 0.093604 0.000000
0.592105 0.060523 0.000000
0.593862 0.000000 0.000000
0.587579 0.000000 0.000000
0.577915 0.000000 0.000000
0.568438 0.000000 0.000000
0.562496 0.000000 0.000000
0.563373 0.000000 0.000000
0.574114 0.000000 0.000000
0.581476 0.000000 0.000000
0.588330 0.000000 0.000000
0.594989 0.000000 0.000000
0.000000 0.069859 0.039175
0.000000 0.071498 0.040539
0.000000 0.073078 0.041415
0.000000 0.074723 0.041796
0.006385 0.077413 0.042413
0.039483 0.081612 0.042905
0.051593 0.088359 0.042981
0.075046 0.096558 0.041311
0.100372 0.106170 0.038454
0.133890 0.119967 0.033269
0.172301 0.134964 0.017772
0.214483 0.147089 0.000000
0.261892 0.157388 0.000000
0.311472 0.167286 0.000000
0.361872 0.171812 0.000000
0.411504 0.173997 0.000000
0.458513 0.173994 0.000000
0.501495 0.170602 0.000000
0.541405 0.165062 0.000000
0.568852 0.157409 0.000000
0.593352 0.146688 0.000000
0.612028 0.134892 0.000000
0.621940 0.118717 0.000000
0.630093 0.093133 0.000000
0.628197 0.027433 0.000000
0.615772 0.000000 0.000000
0.597349 0.000000 0.000000
0.581358 0.000000 0.000000
0.571484 0.000000 0.000000
0.574114 0.000000 0.000000
0.581476 0.000000 0.000000
0.588330 0.000000 0.000000
0.594989 0.000000 0.000000
0.000000 0.082340 0.044884
0.000000 0.084241 0.045802
0.000000 0.085081 0.046017
0.000000 0.086340 0.045970
0.000000 0.088994 0.046240
0.000000 0.092719 0.046354
0.040720 0.100795 0.045655
0.070683 0.109788 0.043713
0.097410 0.119215 0.040641
0.134238 0.132591 0.034073
0.174866 0.148396 0.015110
0.221046 0.164876 0.000000
0.270384 0.176966 0.000000
0.321287 0.188126 0.000000
0.375913 0.196197 0.000000
0.426916 0.199455 0.000000
0.477250 0.201531 0.000000
0.524206 0.202225 0.000000
0.563779 0.198006 0.000000
0.593092 0.191804 0.000000
0.618329 0.185169 0.000000
0.637575 0.175319 0.000000
0.650170 0.163147 0.000000
0.661988 0.146515 0.000000
0.662643 0.122601 0.000000
0.661294 0.088265 0.000000
0.649704 0.000000 0.000000
0.617865 0.000000 0.000000
0.591117 0.000000 0.000000
0.575539 0.000000 0.000000
0.581476 0.000000 0.000000
0.588330 0.000000 0.000000
0.594989 0.000000 0.000000
0.000000 0.093410 0.048081
0.000000 0.094897 0.048737
0.000000 0.096895 0.049498
0.000000 0.097688 0.049405
0.000000 0.099543 0.049633
0.000000 0.102911 0.049806
0.000000 0.111222 0.049150
0.062215 0.122557 0.046185
0.095612 0.132904 0.042487
0.133047 0.145608 0.035344
0.177857 0.162379 0.000000
0.225751 0.181548 0.000000
0.278369 0.200277 0.000000
0.332722 0.213235 0.000000
0.389406 0.223815 0.000000
0.444698 0.230321 0.000000
0.497474 0.235307 0.000000
0.546183 0.237883 0.000000
0.587669 0.235562 0.000000
0.617779 0.230565 0.000000
0.644750 0.223787 0.000000
0.663858 0.216134 0.000000
0.678606 0.206426 0.000000
0.690549 0.195578 0.000000
0.695684 0.181295 0.000000
0.697060 0.160579 0.000000
0.692689 0.128172 0.000000
0.677122 0.064921 0.000000
0.638234 0.000000 0.000000
0.596204 0.000000 0.000000
0.581476 0.000000 0.000000
0.588330 0.000000 0.000000
0.594989 0.000000 0.000000
0.000000 0.104154 0.051124
0.000000 0.106125 0.051698
0.000000 0.107730 0.052621
0.000000 0.109107 0.052909
0.000000 0.111456 0.052854
0.000000 0.114649 0.052430
0.000000 0.120750 0.051465
0.012844 0.134049 0.047749
0.088452 0.147421 0.041319
0.133052 0.163139 0.028715
0.175542 0.178738 0.000000
0.227322 0.199609 0.000000
0.282510 0.219890 0.000000
0.340150 0.237480 0.000000
0.401171 0.251676 0.000000
0.460800 0.261999 0.000000
0.513424 0.269039 0.000000
0.565401 0.273108 0.000000
0.608747 0.274420 0.000000
0.641049 0.271797 0.000000
0.668937 0.267415 0.000000
0.689208 0.263775 0.000000
0.704811 0.255938 0.000000
0.718208 0.247944 0.000000
0.725341 0.234729 0.000000
0.729698 0.218011 0.000000
0.728657 0.199225 0.000000
0.720017 0.169696 0.000000
0.703144 0.117373 0.000000
0.664950 0.000000 0.000000
0.603451 0.000000 0.000000
0.588330 0.000000 0.000000
0.594989 0.000000 0.000000
0.000000 0.116327 0.054152
0.000000 0.118308 0.054462
0.000000 0.120357 0.054565
0.000000 0.123070 0.054973
0.000000 0.125606 0.054992
0.000000 0.128119 0.054556
0.000000 0.133004 0.052304
0.000000 0.143577 0.048515
0.062568 0.159548 0.040737
0.124947 0.178355 0.021343
0.174008 0.196849 0.000000
0.224119 0.214917 0.000000
0.286001 0.238548 0.000000
0.348495 0.262313 0.000000
0.410132 0.279637 0.000000
0.473452 0.293610 0.000000
0.529963 0.305021 0.000000
0.584982 0.311495 0.000000
0.630845 0.316125 0.000000
0.663821 0.316551 0.000000
0.693767 0.313665 0.000000
0.713139 0.311236 0.000000
0.731568 0.305707 0.000000
0.743604 0.296802 0.000000
0.752628 0.288121 0.000000
0.761466 0.278232 0.000000
0.761255 0.262327 0.000000
0.757045 0.240325 0.000000
0.747995 0.209640 0.000000
0.728517 0.161031 0.000000
0.688115 0.000000 0.000000
0.608438 0.000000 0.000000
0.594989 0.000000 0.000000
0.000000 0.128919 0.056248
0.000000 0.130827 0.056570
0.000000 0.132862 0.056674
0.000000 0.135622 0.056767
0.000000 0.137851 0.056920
0.000000 0.141102 0.056625
0.000000 0.144339 0.055461
0.000000 0.150370 0.050480
0.000000 0.166814 0.042881
0.096896 0.190110 0.018721
0.162699 0.214839 0.000000
0.224651 0.238060 0.000000
0.282492 0.258603 0.000000
0.350346 0.285016 0.000000
0.420613 0.309604 0.000000
0.483778 0.325917 0.000000
0.545393 0.340389 0.000000
0.601187 0.351750 0.000000
0.649183 0.357415 0.000000
0.685067 0.360433 0.000000
0.716547 0.361630 0.000000
0.736241 0.358225 0.000000
0.756228 0.357798 0.000000
0.769896 0.352733 0.000000
0.779978 0.344445 0.000000
0.790716 0.337524 0.000000
0.792189 0.325509 0.000000
0.791309 0.308090 0.000000
0.786116 0.285825 0.000000
0.774623 0.255997 0.000000
0.753412 0.206428 0.000000
0.710023 0.099351 0.000000
0.608603 0.000000 0.000000
0.000000 0.141668 0.058274
0.000000 0.142940 0.058463
0.000000 0.144849 0.058746
0.000000 0.146892 0.059166
0.000000 0.149577 0.059058
0.000000 0.153231 0.059680
0.000000 0.157251 0.060487
0.000000 0.164797 0.061132
0.000000 0.174379 0.051788
0.000000 0.198300 0.024804
0.130785 0.230496 0.000000
0.210403 0.259068 0.000000
0.278472 0.283829 0.000000
0.345988 0.305298 0.000000
0.421257 0.333228 0.000000
0.490988 0.356602 0.000000
0.556384 0.374796 0.000000
0.614695 0.387718 0.000000
0.665837 0.400561 0.000000
0.704196 0.404923 0.000000
0.737363 0.408391 0.000000
0.759514 0.409733 0.000000
0.780964 0.409685 0.000000
0.795081 0.406068 0.000000
0.805957 0.400480 0.000000
0.816953 0.395370 0.000000
0.820258 0.388832 0.000000
0.821888 0.377392 0.000000
0.820021 0.360279 0.000000
0.812536 0.336538 0.000000
0.799868 0.302419 0.000000
0.776563 0.249782 0.000000
0.732086 0.148738 0.000000
0.000000 0.157999 0.062555
0.000000 0.157999 0.062555
0.000000 0.157999 0.062555
0.000000 0.159807 0.063263
0.000000 0.162585 0.064442
0.000000 0.165369 0.065622
0.000000 0.170254 0.066915
0.000000 0.176312 0.068142
0.000000 0.186110 0.069249
0.000000 0.198995 0.051012
0.000000 0.230858 0.000000
0.169834 0.271532 0.000000
0.263920 0.305427 0.000000
0.340975 0.329714 0.000000
0.414138 0.354849 0.000000
0.492001 0.383872 0.000000
0.562652 0.409189 0.000000
0.628568 0.425750 0.000000
0.680267 0.439641 0.000000
0.721679 0.448309 0.000000
0.755645 0.454138 0.000000
0.780172 0.457693 0.000000
0.803076 0.458122 0.000000
0.817579 0.458024 0.000000
0.829451 0.455954 0.000000
0.841019 0.454114 0.000000
0.845155 0.448570 0.000000
0.848629 0.441327 0.000000
0.850225 0.432171 0.000000
0.845389 0.412318 0.000000
0.838207 0.388800 0.000000
0.825709 0.355219 0.000000
0.801342 0.297354 0.000000
0.000000 0.178639 0.070504
0.000000 0.178639 0.070504
0.000000 0.178639 0.070504
0.000000 0.178639 0.070504
0.000000 0.178639 0.070504
0.000000 0.178639 0.070504
0.000000 0.182288 0.071935
0.000000 0.187125 0.073700
0.000000 0.197483 0.076267
0.000000 0.210752 0.077310
0.000000 0.229193 0.039427
0.105024 0.282499 0.000000
0.244291 0.328742 0.000000
0.337111 0.359070 0.000000
0.415475 0.383873 0.000000
0.492063 0.409501 0.000000
0.570085 0.437150 0.000000
0.638940 0.460466 0.000000
0.694840 0.475695 0.000000
0.738400 0.489719 0.000000
0.773662 0.497967 0.000000
0.798995 0.502062 0.000000
0.822805 0.505955 0.000000
0.838111 0.507838 0.000000
0.851032 0.507803 0.000000
0.862304 0.507868 0.000000
0.867798 0.505729 0.000000
0.872993 0.502040 0.000000
0.875377 0.496211 0.000000
0.873946 0.484877 0.000000
0.870566 0.468501 0.000000
0.864253 0.446633 0.000000
0.850021 0.408096 0.000000
0.000000 0.198611 0.078174
0.000000 0.198611 0.078174
0.000000 0.198611 0.078174
0.000000 0.198611 0.078174
0.000000 0.198611 0.078174
0.000000 0.198611 0.078174
0.000000 0.198611 0.078174
0.000000 0.198611 0.078174
0.000000 0.206042 0.081213
0.000000 0.222208 0.086800
0.000000 0.244763 0.089978
0.000000 0.271888 0.000000
0.183983 0.338646 0.000000
0.321572 0.384577 0.000000
0.414410 0.414127 0.000000
0.491224 0.435807 0.000000
0.573221 0.463757 0.000000
0.647913 0.491642 0.000000
0.706374 0.511945 0.000000
0.751695 0.526533 0.000000
0.787686 0.535435 0.000000
0.815820 0.544885 0.000000
0.839853 0.547762 0.000000
0.854930 0.552706 0.000000
0.868908 0.554541 0.000000
0.879630 0.554566 0.000000
0.886260 0.554201 0.000000
0.892893 0.553807 0.000000
0.896017 0.551232 0.000000
0.896307 0.543766 0.000000
0.896495 0.536287 0.000000
0.893479 0.522207 0.000000
0.886242 0.499895 0.000000
0.000000 0.221372 0.087758
0.000000 0.221372 0.087758
0.000000 0.221372 0.087758
0.000000 0.221372 0.087758
0.000000 0.221372 0.087758
0.000000 0.221372 0.087758
0.000000 0.221372 0.087758
0.000000 0.221372 0.087758
0.000000 0.221372 0.087758
0.000000 0.227252 0.090553
0.000000 0.247608 0.099090
0.000000 0.277383 0.097023
0.000000 0.324578 0.000000
0.271400 0.398276 0.000000
0.403485 0.440221 0.000000
0.495475 0.466773 0.000000
0.573034 0.487829 0.000000
0.650936 0.517068 0.000000
0.712102 0.539707 0.000000
0.761833 0.558032 0.000000
0.801613 0.570742 0.000000
0.829266 0.581737 0.000000
0.854318 0.587999 0.000000
0.869247 0.591600 0.000000
0.884787 0.596743 0.000000
0.896701 0.601430 0.000000
0.903449 0.600991 0.000000
0.911078 0.602201 0.000000
0.913883 0.600765 0.000000
0.915582 0.597786 0.000000
0.916263 0.591816 0.000000
0.914792 0.582562 0.000000
0.911746 0.570028 0.000000
0.000000 0.245468 0.099545
0.000000 0.245468 0.099545
0.000000 0.245468 0.099545
0.000000 0.245468 0.099545
0.000000 0.245468 0.099545
0.000000 0.245468 0.099545
0.000000 0.245468 0.099545
0.000000 0.245358 0.099438
0.000000 0.245358 0.099438
0.000000 0.245358 0.099438
0.000000 0.246632 0.100076
0.000000 0.273666 0.111160
0.000000 0.307651 0.096978
0.147257 0.389104 0.000000
0.359128 0.454203 0.000000
0.486915 0.492799 0.000000
0.576628 0.518824 0.000000
0.648747 0.539355 0.000000
0.718487 0.565883 0.000000
0.770657 0.586692 0.000000
0.811187 0.599863 0.000000
0.839757 0.611297 0.000000
0.866902 0.620074 0.000000
0.882344 0.624966 0.000000
0.897797 0.629859 0.000000
0.909003 0.635251 0.000000
0.917064 0.639027 0.000000
0.924438 0.639266 0.000000
0.928348 0.640652 0.000000
0.930739 0.639517 0.000000
0.932659 0.637184 0.000000
0.932275 0.632175 0.000000
0.931395 0.626035 0.000000
0.000000 0.268531 0.110393
0.000000 0.268531 0.110393
0.000000 0.268531 0.110393
0.000000 0.268531 0.110393
0.000000 0.268531 0.110393
0.000000 0.268531 0.110393
0.000000 0.268531 0.110393
0.000000 0.268531 0.110393
0.000000 0.268412 0.110333
0.000000 0.268412 0.110333
0.000000 0.267249 0.109749
0.000000 0.268412 0.110333
0.000000 0.295932 0.119146
0.000000 0.335613 0.035046
0.262022 0.451175 0.000000
0.450306 0.509974 0.000000
0.573411 0.544367 0.000000
0.649190 0.565821 0.000000
0.720723 0.588406 0.000000
0.773915 0.608629 0.000000
0.818067 0.626099 0.000000
0.848422 0.636443 0.000000
0.876292 0.646356 0.000000
0.893121 0.655043 0.000000
0.909655 0.661370 0.000000
0.920677 0.666738 0.000000
0.928440 0.670387 0.000000
0.936384 0.672990 0.000000
0.940125 0.674110 0.000000
0.943222 0.673989 0.000000
0.946061 0.673892 0.000000
0.946528 0.671231 0.000000
0.946500 0.667408 0.000000
0.000000 0.293593 0.119878
0.000000 0.293593 0.119878
0.000000 0.293593 0.119878
0.000000 0.292331 0.119558
0.000000 0.292331 0.119558
0.000000 0.292331 0.119558
0.000000 0.292331 0.119558
0.000000 0.292331 0.119558
0.000000 0.292210 0.119495
0.000000 0.292210 0.119495
0.000000 0.292210 0.119495
0.000000 0.292210 0.119495
0.000000 0.292210 0.119495
0.000000 0.322008 0.125096
0.000000 0.379126 0.000000
0.371046 0.508752 0.000000
0.539986 0.559689 0.000000
0.646919 0.589694 0.000000
0.722493 0.609989 0.000000
0.774834 0.627799 0.000000
0.822818 0.645986 0.000000
0.855605 0.660204 0.000000
0.885135 0.671417 0.000000
0.903025 0.681536 0.000000
0.919424 0.688766 0.000000
0.930525 0.693437 0.000000
0.938854 0.697583 0.000000
0.946420 0.701549 0.000000
0.950310 0.702757 0.000000
0.953974 0.704714 0.000000
0.956938 0.703946 0.000000
0.958226 0.703822 0.000000
0.958980 0.702095 0.000000
0.000000 0.315897 0.125176
0.000000 0.315897 0.125176
0.000000 0.315897 0.125176
0.000000 0.315897 0.125176
0.000000 0.315897 0.125176
0.000000 0.315897 0.125176
0.000000 0.315897 0.125176
0.000000 0.315897 0.125176
0.000000 0.315897 0.125176
0.000000 0.315897 0.125176
0.000000 0.314628 0.124868
0.000000 0.315897 0.125176
0.000000 0.315897 0.125176
0.000000 0.315776 0.125105
0.000000 0.341807 0.129647
0.000000 0.439849 0.000000
0.462007 0.560002 0.000000
0.626358 0.607228 0.000000
0.720269 0.632847 0.000000
0.772848 0.646461 0.000000
0.826881 0.667054 0.000000
0.859231 0.678675 0.000000
0.891117 0.690376 0.000000
0.907875 0.698348 0.000000
0.925894 0.708099 0.000000
0.938269 0.714512 0.000000
0.946312 0.717651 0.000000
0.954389 0.722370 0.000000
0.958438 0.724603 0.000000
0.961652 0.725811 0.000000
0.965240 0.727845 0.000000
0.966969 0.728409 0.000000
0.968086 0.727241 0.000000
0.000000 0.337728 0.130308
0.000000 0.337728 0.130308
0.000000 0.337728 0.130308
0.000000 0.337728 0.130308
0.000000 0.337728 0.130308
0.000000 0.337728 0.130308
0.000000 0.337728 0.130308
0.000000 0.337606 0.130224
0.000000 0.337728 0.130308
0.000000 0.337606 0.130224
0.000000 0.337606 0.130224
0.000000 0.337606 0.130224
0.000000 0.337606 0.130224
0.000000 0.337606 0.130224
0.000000 0.337484 0.130138
0.000000 0.360873 0.133793
0.208865 0.503839 0.000000
0.560640 0.611885 0.000000
0.702702 0.649638 0.000000
0.771573 0.666169 0.000000
0.822336 0.678748 0.000000
0.861814 0.693578 0.000000
0.894545 0.707355 0.000000
0.914455 0.717355 0.000000
0.932518 0.725107 0.000000
0.945000 0.732096 0.000000
0.953731 0.737664 0.000000
0.961515 0.741405 0.000000
0.965632 0.744731 0.000000
0.969807 0.748754 0.000000
0.972859 0.750014 0.000000
0.974746 0.750287 0.000000
0.976319 0.749750 0.000000
0.000000 0.359357 0.135113
0.000000 0.359357 0.135113
0.000000 0.359357 0.135113
0.000000 0.359357 0.135113
0.000000 0.359357 0.135113
0.000000 0.359357 0.135113
0.000000 0.359357 0.135113
0.000000 0.359357 0.135113
0.000000 0.359357 0.135113
0.000000 0.359357 0.135113
0.000000 0.359357 0.135113
0.000000 0.359357 0.135113
0.000000 0.359357 0.135113
0.000000 0.359357 0.135113
0.000000 0.359357 0.135113
0.000000 0.359357 0.135113
0.000000 0.373330 0.132996
0.347742 0.564121 0.000000
0.644845 0.652565 0.000000
0.765686 0.682875 0.000000
0.823508 0.696581 0.000000
0.861587 0.707918 0.000000
0.896954 0.722452 0.000000
0.918887 0.733348 0.000000
0.937321 0.741851 0.000000
0.950214 0.747977 0.000000
0.959093 0.752974 0.000000
0.967210 0.756746 0.000000
0.971376 0.760085 0.000000
0.974995 0.762654 0.000000
0.978200 0.764964 0.000000
0.980090 0.765237 0.000000
0.981774 0.764929 0.000000
0.000000 0.374680 0.133827
0.000000 0.374680 0.133827
0.000000 0.374680 0.133827
0.000000 0.374680 0.133827
0.000000 0.374680 0.133827
0.000000 0.374680 0.133827
0.000000 0.374680 0.133827
0.000000 0.374680 0.133827
0.000000 0.374680 0.133827
0.000000 0.374680 0.133827
0.000000 0.374680 0.133827
0.000000 0.374680 0.133827
0.000000 0.374680 0.133827
0.000000 0.374680 0.133827
0.000000 0.374680 0.133827
0.000000 0.374680 0.133827
0.000000 0.374680 0.133827
0.000000 0.386108 0.132382
0.451380 0.614504 0.000000
0.726830 0.690968 0.000000
0.815816 0.712057 0.000000
0.862012 0.723993 0.000000
0.895029 0.734586 0.000000
0.921318 0.744747 0.000000
0.940430 0.752792 0.000000
0.953894 0.758359 0.000000
0.963255 0.763983 0.000000
0.971517 0.768730 0.000000
0.975787 0.772549 0.000000
0.979286 0.774993 0.000000
0.982524 0.777248 0.000000
0.984928 0.778708 0.000000
0.987127 0.779583 0.000000
0.000000 0.390862 0.132209
0.000000 0.390862 0.132209
0.000000 0.390862 0.132209
0.000000 0.390862 0.132209
0.000000 0.390862 0.132209
0.000000 0.390862 0.132209
0.000000 0.390862 0.132209
0.000000 0.390862 0.132209
0.000000 0.390862 0.132209
0.000000 0.390862 0.132209
0.000000 0.390862 0.132209
0.000000 0.390862 0.132209
0.000000 0.390862 0.132209
0.000000 0.390862 0.132209
0.000000 0.390862 0.132209
0.000000 0.390862 0.132209
0.000000 0.390862 0.132209
0.000000 0.390862 0.132209
0.000000 0.398160 0.131388
0.563166 0.663548 0.000000
0.787067 0.720544 0.000000
0.859474 0.735705 0.000000
0.893718 0.744680 0.000000
0.921299 0.753397 0.000000
0.941617 0.761669 0.000000
0.957731 0.769917 0.000000
0.966499 0.774179 0.000000
0.975379 0.779537 0.000000
0.979709 0.783786 0.000000
