transforms/AB03_warm_fpe_r709.cube
#  AB_03_FPE_r709.cube
LUT_3D_SIZE 5
0.000000 0.000000 0.000000
0.083771 0.053178 0.017228
0.324267 0.065385 0.000000
0.502948 0.000000 0.000000
0.594989 0.000000 0.000000
0.000000 0.069859 0.039175
0.100372 0.106170 0.038454
0.458513 0.173994 0.000000
0.628197 0.027433 0.000000
0.594989 0.000000 0.000000
0.000000 0.178639 0.070504
0.000000 0.197483 0.076267
0.570085 0.437150 0.000000
0.851032 0.507803 0.000000
0.850021 0.408096 0.000000
0.000000 0.359357 0.135113
0.000000 0.359357 0.135113
0.000000 0.373330 0.132996
0.937321 0.741851 0.000000
0.981774 0.764929 0.000000
0.000000 0.458310 0.125893
0.000000 0.458310 0.125893
0.000000 0.458310 0.125893
0.000000 0.458310 0.125893
1.003509 0.821034 0.000000
0.020371 0.026256 0.069624
0.088799 0.053948 0.085168
0.363477 0.059502 0.078846
0.551546 0.000000 0.000000
0.594989 0.000000 0.000000
0.000000 0.083750 0.101527
0.091497 0.116109 0.115068
0.499165 0.176507 0.102714
0.707049 0.114441 0.073316
0.594989 0.000000 0.000000
0.000000 0.238246 0.181216
0.000000 0.265536 0.187162
0.617263 0.497137 0.000000
0.905892 0.560147 0.000000
0.850021 0.408096 0.000000
0.000000 0.413640 0.181366
0.000000 0.413393 0.180904
0.000000 0.427062 0.174643
0.965053 0.767500 0.000000
0.981982 0.765513 0.000000
0.000000 0.458310 0.125893
0.000000 0.458310 0.125893
0.000000 0.458310 0.125893
0.000000 0.458310 0.125893
1.003509 0.821034 0.000000
0.000000 0.000000 0.214818
0.109830 0.000000 0.254061
0.387516 0.000000 0.316789
0.588809 0.000000 0.327187
0.652749 0.000000 0.276781
0.000000 0.104775 0.286551
0.000000 0.101460 0.327287
0.499484 0.153722 0.408329
0.713816 0.000000 0.418065
0.652749 0.000000 0.276781
0.000000 0.325152 0.416455
0.000000 0.369455 0.451882
0.591967 0.570338 0.511513
0.896095 0.579406 0.510954
0.913185 0.525704 0.500632
0.000000 0.555764 0.558193
0.000000 0.555764 0.558193
0.000000 0.588874 0.583396
0.962878 0.869384 0.539276
1.005844 0.876038 0.537385
0.000000 0.634194 0.563275
0.000000 0.634194 0.563275
0.000000 0.634194 0.563275
0.000000 0.631983 0.555897
1.018529 0.907081 0.420727
0.163858 0.000000 0.450247
0.243309 0.000000 0.480594
0.494455 0.000000 0.525307
0.645167 0.000000 0.541595
0.679027 0.000000 0.541962
0.055514 0.083729 0.517169
0.200762 0.114179 0.550762
0.550156 0.134714 0.614556
0.735395 0.000000 0.642036
0.679027 0.000000 0.541962
0.000000 0.448092 0.645437
0.000000 0.457607 0.669630
0.588920 0.591244 0.757877
0.896083 0.627497 0.799800
0.912156 0.545388 0.773793
0.000000 0.580239 0.691038
0.000000 0.580239 0.691038
0.000000 0.672217 0.758699
0.942803 0.915108 0.847513
0.990253 0.914331 0.850393
0.000000 0.671070 0.750621
0.000000 0.671070 0.750621
0.000000 0.671070 0.750621
0.000000 0.673688 0.753609
0.998525 0.973977 0.867953
0.540229 0.196015 0.723275
0.605680 0.188363 0.731568
0.692240 0.165299 0.740849
0.779588 0.095690 0.749150
0.710570 0.000000 0.639387
0.537898 0.302329 0.761172
0.614828 0.308461 0.772842
0.714215 0.307689 0.785230
0.818159 0.286307 0.796087
0.761811 0.000000 0.702701
0.578910 0.601719 0.850947
0.654241 0.615068 0.861253
0.752386 0.632396 0.873857
0.906529 0.660834 0.895473
0.918155 0.579169 0.887802
0.000000 0.776892 0.858985
0.295417 0.825591 0.884585
0.696867 0.883472 0.916260
0.942550 0.922565 0.940424
0.986332 0.929638 0.944878
0.000000 0.671437 0.790252
0.000000 0.671437 0.790252
0.000000 0.671437 0.790252
0.620554 0.926355 0.923375
0.994068 0.984192 0.956731
