transforms/AB04_warm_d65_r709.cube
#  AB_04_D65_r709.cube
LUT_3D_SIZE 5
0.000000 0.000000 0.000000
0.100310 0.000000 0.000000
0.552377 0.000000 0.000000
0.941849 0.000000 0.000000
1.085644 0.000000 0.000000
0.000000 0.081292 0.000000
0.122449 0.124862 0.000000
0.600845 0.000000 0.000000
0.977510 0.000000 0.000000
1.085643 0.000000 0.000000
0.000000 0.407486 0.000000
0.000000 0.427779 0.000000
0.550826 0.521228 0.000000
0.979689 0.600719 0.000000
1.068135 0.516594 0.000000
0.000000 0.800140 0.000000
0.000000 0.800140 0.000000
0.000000 0.812140 0.000000
0.922630 0.893322 0.000000
1.016524 0.917382 0.000000
0.000000 0.990766 0.000000
0.000000 0.990766 0.000000
0.000000 0.990766 0.000000
0.000000 0.990766 0.000000
0.999498 0.996816 0.000000
0.003344 0.001658 0.080553
0.109113 0.000000 0.077704
0.566545 0.000000 0.079554
0.955069 0.000000 0.000000
1.085644 0.000000 0.000000
0.000000 0.086276 0.091714
0.121273 0.144452 0.139439
0.620669 0.074764 0.122484
0.985470 0.000000 0.098853
1.085643 0.000000 0.000000
0.000000 0.451499 0.000000
0.000000 0.475331 0.000000
0.551143 0.547171 0.000000
0.981491 0.610445 0.000000
1.067995 0.518374 0.000000
0.000000 0.826099 0.000000
0.000000 0.826099 0.000000
0.000000 0.837195 0.000000
0.920668 0.907623 0.000000
1.016524 0.917382 0.000000
0.000000 0.990766 0.000000
0.000000 0.990766 0.000000
0.000000 0.990766 0.000000
0.000000 0.990766 0.000000
0.999498 0.996816 0.000000
0.004442 0.000000 0.394257
0.165697 0.000000 0.409828
0.550611 0.000000 0.433752
0.970005 0.000000 0.531548
1.086973 0.000000 0.500151
0.000000 0.038385 0.421243
0.125246 0.059850 0.428960
0.605414 0.000000 0.486766
0.998362 0.000000 0.572722
1.086973 0.000000 0.500151
0.000000 0.441993 0.453207
0.000000 0.481753 0.475651
0.556865 0.564842 0.514340
0.987283 0.544542 0.505298
1.065835 0.544912 0.548183
0.000000 0.838428 0.526465
0.000000 0.838428 0.526465
0.000000 0.861429 0.537884
0.909507 0.911657 0.495325
1.016524 0.917382 0.491143
0.000000 1.000167 0.421366
0.000000 1.000167 0.421366
0.000000 1.000167 0.421366
0.000000 1.000167 0.407946
0.998279 0.998795 0.380635
0.195457 0.000000 0.715079
0.329310 0.000000 0.720627
0.597290 0.000000 0.728984
0.968939 0.000000 0.849251
1.088038 0.000000 0.875299
0.152982 0.000000 0.733400
0.303059 0.000000 0.740538
0.605832 0.000000 0.747007
0.993846 0.000000 0.878381
1.088038 0.000000 0.875299
0.000000 0.553588 0.835948
0.000000 0.551472 0.837160
0.564339 0.478440 0.833360
0.981689 0.512130 0.869268
1.068135 0.516594 0.872958
0.000000 0.826099 0.821278
0.000000 0.826099 0.821278
0.000000 0.903813 0.864723
0.900758 0.892064 0.833037
1.024876 0.870811 0.811761
0.000000 0.997706 0.845612
0.000000 0.997706 0.845612
0.000000 0.997706 0.845612
0.000000 0.997706 0.845612
0.997791 0.998307 0.804117
0.619520 0.000000 0.951804
0.680156 0.000000 0.952119
0.770826 0.000000 0.952900
1.010467 0.000000 1.003004
1.087860 0.000000 1.019420
0.591387 0.000000 0.953665
0.659385 0.000000 0.953964
0.756031 0.000000 0.953832
1.011470 0.000000 1.004434
1.088126 0.000000 1.023927
0.493494 0.360022 0.953913
0.549212 0.358384 0.954387
0.656659 0.352264 0.954337
0.990555 0.507886 1.002464
1.066859 0.532573 1.018487
0.227942 0.891586 0.992930
0.425775 0.885662 0.994280
0.619126 0.863284 0.997327
0.916796 0.865960 0.997184
1.025274 0.868487 1.000591
0.000000 0.996067 0.985768
0.000000 0.996067 0.985768
0.000000 0.996067 0.985768
0.499583 1.009186 0.993798
0.998130 0.995351 0.976114
