transforms/AB04_warm_d65_r709.cube
#  AB_04_D65_r709.cube
LUT_3D_SIZE 33
0.000000 0.000000 0.000000
0.000967 0.000856 0.000761
0.002856 0.001771 0.001659
0.005924 0.002839 0.002603
0.011107 0.003480 0.003352
0.019944 0.002636 0.003805
0.034873 0.000000 0.002141
0.061927 0.000000 0.000000
0.100310 0.000000 0.000000
0.140342 0.000000 0.000000
0.185285 0.000000 0.000000
0.242189 0.000000 0.000000
0.306081 0.000000 0.000000
0.368715 0.000000 0.000000
0.430885 0.000000 0.000000
0.491450 0.000000 0.000000
0.552377 0.000000 0.000000
0.610960 0.000000 0.000000
0.666732 0.000000 0.000000
0.722935 0.000000 0.000000
0.775595 0.000000 0.000000
0.819740 0.000000 0.000000
0.863024 0.000000 0.000000
0.904772 0.000000 0.000000
0.941849 0.000000 0.000000
0.972132 0.000000 0.000000
1.000301 0.000000 0.000000
1.023398 0.000000 0.000000
1.042644 0.000000 0.000000
1.057992 0.000000 0.000000
1.069873 0.000000 0.000000
1.079544 0.000000 0.000000
1.085644 0.000000 0.000000
0.000515 0.001079 0.000744
0.000872 0.001104 0.000735
0.002618 0.002379 0.001600
0.005682 0.003713 0.002519
0.011025 0.004950 0.003193
0.020238 0.005335 0.003787
0.036601 0.001376 0.001700
0.065265 0.000000 0.000000
0.105004 0.000000 0.000000
0.144908 0.000000 0.000000
0.191616 0.000000 0.000000
0.250477 0.000000 0.000000
0.312252 0.000000 0.000000
0.375166 0.000000 0.000000
0.437544 0.000000 0.000000
0.499942 0.000000 0.000000
0.561223 0.000000 0.000000
0.616089 0.000000 0.000000
0.673486 0.000000 0.000000
0.731113 0.000000 0.000000
0.783388 0.000000 0.000000
0.828842 0.000000 0.000000
0.867299 0.000000 0.000000
0.904768 0.000000 0.000000
0.941847 0.000000 0.000000
0.972131 0.000000 0.000000
1.000300 0.000000 0.000000
1.023397 0.000000 0.000000
1.042643 0.000000 0.000000
1.057991 0.000000 0.000000
1.069873 0.000000 0.000000
1.079544 0.000000 0.000000
1.085644 0.000000 0.000000
0.000000 0.002941 0.001550
0.001479 0.002997 0.001526
0.002461 0.003045 0.001571
0.005407 0.004775 0.002351
0.011100 0.006607 0.003259
0.021541 0.008275 0.003884
0.039100 0.008676 0.000000
0.069774 0.000000 0.000000
0.111059 0.000000 0.000000
0.151768 0.000000 0.000000
0.200502 0.000000 0.000000
0.258855 0.000000 0.000000
0.319980 0.000000 0.000000
0.381623 0.000000 0.000000
0.445877 0.000000 0.000000
0.506739 0.000000 0.000000
0.568302 0.000000 0.000000
0.624609 0.000000 0.000000
0.681779 0.000000 0.000000
0.739029 0.000000 0.000000
0.789426 0.000000 0.000000
0.834523 0.000000 0.000000
0.873002 0.000000 0.000000
0.910048 0.000000 0.000000
0.941844 0.000000 0.000000
0.972130 0.000000 0.000000
1.000299 0.000000 0.000000
1.023396 0.000000 0.000000
1.042643 0.000000 0.000000
1.057991 0.000000 0.000000
1.069873 0.000000 0.000000
1.079544 0.000000 0.000000
1.085644 0.000000 0.000000
0.000000 0.005632 0.002019
0.000000 0.005912 0.002201
0.002990 0.006324 0.002167
0.005099 0.006577 0.002297
0.010966 0.009251 0.002921
0.021984 0.012091 0.003177
0.042699 0.014313 0.000000
0.075001 0.005256 0.000000
0.118104 0.000000 0.000000
0.158628 0.000000 0.000000
0.208116 0.000000 0.000000
0.264682 0.000000 0.000000
0.326160 0.000000 0.000000
0.389699 0.000000 0.000000
0.452541 0.000000 0.000000
0.515297 0.000000 0.000000
0.576797 0.000000 0.000000
0.632995 0.000000 0.000000
0.688326 0.000000 0.000000
0.746937 0.000000 0.000000
0.798481 0.000000 0.000000
0.841618 0.000000 0.000000
0.881003 0.000000 0.000000
0.916646 0.000000 0.000000
0.945441 0.000000 0.000000
0.972128 0.000000 0.000000
1.000298 0.000000 0.000000
1.023395 0.000000 0.000000
1.042642 0.000000 0.000000
1.057991 0.000000 0.000000
1.069872 0.000000 0.000000
1.079544 0.000000 0.000000
1.085644 0.000000 0.000000
0.000000 0.010669 0.001156
0.000000 0.011066 0.001138
0.000000 0.011656 0.000000
0.004360 0.012233 0.000000
0.009574 0.012970 0.000000
0.021279 0.017605 0.000000
0.043826 0.022415 0.000000
0.079986 0.023911 0.000000
0.126002 0.018413 0.000000
0.167678 0.000000 0.000000
0.217202 0.000000 0.000000
0.271933 0.000000 0.000000
0.332314 0.000000 0.000000
0.396141 0.000000 0.000000
0.457519 0.000000 0.000000
0.520543 0.000000 0.000000
0.583579 0.000000 0.000000
0.641370 0.000000 0.000000
0.696510 0.000000 0.000000
0.756420 0.000000 0.000000
0.804496 0.000000 0.000000
0.847275 0.000000 0.000000
0.886252 0.000000 0.000000
0.921424 0.000000 0.000000
0.951438 0.000000 0.000000
0.976394 0.000000 0.000000
1.000296 0.000000 0.000000
1.023394 0.000000 0.000000
1.042641 0.000000 0.000000
1.057990 0.000000 0.000000
1.069872 0.000000 0.000000
1.079544 0.000000 0.000000
1.085644 0.000000 0.000000
0.000000 0.018714 0.000000
0.000000 0.019710 0.000000
0.000000 0.021041 0.000000
0.000000 0.022029 0.000000
0.000985 0.023334 0.000000
0.018202 0.025197 0.000000
0.042086 0.032538 0.000000
0.081180 0.042325 0.000000
0.129227 0.046503 0.000000
0.174230 0.038241 0.000000
0.223682 0.000000 0.000000
0.280504 0.000000 0.000000
0.339935 0.000000 0.000000
0.402516 0.000000 0.000000
0.464167 0.000000 0.000000
0.525741 0.000000 0.000000
0.590315 0.000000 0.000000
0.646339 0.000000 0.000000
0.703011 0.000000 0.000000
0.762689 0.000000 0.000000
0.810462 0.000000 0.000000
0.854318 0.000000 0.000000
0.892798 0.000000 0.000000
0.927391 0.000000 0.000000
0.956097 0.000000 0.000000
0.980657 0.000000 0.000000
1.001217 0.000000 0.000000
1.023392 0.000000 0.000000
1.042640 0.000000 0.000000
1.057990 0.000000 0.000000
1.069872 0.000000 0.000000
1.079544 0.000000 0.000000
1.085644 0.000000 0.000000
0.000000 0.031410 0.000000
0.000000 0.032657 0.000000
0.000000 0.034321 0.000000
0.000000 0.036745 0.000000
0.000000 0.039764 0.000000
0.007002 0.044237 0.000000
0.038925 0.047409 0.000000
0.079865 0.060647 0.000000
0.132157 0.077162 0.000000
0.180334 0.073480 0.000000
0.236344 0.065577 0.000000
0.293089 0.037172 0.000000
0.350329 0.000000 0.000000
0.408726 0.000000 0.000000
0.470660 0.000000 0.000000
0.530796 0.000000 0.000000
0.593498 0.000000 0.000000
0.651174 0.000000 0.000000
0.709366 0.000000 0.000000
0.768801 0.000000 0.000000
0.817825 0.000000 0.000000
0.861254 0.000000 0.000000
0.899230 0.000000 0.000000
0.932091 0.000000 0.000000
0.961393 0.000000 0.000000
0.985983 0.000000 0.000000
1.004903 0.000000 0.000000
1.023391 0.000000 0.000000
1.042638 0.000000 0.000000
1.057989 0.000000 0.000000
1.069872 0.000000 0.000000
1.079544 0.000000 0.000000
1.085644 0.000000 0.000000
0.000000 0.050033 0.000000
0.000000 0.051844 0.000000
0.000000 0.054874 0.000000
0.000000 0.058525 0.000000
0.000000 0.062481 0.000000
0.000000 0.068147 0.000000
0.036596 0.076396 0.000000
0.075214 0.080667 0.000000
0.127873 0.102069 0.000000
0.181162 0.109974 0.000000
0.239668 0.108074 0.000000
0.298860 0.096763 0.000000
0.355547 0.075955 0.000000
0.414548 0.033066 0.000000
0.475122 0.000000 0.000000
0.535617 0.000000 0.000000
0.596517 0.000000 0.000000
0.655838 0.000000 0.000000
0.717174 0.000000 0.000000
0.777885 0.000000 0.000000
0.824885 0.000000 0.000000
0.869266 0.000000 0.000000
0.909312 0.000000 0.000000
0.940129 0.000000 0.000000
0.968651 0.000000 0.000000
0.992837 0.000000 0.000000
1.011350 0.000000 0.000000
1.025691 0.000000 0.000000
1.042636 0.000000 0.000000
1.057988 0.000000 0.000000
1.069871 0.000000 0.000000
1.079543 0.000000 0.000000
1.085643 0.000000 0.000000
0.000000 0.081292 0.000000
0.000000 0.082951 0.000000
0.000000 0.086276 0.000000
0.000000 0.088777 0.000000
0.000000 0.092118 0.000000
0.000000 0.098193 0.000000
0.000000 0.109426 0.000000
0.080161 0.119160 0.000000
0.122449 0.124862 0.000000
0.176536 0.135780 0.000000
0.237722 0.145723 0.000000
0.299159 0.141836 0.000000
0.358207 0.132441 0.000000
0.417843 0.116872 0.000000
0.477202 0.094899 0.000000
0.538071 0.061416 0.000000
0.600845 0.000000 0.000000
0.660216 0.000000 0.000000
0.723033 0.000000 0.000000
0.781753 0.000000 0.000000
0.830049 0.000000 0.000000
0.874155 0.000000 0.000000
0.912559 0.000000 0.000000
0.947783 0.000000 0.000000
0.977510 0.000000 0.000000
1.000675 0.000000 0.000000
1.019420 0.000000 0.000000
1.033361 0.000000 0.000000
1.042632 0.000000 0.000000
1.057986 0.000000 0.000000
1.069870 0.000000 0.000000
1.079543 0.000000 0.000000
1.085643 0.000000 0.000000
0.000000 0.107722 0.000000
0.000000 0.109632 0.000000
0.000000 0.112503 0.000000
0.000000 0.115381 0.000000
0.000000 0.119225 0.000000
0.000000 0.125008 0.000000
0.000000 0.135438 0.000000
0.045432 0.146751 0.000000
0.115326 0.155503 0.000000
0.166141 0.163204 0.000000
0.229266 0.177549 0.000000
0.292169 0.183900 0.000000
0.354826 0.181679 0.000000
0.415164 0.171485 0.000000
0.474875 0.161950 0.000000
0.534546 0.143158 0.000000
0.595966 0.121531 0.000000
0.657297 0.100072 0.000000
0.725036 0.102785 0.000000
0.785062 0.094471 0.000000
0.835978 0.076153 0.000000
0.878275 0.035590 0.000000
0.917670 0.000000 0.000000
0.951504 0.000000 0.000000
0.981815 0.000000 0.000000
1.006995 0.000000 0.000000
1.027701 0.000000 0.000000
1.042363 0.000000 0.000000
1.050666 0.000000 0.000000
1.057981 0.000000 0.000000
1.069869 0.000000 0.000000
1.079542 0.000000 0.000000
1.085643 0.000000 0.000000
0.000000 0.135500 0.000000
0.000000 0.138719 0.000000
0.000000 0.143021 0.000000
0.000000 0.147333 0.000000
0.000000 0.152736 0.000000
0.000000 0.158154 0.000000
0.000000 0.166123 0.000000
0.000000 0.177744 0.000000
0.086178 0.187678 0.000000
0.157971 0.195958 0.000000
0.215876 0.203149 0.000000
0.281559 0.217466 0.000000
0.345990 0.220545 0.000000
0.408059 0.220169 0.000000
0.470240 0.211539 0.000000
0.530170 0.201446 0.000000
0.590579 0.182550 0.000000
0.658366 0.188684 0.000000
0.726082 0.195060 0.000000
0.787550 0.194865 0.000000
0.839769 0.189810 0.000000
0.881773 0.182019 0.000000
0.920790 0.168771 0.000000
0.955377 0.148851 0.000000
0.985627 0.118095 0.000000
1.011027 0.000000 0.000000
1.031607 0.000000 0.000000
1.048416 0.000000 0.000000
1.059902 0.000000 0.000000
1.064579 0.000000 0.000000
1.069865 0.000000 0.000000
1.079541 0.000000 0.000000
1.085643 0.000000 0.000000
0.000000 0.177969 0.000000
0.000000 0.181532 0.000000
0.000000 0.185102 0.000000
0.000000 0.189869 0.000000
0.000000 0.194645 0.000000
0.000000 0.199431 0.000000
0.000000 0.207114 0.000000
0.000000 0.216057 0.000000
0.000000 0.223369 0.000000
0.132659 0.229996 0.000000
0.205180 0.236226 0.000000
0.266464 0.241037 0.000000
0.333179 0.254991 0.000000
0.398762 0.259929 0.000000
0.461008 0.260007 0.000000
0.521571 0.250284 0.000000
0.586801 0.252835 0.000000
0.653145 0.261407 0.000000
0.721007 0.273156 0.000000
0.788881 0.275845 0.000000
0.839564 0.275166 0.000000
0.886925 0.268852 0.000000
0.923027 0.259959 0.000000
0.957176 0.250648 0.000000
0.987890 0.236896 0.000000
1.013344 0.218464 0.000000
1.034071 0.185804 0.000000
1.051135 0.123744 0.000000
1.063701 0.000000 0.000000
1.072391 0.000000 0.000000
1.075979 0.000000 0.000000
1.079538 0.000000 0.000000
1.085643 0.000000 0.000000
0.000000 0.217393 0.000000
0.000000 0.221258 0.000000
0.000000 0.223837 0.000000
0.000000 0.229002 0.000000
0.000000 0.232882 0.000000
0.000000 0.238063 0.000000
0.000000 0.244760 0.000000
0.000000 0.254357 0.000000
0.000000 0.261130 0.000000
0.062552 0.267170 0.000000
0.181847 0.272697 0.000000
0.253932 0.276481 0.000000
0.316835 0.282893 0.000000
0.385235 0.296191 0.000000
0.451748 0.297028 0.000000
0.516324 0.308127 0.000000
0.586828 0.318677 0.000000
0.651851 0.327917 0.000000
0.715426 0.333602 0.000000
0.784925 0.343409 0.000000
0.840074 0.345965 0.000000
0.887153 0.345574 0.000000
0.924434 0.336853 0.000000
0.958142 0.331925 0.000000
0.987459 0.323436 0.000000
1.014143 0.310941 0.000000
1.035560 0.296827 0.000000
1.051711 0.270106 0.000000
1.064146 0.229900 0.000000
1.074506 0.132894 0.000000
1.081334 0.000000 0.000000
1.082435 0.000000 0.000000
1.085639 0.000000 0.000000
0.000000 0.258481 0.000000
0.000000 0.259856 0.000000
0.000000 0.263984 0.000000
0.000000 0.268117 0.000000
0.000000 0.273637 0.000000
0.000000 0.279164 0.000000
0.000000 0.286144 0.000000
0.000000 0.297708 0.000000
0.000000 0.306395 0.000000
0.000000 0.313331 0.000000
0.121797 0.316585 0.000000
0.231576 0.317827 0.000000
0.303547 0.321787 0.000000
0.368203 0.325438 0.000000
0.439783 0.345499 0.000000
0.507795 0.363984 0.000000
0.580078 0.382430 0.000000
0.647619 0.391161 0.000000
0.713283 0.398003 0.000000
0.775562 0.404805 0.000000
0.833801 0.413508 0.000000
0.885193 0.415631 0.000000
0.923636 0.409894 0.000000
0.958240 0.406066 0.000000
0.988016 0.400730 0.000000
1.012375 0.393978 0.000000
1.033434 0.383657 0.000000
1.050168 0.367874 0.000000
1.063259 0.344397 0.000000
1.072359 0.310274 0.000000
1.079552 0.247254 0.000000
1.084037 0.000000 0.000000
1.086423 0.000000 0.000000
0.000000 0.304953 0.000000
0.000000 0.304953 0.000000
0.000000 0.306403 0.000000
0.000000 0.309306 0.000000
0.000000 0.313664 0.000000
0.000000 0.318026 0.000000
0.000000 0.325308 0.000000
0.000000 0.335655 0.000000
0.000000 0.350733 0.000000
0.000000 0.362814 0.000000
0.000000 0.368412 0.000000
0.170857 0.363882 0.000000
0.278545 0.366563 0.000000
0.353928 0.376835 0.000000
0.421441 0.388692 0.000000
0.496434 0.414328 0.000000
0.572187 0.428595 0.000000
0.644674 0.446093 0.000000
0.708840 0.455547 0.000000
0.771485 0.463375 0.000000
0.827315 0.469857 0.000000
0.881512 0.476263 0.000000
0.922002 0.478258 0.000000
0.956606 0.473369 0.000000
0.984935 0.472533 0.000000
1.011427 0.468084 0.000000
1.031017 0.462352 0.000000
1.047376 0.454979 0.000000
1.060121 0.436513 0.000000
1.068622 0.416649 0.000000
1.074784 0.385469 0.000000
1.079029 0.321442 0.000000
1.083953 0.146947 0.000000
0.000000 0.355266 0.000000
0.000000 0.355266 0.000000
0.000000 0.355266 0.000000
0.000000 0.355266 0.000000
0.000000 0.355266 0.000000
0.000000 0.359804 0.000000
0.000000 0.367376 0.000000
0.000000 0.376479 0.000000
0.000000 0.390376 0.000000
0.000000 0.407486 0.000000
0.000000 0.421472 0.000000
0.000000 0.430054 0.000000
0.219472 0.433106 0.000000
0.332526 0.440590 0.000000
0.411159 0.444877 0.000000
0.479275 0.455479 0.000000
0.560919 0.476898 0.000000
0.635951 0.495527 0.000000
0.703469 0.510922 0.000000
0.765038 0.519203 0.000000
0.819864 0.525869 0.000000
0.873204 0.532452 0.000000
0.918529 0.541158 0.000000
0.952665 0.542059 0.000000
0.982037 0.539783 0.000000
1.007482 0.535987 0.000000
1.027867 0.534265 0.000000
1.043709 0.527637 0.000000
1.056010 0.519495 0.000000
1.063692 0.506409 0.000000
1.068867 0.486329 0.000000
1.072632 0.452133 0.000000
1.076384 0.389081 0.000000
0.000000 0.407486 0.000000
0.000000 0.407486 0.000000
0.000000 0.407486 0.000000
0.000000 0.407486 0.000000
0.000000 0.407486 0.000000
0.000000 0.407486 0.000000
0.000000 0.407486 0.000000
0.000000 0.415282 0.000000
0.000000 0.427779 0.000000
0.000000 0.453085 0.000000
0.000000 0.475331 0.000000
0.000000 0.489820 0.000000
0.043603 0.499950 0.000000
0.296897 0.501226 0.000000
0.403184 0.504005 0.000000
0.477147 0.510279 0.000000
0.550826 0.521228 0.000000
0.626398 0.542661 0.000000
0.696302 0.559261 0.000000
0.759411 0.572562 0.000000
0.814666 0.579427 0.000000
0.866732 0.587958 0.000000
0.912558 0.595100 0.000000
0.949926 0.599363 0.000000
0.979689 0.600719 0.000000
1.002943 0.599106 0.000000
1.023159 0.597656 0.000000
1.038667 0.593128 0.000000
1.050914 0.588805 0.000000
1.057985 0.583156 0.000000
1.062294 0.570887 0.000000
1.065394 0.550099 0.000000
1.068135 0.516594 0.000000
0.000000 0.462609 0.000000
0.000000 0.462609 0.000000
0.000000 0.462609 0.000000
0.000000 0.462609 0.000000
0.000000 0.462609 0.000000
0.000000 0.462609 0.000000
0.000000 0.462609 0.000000
0.000000 0.464197 0.000000
0.000000 0.468967 0.000000
0.000000 0.489982 0.000000
0.000000 0.519699 0.000000
0.000000 0.545612 0.000000
0.000000 0.557700 0.000000
0.224886 0.566914 0.000000
0.378087 0.566328 0.000000
0.470093 0.569058 0.000000
0.545696 0.571710 0.000000
0.616844 0.583663 0.000000
0.687116 0.603442 0.000000
0.752324 0.618404 0.000000
0.807661 0.628465 0.000000
0.860421 0.635343 0.000000
0.905109 0.644136 0.000000
0.944741 0.651540 0.000000
0.974182 0.656266 0.000000
0.998911 0.656317 0.000000
1.018974 0.653497 0.000000
1.033737 0.652543 0.000000
1.044932 0.651805 0.000000
1.052492 0.648032 0.000000
1.055338 0.642932 0.000000
1.057847 0.629659 0.000000
1.060036 0.608159 0.000000
0.000000 0.521352 0.000000
0.000000 0.521352 0.000000
0.000000 0.521352 0.000000
0.000000 0.521352 0.000000
0.000000 0.521352 0.000000
0.000000 0.521352 0.000000
0.000000 0.521352 0.000000
0.000000 0.521352 0.000000
0.000000 0.521352 0.000000
0.000000 0.521352 0.000000
0.000000 0.545616 0.000000
0.000000 0.583929 0.000000
0.000000 0.607466 0.000000
0.000000 0.618709 0.000000
0.320552 0.625871 0.000000
0.453265 0.623534 0.000000
0.542487 0.624487 0.000000
0.607598 0.627165 0.000000
0.675119 0.638870 0.000000
0.742438 0.656689 0.000000
0.799502 0.669895 0.000000
0.852163 0.681235 0.000000
0.898660 0.689718 0.000000
0.937244 0.698536 0.000000
0.969581 0.706101 0.000000
0.994196 0.706230 0.000000
1.013515 0.708094 0.000000
1.028245 0.705771 0.000000
1.038984 0.706622 0.000000
1.045964 0.706208 0.000000
1.048857 0.700032 0.000000
1.050837 0.692101 0.000000
1.052147 0.681077 0.000000
0.000000 0.575955 0.000000
0.000000 0.575955 0.000000
0.000000 0.575955 0.000000
0.000000 0.575955 0.000000
0.000000 0.575955 0.000000
0.000000 0.575955 0.000000
0.000000 0.575955 0.000000
0.000000 0.575955 0.000000
0.000000 0.575955 0.000000
0.000000 0.574354 0.000000
0.000000 0.574354 0.000000
0.000000 0.601226 0.000000
0.000000 0.646592 0.000000
0.000000 0.666297 0.000000
0.168156 0.676478 0.000000
0.411596 0.678457 0.000000
0.526939 0.679071 0.000000
0.606516 0.679945 0.000000
0.664679 0.679630 0.000000
0.730649 0.692412 0.000000
0.791178 0.708294 0.000000
0.844441 0.719420 0.000000
0.891018 0.730445 0.000000
0.930075 0.738847 0.000000
0.962599 0.747525 0.000000
0.989390 0.752064 0.000000
1.008523 0.753841 0.000000
1.022901 0.755852 0.000000
1.033177 0.756690 0.000000
1.040038 0.754942 0.000000
1.042209 0.752059 0.000000
1.043730 0.747734 0.000000
1.044928 0.738803 0.000000
0.000000 0.624875 0.000000
0.000000 0.624875 0.000000
0.000000 0.626453 0.000000
0.000000 0.626453 0.000000
0.000000 0.626453 0.000000
0.000000 0.626453 0.000000
0.000000 0.626453 0.000000
0.000000 0.626453 0.000000
0.000000 0.626453 0.000000
0.000000 0.626453 0.000000
0.000000 0.623295 0.000000
0.000000 0.623295 0.000000
0.000000 0.646592 0.000000
0.000000 0.699801 0.000000
0.000000 0.719608 0.000000
0.317940 0.727259 0.000000
0.490790 0.728893 0.000000
0.595160 0.729366 0.000000
0.664440 0.727425 0.000000
0.720028 0.727078 0.000000
0.780521 0.739340 0.000000
0.833797 0.754666 0.000000
0.880965 0.766633 0.000000
0.921995 0.774436 0.000000
0.955886 0.783880 0.000000
0.983235 0.792235 0.000000
1.002739 0.796715 0.000000
1.016867 0.799852 0.000000
1.026852 0.801913 0.000000
1.033683 0.799034 0.000000
1.035871 0.796380 0.000000
1.037613 0.790984 0.000000
1.038023 0.788202 0.000000
0.000000 0.674295 0.000000
0.000000 0.674295 0.000000
0.000000 0.674295 0.000000
0.000000 0.674295 0.000000
0.000000 0.674295 0.000000
0.000000 0.674295 0.000000
0.000000 0.674295 0.000000
0.000000 0.674295 0.000000
0.000000 0.674295 0.000000
0.000000 0.674295 0.000000
0.000000 0.674295 0.000000
0.000000 0.674295 0.000000
0.000000 0.674295 0.000000
0.000000 0.695349 0.000000
0.000000 0.749331 0.000000
0.000000 0.767387 0.000000
0.411864 0.772669 0.000000
0.562806 0.773952 0.000000
0.654482 0.773042 0.000000
0.716102 0.773948 0.000000
0.768622 0.773597 0.000000
0.823502 0.785209 0.000000
0.872516 0.798322 0.000000
0.912356 0.809542 0.000000
0.948084 0.818164 0.000000
0.976032 0.825828 0.000000
0.997595 0.832493 0.000000
1.011898 0.836816 0.000000
1.021505 0.837535 0.000000
1.027712 0.837253 0.000000
1.029718 0.836008 0.000000
1.031067 0.833520 0.000000
1.031681 0.829674 0.000000
0.000000 0.717630 0.000000
0.000000 0.717630 0.000000
0.000000 0.717630 0.000000
0.000000 0.717630 0.000000
0.000000 0.717630 0.000000
0.000000 0.717630 0.000000
0.000000 0.717630 0.000000
0.000000 0.717630 0.000000
0.000000 0.717630 0.000000
0.000000 0.717630 0.000000
0.000000 0.717630 0.000000
0.000000 0.717630 0.000000
0.000000 0.717630 0.000000
0.000000 0.717630 0.000000
0.000000 0.736602 0.000000
0.000000 0.798763 0.000000
0.202463 0.810542 0.000000
0.503200 0.816212 0.000000
0.633735 0.818468 0.000000
0.710646 0.816459 0.000000
0.765701 0.814815 0.000000
0.811493 0.814565 0.000000
0.861919 0.825334 0.000000
0.904746 0.837584 0.000000
0.938881 0.846790 0.000000
0.968436 0.854775 0.000000
0.991215 0.861877 0.000000
1.006560 0.868136 0.000000
1.015939 0.868889 0.000000
1.022286 0.868617 0.000000
1.024311 0.868529 0.000000
1.025671 0.866165 0.000000
1.026066 0.863842 0.000000
0.000000 0.760669 0.000000
0.000000 0.760669 0.000000
0.000000 0.760669 0.000000
0.000000 0.760669 0.000000
0.000000 0.760669 0.000000
0.000000 0.760669 0.000000
0.000000 0.760669 0.000000
0.000000 0.760669 0.000000
0.000000 0.760669 0.000000
0.000000 0.759252 0.000000
0.000000 0.760669 0.000000
0.000000 0.760669 0.000000
0.000000 0.760669 0.000000
0.000000 0.760669 0.000000
0.000000 0.760669 0.000000
0.000000 0.776183 0.000000
0.000000 0.840684 0.000000
0.359965 0.852758 0.000000
0.578194 0.855116 0.000000
0.687179 0.856047 0.000000
0.758762 0.856372 0.000000
0.808624 0.853721 0.000000
0.849577 0.852369 0.000000
0.895140 0.862180 0.000000
0.931972 0.872263 0.000000
0.960898 0.881720 0.000000
0.984487 0.887930 0.000000
1.000002 0.891392 0.000000
1.011006 0.895032 0.000000
1.017684 0.894759 0.000000
1.019536 0.895705 0.000000
1.020691 0.894635 0.000000
1.020876 0.893604 0.000000
0.000000 0.800140 0.000000
0.000000 0.800140 0.000000
0.000000 0.800140 0.000000
0.000000 0.800140 0.000000
0.000000 0.800140 0.000000
0.000000 0.800140 0.000000
0.000000 0.800140 0.000000
0.000000 0.800140 0.000000
0.000000 0.800140 0.000000
0.000000 0.800140 0.000000
0.000000 0.800140 0.000000
0.000000 0.800140 0.000000
0.000000 0.800140 0.000000
0.000000 0.800140 0.000000
0.000000 0.800140 0.000000
0.000000 0.800140 0.000000
0.000000 0.812140 0.000000
0.000000 0.880753 0.000000
0.470153 0.886200 0.000000
0.649978 0.889082 0.000000
0.744888 0.889778 0.000000
0.803356 0.888124 0.000000
0.847286 0.886762 0.000000
0.884289 0.885532 0.000000
0.922630 0.893322 0.000000
0.953679 0.901344 0.000000
0.976097 0.907495 0.000000
0.993891 0.911216 0.000000
1.005994 0.914269 0.000000
1.013207 0.917514 0.000000
1.015549 0.917421 0.000000
1.016690 0.916494 0.000000
1.016524 0.917382 0.000000
0.000000 0.835961 0.000000
0.000000 0.835961 0.000000
0.000000 0.835961 0.000000
0.000000 0.835961 0.000000
0.000000 0.835961 0.000000
0.000000 0.835961 0.000000
0.000000 0.835961 0.000000
0.000000 0.835961 0.000000
0.000000 0.835961 0.000000
0.000000 0.835961 0.000000
0.000000 0.835961 0.000000
0.000000 0.835961 0.000000
0.000000 0.835961 0.000000
0.000000 0.835961 0.000000
0.000000 0.835961 0.000000
0.000000 0.835961 0.000000
0.000000 0.835961 0.000000
0.000000 0.843364 0.000000
0.000000 0.913084 0.000000
0.555847 0.915987 0.000000
0.709051 0.916596 0.000000
0.791112 0.917952 0.000000
0.844381 0.916394 0.000000
0.882506 0.915189 0.000000
0.914321 0.913245 0.000000
0.945124 0.918311 0.000000
0.969066 0.922720 0.000000
0.987874 0.927305 0.000000
1.000440 0.932120 0.000000
1.008699 0.935037 0.000000
1.011454 0.937868 0.000000
1.012632 0.937823 0.000000
1.012775 0.937083 0.000000
0.000000 0.869276 0.000000
0.000000 0.869276 0.000000
0.000000 0.869276 0.000000
0.000000 0.869276 0.000000
0.000000 0.869276 0.000000
0.000000 0.869276 0.000000
0.000000 0.869276 0.000000
0.000000 0.869276 0.000000
0.000000 0.869276 0.000000
0.000000 0.869276 0.000000
0.000000 0.869276 0.000000
0.000000 0.869276 0.000000
0.000000 0.869276 0.000000
0.000000 0.869276 0.000000
0.000000 0.869276 0.000000
0.000000 0.869276 0.000000
0.000000 0.869276 0.000000
0.000000 0.869276 0.000000
0.000000 0.872640 0.000000
0.000000 0.940052 0.000000
0.631572 0.940864 0.000000
0.762595 0.940515 0.000000
0.832945 0.940196 0.000000
0.874733 0.938212 0.000000
0.908213 0.936263 0.000000
0.934501 0.934501 0.000000
0.961487 0.938242 0.000000
0.980086 0.941236 0.000000
0.994333 0.945847 0.000000
