transforms/AB04_warm_d65_r709.cube
#  AB_04_D65_r709.cube
LUT_3D_SIZE 9
0.000000 0.000000 0.000000
0.011107 0.003480 0.003352
0.100310 0.000000 0.000000
0.306081 0.000000 0.000000
0.552377 0.000000 0.000000
0.775595 0.000000 0.000000
0.941849 0.000000 0.000000
1.042644 0.000000 0.000000
1.085644 0.000000 0.000000
0.000000 0.010669 0.001156
0.009574 0.012970 0.000000
0.126002 0.018413 0.000000
0.332314 0.000000 0.000000
0.583579 0.000000 0.000000
0.804496 0.000000 0.000000
0.951438 0.000000 0.000000
1.042641 0.000000 0.000000
1.085644 0.000000 0.000000
0.000000 0.081292 0.000000
0.000000 0.092118 0.000000
0.122449 0.124862 0.000000
0.358207 0.132441 0.000000
0.600845 0.000000 0.000000
0.830049 0.000000 0.000000
0.977510 0.000000 0.000000
1.042632 0.000000 0.000000
1.085643 0.000000 0.000000
0.000000 0.217393 0.000000
0.000000 0.232882 0.000000
0.000000 0.261130 0.000000
0.316835 0.282893 0.000000
0.586828 0.318677 0.000000
0.840074 0.345965 0.000000
0.987459 0.323436 0.000000
1.064146 0.229900 0.000000
1.085639 0.000000 0.000000
0.000000 0.407486 0.000000
0.000000 0.407486 0.000000
0.000000 0.427779 0.000000
0.043603 0.499950 0.000000
0.550826 0.521228 0.000000
0.814666 0.579427 0.000000
0.979689 0.600719 0.000000
1.050914 0.588805 0.000000
1.068135 0.516594 0.000000
0.000000 0.624875 0.000000
0.000000 0.626453 0.000000
0.000000 0.626453 0.000000
0.000000 0.646592 0.000000
0.490790 0.728893 0.000000
0.780521 0.739340 0.000000
0.955886 0.783880 0.000000
1.026852 0.801913 0.000000
1.038023 0.788202 0.000000
0.000000 0.800140 0.000000
0.000000 0.800140 0.000000
0.000000 0.800140 0.000000
0.000000 0.800140 0.000000
0.000000 0.812140 0.000000
0.744888 0.889778 0.000000
0.922630 0.893322 0.000000
1.005994 0.914269 0.000000
1.016524 0.917382 0.000000
0.000000 0.925643 0.000000
0.000000 0.925643 0.000000
0.000000 0.925643 0.000000
0.000000 0.925643 0.000000
0.000000 0.925643 0.000000
0.000000 0.925643 0.000000
0.891532 0.969657 0.000000
0.983487 0.967793 0.000000
1.005160 0.975121 0.000000
0.000000 0.990766 0.000000
0.000000 0.990766 0.000000
0.000000 0.990766 0.000000
0.000000 0.990766 0.000000
0.000000 0.990766 0.000000
0.000000 0.990766 0.000000
0.000000 0.990766 0.000000
0.968434 0.998703 0.000000
0.999498 0.996816 0.000000
0.003240 0.003746 0.011083
0.011560 0.002831 0.011213
0.103012 0.000000 0.013761
0.313809 0.000000 0.000000
0.564771 0.000000 0.000000
0.786419 0.000000 0.000000
0.946653 0.000000 0.000000
1.042644 0.000000 0.000000
1.085644 0.000000 0.000000
0.000000 0.011676 0.012218
0.009361 0.014318 0.013691
0.129007 0.023067 0.029023
0.341568 0.000000 0.000000
0.592059 0.000000 0.000000
0.812073 0.000000 0.000000
0.956110 0.000000 0.000000
1.042642 0.000000 0.000000
1.085644 0.000000 0.000000
0.000000 0.088777 0.000000
0.000000 0.102955 0.000000
0.125112 0.139987 0.000000
0.367543 0.140226 0.000000
0.610704 0.038683 0.000000
0.838231 0.000000 0.000000
0.980487 0.000000 0.000000
1.043402 0.000000 0.000000
1.085643 0.000000 0.000000
0.000000 0.232882 0.000000
0.000000 0.250242 0.000000
0.000000 0.284636 0.000000
0.322785 0.313738 0.000000
0.591366 0.326450 0.000000
0.843748 0.356264 0.000000
0.989905 0.330845 0.000000
1.064146 0.229900 0.000000
1.085638 0.000000 0.000000
0.000000 0.430923 0.000000
0.000000 0.430923 0.000000
0.000000 0.453085 0.000000
0.000000 0.519960 0.000000
0.551638 0.535794 0.000000
0.816950 0.595690 0.000000
0.979378 0.612210 0.000000
1.050914 0.588805 0.000000
1.068135 0.516594 0.000000
0.000000 0.645055 0.000000
0.000000 0.645055 0.000000
0.000000 0.645055 0.000000
0.000000 0.668131 0.000000
0.490375 0.747377 0.000000
0.777862 0.752435 0.000000
0.955750 0.790742 0.000000
1.026852 0.801913 0.000000
1.038023 0.788202 0.000000
0.000000 0.810805 0.000000
0.000000 0.810805 0.000000
0.000000 0.810805 0.000000
0.000000 0.810805 0.000000
0.000000 0.819940 0.000000
0.744885 0.895822 0.000000
0.922630 0.893322 0.000000
1.005994 0.914269 0.000000
1.016524 0.917382 0.000000
0.000000 0.925643 0.000000
0.000000 0.925643 0.000000
0.000000 0.925643 0.000000
0.000000 0.925643 0.000000
0.000000 0.925643 0.000000
0.000000 0.925643 0.000000
0.891532 0.969657 0.000000
0.983487 0.967793 0.000000
1.005160 0.975121 0.000000
0.000000 0.990766 0.000000
0.000000 0.990766 0.000000
0.000000 0.990766 0.000000
0.000000 0.990766 0.000000
0.000000 0.990766 0.000000
0.000000 0.990766 0.000000
0.000000 0.990766 0.000000
0.968434 0.998703 0.000000
0.999498 0.996816 0.000000
0.003344 0.001658 0.080553
0.019679 0.000000 0.083921
0.109113 0.000000 0.077704
0.310721 0.000000 0.097346
0.566545 0.000000 0.079554
0.795503 0.000000 0.000000
0.955069 0.000000 0.000000
1.045843 0.000000 0.000000
1.085644 0.000000 0.000000
0.000000 0.012652 0.090717
0.014623 0.018191 0.096662
0.118145 0.000000 0.098327
0.340131 0.000000 0.114943
0.593849 0.000000 0.090594
0.818209 0.000000 0.000000
0.963594 0.000000 0.000000
1.045841 0.000000 0.000000
1.085644 0.000000 0.000000
0.000000 0.086276 0.091714
0.000000 0.104859 0.105948
0.121273 0.144452 0.139439
0.375034 0.120547 0.125944
0.620669 0.074764 0.122484
0.841659 0.075975 0.117161
0.985470 0.000000 0.098853
1.046438 0.000000 0.000000
1.085643 0.000000 0.000000
0.000000 0.246131 0.108379
0.000000 0.265361 0.112190
0.000000 0.304913 0.106790
0.336335 0.341981 0.079547
0.618758 0.350355 0.068438
0.847225 0.346907 0.037847
0.992905 0.345804 0.068915
1.065333 0.251022 0.000000
1.085639 0.000000 0.000000
0.000000 0.451499 0.000000
0.000000 0.451499 0.000000
0.000000 0.475331 0.000000
0.000000 0.544649 0.000000
0.551143 0.547171 0.000000
0.815664 0.594120 0.000000
0.981491 0.610445 0.000000
1.049976 0.603979 0.000000
1.067995 0.518374 0.000000
0.000000 0.657355 0.000000
0.000000 0.657355 0.000000
0.000000 0.657355 0.000000
0.000000 0.683488 0.000000
0.453794 0.763673 0.000000
0.772565 0.762641 0.000000
0.953522 0.804021 0.000000
1.026040 0.810857 0.000000
1.038023 0.788202 0.000000
0.000000 0.826099 0.000000
0.000000 0.826099 0.000000
0.000000 0.826099 0.000000
0.000000 0.826099 0.000000
0.000000 0.837195 0.000000
0.740560 0.911052 0.000000
0.920668 0.907623 0.000000
1.005658 0.916046 0.000000
1.016524 0.917382 0.000000
0.000000 0.932545 0.000000
0.000000 0.932545 0.000000
0.000000 0.932545 0.000000
0.000000 0.932545 0.000000
0.000000 0.932545 0.000000
0.000000 0.930819 0.000000
0.890159 0.970274 0.000000
0.983487 0.967793 0.000000
1.005160 0.975121 0.000000
0.000000 0.990766 0.000000
0.000000 0.990766 0.000000
0.000000 0.990766 0.000000
0.000000 0.990766 0.000000
0.000000 0.990766 0.000000
0.000000 0.990766 0.000000
0.000000 0.990766 0.000000
0.968434 0.998703 0.000000
0.999498 0.996816 0.000000
0.002237 0.000000 0.230110
0.022381 0.000000 0.231425
0.155294 0.000000 0.228187
0.326206 0.000000 0.225171
0.566545 0.000000 0.278181
0.797017 0.000000 0.297444
0.960404 0.000000 0.278217
1.052525 0.000000 0.287077
1.086087 0.000000 0.000000
0.000510 0.000693 0.245983
0.010121 0.000000 0.238036
0.149536 0.000000 0.232212
0.329309 0.000000 0.241290
0.593876 0.000000 0.304799
0.824301 0.000000 0.320182
0.968938 0.000000 0.291301
1.052525 0.000000 0.287077
1.086087 0.000000 0.000000
0.000000 0.078809 0.220304
0.000000 0.097258 0.241151
0.098470 0.108066 0.282826
0.358503 0.085776 0.292716
0.619523 0.000000 0.303585
0.843945 0.000000 0.319518
0.988575 0.000000 0.310881
1.053133 0.000000 0.288798
1.086087 0.000000 0.000000
0.000000 0.231589 0.240612
0.000000 0.252985 0.252168
0.000000 0.306384 0.294334
0.335992 0.343526 0.315866
0.625213 0.317064 0.303180
0.851906 0.315753 0.307420
0.993263 0.357163 0.345170
1.064498 0.336226 0.378044
1.086084 0.000000 0.000000
0.000000 0.461020 0.311699
0.000000 0.461020 0.311699
0.000000 0.489982 0.321424
0.000000 0.552818 0.284074
0.558436 0.566415 0.277762
0.822209 0.567517 0.275736
0.983322 0.575294 0.336521
1.051017 0.598971 0.365572
1.067003 0.530801 0.000000
0.000000 0.668131 0.288359
0.000000 0.668131 0.288359
0.000000 0.668131 0.286354
0.000000 0.698316 0.286795
0.357932 0.766450 0.226599
0.767481 0.764169 0.232462
0.951592 0.797782 0.298374
1.026152 0.808308 0.307659
1.036436 0.798898 0.000000
0.000000 0.833495 0.205529
0.000000 0.834728 0.204866
0.000000 0.834728 0.204866
0.000000 0.833495 0.202587
0.000000 0.850772 0.213958
0.703209 0.917604 0.280281
0.915359 0.913210 0.266821
1.001649 0.925901 0.164892
1.016357 0.918271 0.000000
0.000000 0.946360 0.000000
0.000000 0.946360 0.000000
0.000000 0.947224 0.000000
0.000000 0.947224 0.000000
0.000000 0.947224 0.000000
0.000000 0.947224 0.000000
0.878905 0.981060 0.000000
0.979074 0.977032 0.000000
1.005160 0.975121 0.000000
0.000000 0.994426 0.000000
0.000000 0.994837 0.000000
0.000000 0.994837 0.000000
0.000000 0.994426 0.000000
0.000000 0.994426 0.000000
0.000000 0.993607 0.000000
0.000000 0.991902 0.000000
0.968434 0.998703 0.000000
0.999498 0.996816 0.000000
0.004442 0.000000 0.394257
0.044072 0.000000 0.402179
0.165697 0.000000 0.409828
0.346421 0.000000 0.414712
0.550611 0.000000 0.433752
0.801560 0.000000 0.521555
0.970005 0.000000 0.531548
1.054348 0.000000 0.524792
1.086973 0.000000 0.500151
0.000850 0.000000 0.408549
0.026474 0.000000 0.418095
0.156447 0.000000 0.424216
0.355830 0.000000 0.416196
0.580234 0.000000 0.461052
0.825820 0.000000 0.548018
0.978548 0.000000 0.544754
1.054348 0.000000 0.524792
1.086973 0.000000 0.500151
0.000000 0.038385 0.421243
0.000000 0.046875 0.429194
0.125246 0.059850 0.428960
0.353439 0.000000 0.427237
0.605414 0.000000 0.486766
0.846522 0.000000 0.560250
0.998362 0.000000 0.572722
1.055563 0.000000 0.528150
1.086973 0.000000 0.500151
0.000000 0.252985 0.423827
0.000000 0.276400 0.437540
0.000000 0.319478 0.473606
0.311505 0.309694 0.506290
0.616813 0.293418 0.517407
0.850149 0.293978 0.495972
1.001507 0.359762 0.536164
1.067013 0.294602 0.556504
1.086973 0.000000 0.500151
0.000000 0.441993 0.453207
0.000000 0.443577 0.453091
0.000000 0.481753 0.475651
0.000000 0.548002 0.514057
0.556865 0.564842 0.514340
0.833304 0.550219 0.511333
0.987283 0.544542 0.505298
1.052795 0.571659 0.541210
1.065835 0.544912 0.548183
0.000000 0.672755 0.530926
0.000000 0.672755 0.530926
0.000000 0.672755 0.530926
0.000000 0.711684 0.547861
0.333926 0.772306 0.485620
0.762087 0.767059 0.496002
0.953893 0.759291 0.487393
1.031855 0.758141 0.525687
1.042384 0.757581 0.523353
0.000000 0.838428 0.526465
0.000000 0.838428 0.526465
0.000000 0.838428 0.526465
0.000000 0.838428 0.526465
0.000000 0.861429 0.537884
0.631763 0.918307 0.495823
0.909507 0.911657 0.495325
1.002385 0.917056 0.498020
1.016524 0.917382 0.491143
0.000000 0.948088 0.518332
0.000000 0.948088 0.518332
0.000000 0.948088 0.518332
0.000000 0.948088 0.518332
0.000000 0.948088 0.516408
0.000000 0.948952 0.514329
0.849848 0.982310 0.500195
0.975832 0.977560 0.489411
1.004077 0.980329 0.459806
0.000000 1.000167 0.421366
0.000000 1.000167 0.421366
0.000000 1.000167 0.421366
0.000000 1.000167 0.421366
0.000000 1.000167 0.421366
0.000000 1.000577 0.416811
0.000000 1.000167 0.407946
0.957057 1.000504 0.459812
0.998279 0.998795 0.380635
0.044072 0.000000 0.554427
0.111149 0.000000 0.559245
0.213330 0.000000 0.565477
0.381644 0.000000 0.572556
0.557688 0.000000 0.599927
0.798532 0.000000 0.671446
0.967872 0.000000 0.726991
1.062856 0.000000 0.730779
1.087240 0.000000 0.717644
0.021030 0.000000 0.570732
0.093181 0.000000 0.575582
0.203102 0.000000 0.580218
0.386499 0.000000 0.587268
0.593876 0.000000 0.630230
0.819750 0.000000 0.694791
0.981752 0.000000 0.743311
1.062856 0.000000 0.730779
1.087240 0.000000 0.717644
0.000000 0.015014 0.583796
0.059574 0.024001 0.587040
0.166600 0.000000 0.591771
0.370225 0.000000 0.600396
0.622807 0.000000 0.652262
0.834463 0.000000 0.711366
0.997535 0.000000 0.766503
1.065487 0.000000 0.738252
1.087240 0.000000 0.717644
0.000000 0.195841 0.590664
0.000000 0.218681 0.606455
0.000000 0.213024 0.612948
0.295401 0.220776 0.637884
0.627255 0.238263 0.673531
0.837012 0.268192 0.714074
1.001617 0.338693 0.752220
1.071724 0.217749 0.748097
1.087240 0.000000 0.717644
0.000000 0.470557 0.628956
0.000000 0.494926 0.640770
0.000000 0.532881 0.658023
0.000000 0.555385 0.685223
0.554439 0.540562 0.696798
0.827637 0.535454 0.712497
0.991429 0.540759 0.679167
1.053488 0.557959 0.677682
1.067147 0.529029 0.709287
0.000000 0.655816 0.658108
0.000000 0.655816 0.658108
0.000000 0.655816 0.658108
0.000000 0.728046 0.699219
0.350341 0.765120 0.711298
0.759502 0.755969 0.691978
0.961486 0.754813 0.695108
1.034110 0.733498 0.673353
1.046491 0.726890 0.678449
0.000000 0.838428 0.718268
0.000000 0.838428 0.716732
0.000000 0.838428 0.716732
0.000000 0.838428 0.716732
0.000000 0.889475 0.742655
0.640905 0.915380 0.687537
0.906096 0.906096 0.687778
1.005227 0.899353 0.661859
1.022885 0.882274 0.659918
0.000000 0.945496 0.719740
0.000000 0.945496 0.719740
0.000000 0.945496 0.719740
0.000000 0.945496 0.719740
0.000000 0.945496 0.719740
0.000000 0.959600 0.729145
0.809023 0.982174 0.670519
0.972969 0.975091 0.670329
1.004778 0.976965 0.639505
0.000000 0.999757 0.699175
0.000000 0.999757 0.699175
0.000000 0.999757 0.699175
0.000000 0.999757 0.699175
0.000000 0.999757 0.699175
0.000000 0.999757 0.699175
0.000000 0.999757 0.697586
0.941563 1.000829 0.650382
0.997997 0.998721 0.643577
0.195457 0.000000 0.715079
0.254655 0.000000 0.717927
0.329310 0.000000 0.720627
0.445895 0.000000 0.725933
0.597290 0.000000 0.728984
0.816715 0.000000 0.806882
0.968939 0.000000 0.849251
1.058601 0.000000 0.875926
1.088038 0.000000 0.875299
0.181500 0.000000 0.727263
0.240817 0.000000 0.728614
0.320004 0.000000 0.731323
0.447565 0.000000 0.735064
0.605832 0.000000 0.741118
0.831700 0.000000 0.823142
0.982821 0.000000 0.864318
1.058601 0.000000 0.875926
1.088038 0.000000 0.875299
0.152982 0.000000 0.733400
0.218803 0.000000 0.736287
0.303059 0.000000 0.740538
0.440886 0.000000 0.744269
0.605832 0.000000 0.747007
0.841656 0.000000 0.832405
0.993846 0.000000 0.878381
1.065487 0.000000 0.889739
1.088038 0.000000 0.875299
0.015888 0.171501 0.743432
0.175359 0.185799 0.744621
0.250061 0.187606 0.747253
0.362903 0.183584 0.751038
0.567333 0.164804 0.759449
0.845826 0.262928 0.844940
0.993854 0.280459 0.882148
1.071848 0.000000 0.904115
1.088038 0.000000 0.875299
0.000000 0.553588 0.835948
0.000000 0.566359 0.840523
0.000000 0.551472 0.837160
0.322521 0.458369 0.817265
0.564339 0.478440 0.833360
0.830884 0.506622 0.851595
0.981689 0.512130 0.869268
1.053666 0.547683 0.859064
1.068135 0.516594 0.872958
0.000000 0.672755 0.798729
0.000000 0.680464 0.801071
0.000000 0.717630 0.814235
0.000000 0.754999 0.832861
0.413141 0.760042 0.851135
0.756685 0.737320 0.842225
0.955573 0.742008 0.853336
1.034393 0.743815 0.821457
1.047449 0.719440 0.802745
0.000000 0.826099 0.821278
0.000000 0.826099 0.821278
0.000000 0.826099 0.821278
0.000000 0.826099 0.821278
0.000000 0.903813 0.864723
0.646024 0.912258 0.861424
0.900758 0.892064 0.833037
1.008629 0.885934 0.823010
1.024876 0.870811 0.811761
0.000000 0.946360 0.858767
0.000000 0.946360 0.858767
0.000000 0.946360 0.858767
0.000000 0.946360 0.858767
0.000000 0.946360 0.858767
0.000000 0.983949 0.879432
0.812973 0.978215 0.822578
0.971796 0.971088 0.818580
1.006240 0.969874 0.797285
0.000000 0.997706 0.845612
0.000000 0.997706 0.845612
0.000000 0.997706 0.845612
0.000000 0.997706 0.845612
0.000000 0.997706 0.845612
0.000000 0.997706 0.845612
0.000000 0.997706 0.845612
0.923990 1.001040 0.805597
0.997791 0.998307 0.804117
0.410942 0.000000 0.856004
0.450905 0.000000 0.857024
0.496549 0.000000 0.857968
0.568318 0.000000 0.858644
0.668425 0.000000 0.861432
0.795504 0.000000 0.875869
0.988164 0.000000 0.944426
1.062249 0.000000 0.965426
1.087416 0.000000 0.973885
0.405968 0.000000 0.858559
0.447565 0.000000 0.859572
0.493151 0.000000 0.860522
0.566545 0.000000 0.862457
0.670114 0.000000 0.863949
0.812167 0.000000 0.889489
0.992001 0.000000 0.948816
1.067241 0.000000 0.974258
1.087416 0.000000 0.973885
0.392964 0.000000 0.863682
0.435874 0.000000 0.863436
0.484654 0.000000 0.864376
0.561223 0.000000 0.865034
0.666735 0.000000 0.866525
0.827335 0.000000 0.899675
0.995690 0.000000 0.951427
1.072067 0.000000 0.981610
1.087416 0.000000 0.973885
0.354881 0.199354 0.866705
0.384802 0.198295 0.866545
0.428731 0.195552 0.867553
0.501066 0.185396 0.868350
0.630574 0.162162 0.869747
0.841631 0.222598 0.919064
0.993148 0.274377 0.954939
1.073113 0.000000 0.985787
1.088126 0.000000 0.983549
0.274317 0.349884 0.868465
0.312338 0.344274 0.868433
0.354789 0.339800 0.869591
0.416056 0.337276 0.871818
0.529945 0.334095 0.872130
0.818039 0.444287 0.929645
0.982291 0.505128 0.957076
1.054412 0.538946 0.976601
1.069227 0.502320 0.980507
0.000000 0.774783 0.942840
0.000000 0.766916 0.942974
0.000000 0.762637 0.945356
0.375849 0.726553 0.943852
0.561848 0.670587 0.938231
0.778652 0.708790 0.946424
0.956787 0.727298 0.955090
1.033739 0.720229 0.960798
1.049322 0.704526 0.947279
0.000000 0.829797 0.914702
0.000000 0.829797 0.914702
0.000000 0.829797 0.914702
0.000000 0.890599 0.936397
0.000000 0.906314 0.944101
0.673752 0.899591 0.946065
0.901828 0.875660 0.936776
1.005603 0.878909 0.937326
1.023785 0.877123 0.920338
0.000000 0.938588 0.930120
0.000000 0.938588 0.930120
0.000000 0.938588 0.930120
0.000000 0.938588 0.930120
0.000000 0.938588 0.930120
0.000000 0.985938 0.954566
0.828294 0.978951 0.942332
0.971245 0.964177 0.922934
1.008372 0.959383 0.909423
0.000000 0.999346 0.943181
0.000000 0.999346 0.943181
0.000000 0.999346 0.943181
0.000000 0.999346 0.943181
0.000000 0.999346 0.943181
0.000000 0.999346 0.943181
0.000000 1.014745 0.951952
0.920414 1.000562 0.913229
0.997637 0.997637 0.910052
0.619520 0.000000 0.951804
0.649867 0.000000 0.951528
0.680156 0.000000 0.952119
0.717993 0.000000 0.951725
0.770826 0.000000 0.952900
0.845932 0.000000 0.952830
1.010467 0.000000 1.003004
1.072944 0.000000 1.016290
1.087860 0.000000 1.019420
0.610935 0.000000 0.952758
0.643102 0.000000 0.953356
0.673461 0.000000 0.953064
0.709728 0.000000 0.953581
0.764443 0.000000 0.953856
0.845929 0.000000 0.953718
1.012274 0.000000 1.004131
1.073382 0.000000 1.017129
1.088126 0.000000 1.021879
0.591387 0.000000 0.953665
0.623849 0.000000 0.954265
0.659385 0.000000 0.953964
0.697666 0.000000 0.954466
0.756031 0.000000 0.953832
0.839945 0.000000 0.954600
1.011470 0.000000 1.004434
1.074095 0.000000 1.017476
1.088126 0.000000 1.023927
0.556605 0.237322 0.954439
0.586176 0.235417 0.954190
0.619254 0.229479 0.953929
0.661749 0.228343 0.954372
0.726772 0.219202 0.954575
0.825364 0.195791 0.955189
1.003118 0.346175 1.003510
1.066550 0.307228 1.015741
1.088113 0.000000 1.025459
0.493494 0.360022 0.953913
0.517554 0.360274 0.953722
0.549212 0.358384 0.954387
0.588422 0.355801 0.954082
0.656659 0.352264 0.954337
0.781951 0.342010 0.954734
0.990555 0.507886 1.002464
1.052456 0.540867 1.011353
1.066859 0.532573 1.018487
0.426780 0.498381 0.951645
0.453345 0.494271 0.951607
0.487758 0.489812 0.951507
0.529407 0.496721 0.951856
0.597898 0.507485 0.951783
0.702736 0.504074 0.952532
0.961008 0.683361 0.999674
1.034532 0.706883 1.005818
1.048205 0.713477 1.011058
0.227942 0.891586 0.992930
0.342077 0.888798 0.993179
0.425775 0.885662 0.994280
0.498470 0.883531 0.996129
0.619126 0.863284 0.997327
0.775622 0.847931 0.996531
0.916796 0.865960 0.997184
1.008251 0.874713 0.998659
1.025274 0.868487 1.000591
0.000000 0.941177 0.984270
0.000000 0.941177 0.984270
0.000000 0.941177 0.984270
0.000000 0.941177 0.984270
0.000000 0.982814 0.994638
0.508166 0.980278 0.993402
0.848346 0.972078 0.992031
0.974837 0.956812 0.985793
1.009086 0.954840 0.984411
0.000000 0.996067 0.985768
0.000000 0.996067 0.985768
0.000000 0.996067 0.985768
0.000000 0.996067 0.985768
0.000000 0.996067 0.985768
0.000000 0.996067 0.985768
0.499583 1.009186 0.993798
0.930278 1.000426 0.983595
0.998130 0.995351 0.976114
