transforms/AB05_aged_tinted_fpe_r709.cube
#  AB_06_FPE_r709.cube
LUT_3D_SIZE 33
0.000000 0.000000 0.000000
0.000975 0.000806 0.000583
0.003498 0.002534 0.001761
0.008057 0.005333 0.003490
0.014870 0.009393 0.005561
0.024523 0.014836 0.007927
0.036431 0.021778 0.010125
0.051719 0.030774 0.011973
0.070575 0.042202 0.013047
0.083644 0.046560 0.009145
0.097203 0.049428 0.000000
0.111072 0.052069 0.000000
0.125863 0.055104 0.000000
0.139701 0.056550 0.000000
0.153400 0.057958 0.000000
0.167432 0.059125 0.000000
0.184235 0.061101 0.000000
0.203528 0.063054 0.000000
0.222625 0.064518 0.000000
0.242146 0.065996 0.000000
0.264743 0.064864 0.000000
0.288699 0.062557 0.000000
0.313417 0.059160 0.000000
0.338644 0.054279 0.000000
0.363459 0.044616 0.000000
0.390426 0.027900 0.000000
0.418225 0.000000 0.000000
0.442222 0.000000 0.000000
0.463890 0.000000 0.000000
0.488907 0.000000 0.000000
0.510252 0.000000 0.000000
0.531083 0.000000 0.000000
0.553271 0.000000 0.000000
0.000841 0.000961 0.000651
0.000959 0.000972 0.000637
0.003388 0.002875 0.001821
0.007917 0.006060 0.003625
0.014833 0.010808 0.005808
0.024203 0.016990 0.008120
0.036534 0.024643 0.010216
0.052673 0.034688 0.011851
0.071607 0.046679 0.012856
0.084888 0.051030 0.008482
0.099357 0.053100 0.000000
0.113248 0.055024 0.000000
0.127479 0.057226 0.000000
0.143354 0.058684 0.000000
0.157956 0.060127 0.000000
0.172945 0.061236 0.000000
0.190024 0.063613 0.000000
0.208926 0.066106 0.000000
0.228217 0.068624 0.000000
0.247664 0.070642 0.000000
0.270604 0.069272 0.000000
0.295168 0.066893 0.000000
0.320168 0.063346 0.000000
0.345672 0.057974 0.000000
0.370329 0.048911 0.000000
0.397959 0.035247 0.000000
0.425225 0.000000 0.000000
0.448539 0.000000 0.000000
0.471740 0.000000 0.000000
0.493927 0.000000 0.000000
0.516752 0.000000 0.000000
0.538272 0.000000 0.000000
0.560760 0.000000 0.000000
0.002405 0.003399 0.002065
0.002696 0.003462 0.002039
0.003388 0.003551 0.002011
0.007762 0.006968 0.003784
0.014489 0.012387 0.006162
0.023761 0.019530 0.008841
0.036410 0.028081 0.011358
0.052535 0.038187 0.013313
0.073503 0.050816 0.014683
0.086421 0.055143 0.011697
0.101229 0.057068 0.000000
0.115322 0.058899 0.000000
0.129668 0.060746 0.000000
0.147174 0.062774 0.000000
0.161969 0.064335 0.000000
0.178642 0.065968 0.000000
0.194870 0.067832 0.000000
0.215369 0.070810 0.000000
0.233631 0.073338 0.000000
0.254324 0.076327 0.000000
0.278013 0.075719 0.000000
0.302827 0.072464 0.000000
0.328196 0.068588 0.000000
0.353830 0.062250 0.000000
0.377974 0.053320 0.000000
0.406165 0.041819 0.000000
0.433206 0.015053 0.000000
0.457308 0.000000 0.000000
0.479536 0.000000 0.000000
0.504559 0.000000 0.000000
0.525912 0.000000 0.000000
0.544977 0.000000 0.000000
0.567891 0.000000 0.000000
0.004374 0.007875 0.004454
0.004877 0.007869 0.004358
0.006479 0.008038 0.004268
0.007906 0.008197 0.004164
0.014244 0.013926 0.006625
0.023509 0.021920 0.009645
0.036146 0.031187 0.012395
0.052801 0.041821 0.014819
0.074657 0.054580 0.017143
0.087924 0.059151 0.015430
0.102870 0.060882 0.010548
0.118215 0.063026 0.000000
0.132821 0.064823 0.000000
0.150331 0.067447 0.000000
0.166922 0.069601 0.000000
0.183485 0.071789 0.000000
0.201071 0.074063 0.000000
0.221223 0.077285 0.000000
0.240871 0.080094 0.000000
0.262270 0.083294 0.000000
0.286360 0.083301 0.000000
0.312015 0.080646 0.000000
0.338050 0.077712 0.000000
0.363205 0.072837 0.000000
0.389614 0.064462 0.000000
0.418516 0.056930 0.000000
0.447661 0.043363 0.000000
0.470672 0.007900 0.000000
0.493098 0.000000 0.000000
0.517689 0.000000 0.000000
0.538684 0.000000 0.000000
0.555761 0.000000 0.000000
0.577490 0.000000 0.000000
0.005625 0.014879 0.008153
0.006794 0.014889 0.008018
0.009757 0.015094 0.007855
0.012549 0.015316 0.007673
0.014270 0.015859 0.007656
0.022734 0.023598 0.010962
0.035415 0.033564 0.014550
0.052909 0.045321 0.017738
0.075022 0.058849 0.020784
0.089451 0.064198 0.019979
0.104836 0.066512 0.016511
0.120731 0.069516 0.011886
0.135494 0.071567 0.000000
0.154365 0.074786 0.000000
0.171688 0.077192 0.000000
0.188623 0.079775 0.000000
0.206378 0.081992 0.000000
0.227845 0.084917 0.000000
0.246944 0.087366 0.000000
0.268759 0.090716 0.000000
0.294870 0.091557 0.000000
0.321067 0.088866 0.000000
0.347555 0.086205 0.000000
0.373132 0.081888 0.000000
0.401052 0.075501 0.000000
0.429972 0.069179 0.000000
0.459093 0.061280 0.000000
0.482564 0.043563 0.000000
0.504941 0.000000 0.000000
0.527278 0.000000 0.000000
0.549410 0.000000 0.000000
0.566356 0.000000 0.000000
0.595213 0.000000 0.000000
0.003008 0.024816 0.013261
0.006848 0.024880 0.013144
0.012760 0.025069 0.012861
0.017703 0.025316 0.012593
0.020887 0.026024 0.012741
0.023277 0.026628 0.012945
0.035055 0.036067 0.016607
0.053063 0.048579 0.020546
0.076484 0.063416 0.024660
0.091630 0.069170 0.023901
0.108353 0.072486 0.021058
0.123908 0.076243 0.018057
0.140100 0.079444 0.011601
0.158344 0.082962 0.000000
0.176445 0.086149 0.000000
0.194571 0.089021 0.000000
0.214871 0.091926 0.000000
0.235583 0.094526 0.000000
0.256738 0.097420 0.000000
0.278054 0.100512 0.000000
0.305165 0.101425 0.000000
0.332177 0.099668 0.000000
0.359002 0.097248 0.000000
0.386734 0.092813 0.000000
0.413478 0.086957 0.000000
0.441550 0.082629 0.000000
0.472550 0.076308 0.000000
0.495329 0.064894 0.000000
0.521598 0.048537 0.000000
0.545539 0.000000 0.000000
0.564740 0.000000 0.000000
0.578056 0.000000 0.000000
0.608269 0.000000 0.000000
0.000000 0.038292 0.020546
0.000000 0.038311 0.020336
0.012621 0.039021 0.020320
0.021677 0.039413 0.019995
0.027427 0.040244 0.019929
0.031381 0.041623 0.020256
0.037720 0.043204 0.020124
0.056265 0.055899 0.024223
0.082680 0.073001 0.029287
0.100185 0.078232 0.027792
0.116559 0.082098 0.025015
0.133747 0.085820 0.020900
0.152276 0.090430 0.013261
0.171600 0.093589 0.000000
0.189556 0.096846 0.000000
0.207969 0.100107 0.000000
0.231594 0.103369 0.000000
0.253594 0.105916 0.000000
0.274799 0.108864 0.000000
0.298469 0.110983 0.000000
0.326972 0.110879 0.000000
0.352294 0.107907 0.000000
0.379791 0.105870 0.000000
0.407974 0.101080 0.000000
0.434951 0.096264 0.000000
0.465302 0.092038 0.000000
0.493365 0.087337 0.000000
0.516984 0.076968 0.000000
0.540729 0.065538 0.000000
0.562233 0.040949 0.000000
0.584446 0.000000 0.000000
0.601995 0.000000 0.000000
0.620084 0.000000 0.000000
0.000000 0.056415 0.030708
0.000000 0.056354 0.030438
0.000000 0.057202 0.030390
0.021498 0.057832 0.030162
0.032841 0.059049 0.029847
0.038987 0.061458 0.030211
0.047470 0.063963 0.029894
0.061258 0.067653 0.028814
0.088634 0.086831 0.034205
0.109099 0.091922 0.031556
0.127080 0.096822 0.028266
0.145323 0.100244 0.023068
0.165959 0.104491 0.012169
0.186690 0.108095 0.000000
0.206461 0.112405 0.000000
0.228834 0.116117 0.000000
0.252888 0.120120 0.000000
0.276107 0.122975 0.000000
0.299698 0.125697 0.000000
0.326236 0.125544 0.000000
0.352284 0.124510 0.000000
0.378354 0.119640 0.000000
0.404228 0.114828 0.000000
0.430930 0.109494 0.000000
0.457692 0.104220 0.000000
0.490678 0.100716 0.000000
0.513779 0.095636 0.000000
0.537789 0.087359 0.000000
0.562911 0.077334 0.000000
0.583420 0.064005 0.000000
0.600707 0.043825 0.000000
0.620224 0.000000 0.000000
0.634961 0.000000 0.000000
0.000000 0.078727 0.043168
0.000000 0.079076 0.042919
0.000000 0.079253 0.042683
0.000000 0.080709 0.042613
0.034561 0.082124 0.042237
0.044171 0.085844 0.042036
0.055209 0.089381 0.041683
0.076217 0.095234 0.040105
0.096072 0.101001 0.037993
0.117393 0.106751 0.034864
0.138625 0.112404 0.030513
0.159582 0.116418 0.024143
0.183384 0.120611 0.000000
0.203975 0.123869 0.000000
0.224526 0.127895 0.000000
0.252377 0.132149 0.000000
0.277047 0.136006 0.000000
0.302337 0.139603 0.000000
0.328124 0.142167 0.000000
0.355063 0.141572 0.000000
0.382633 0.140037 0.000000
0.406951 0.134778 0.000000
0.430913 0.127604 0.000000
0.457542 0.123244 0.000000
0.486329 0.118880 0.000000
0.514877 0.116903 0.000000
0.537391 0.112326 0.000000
0.562531 0.106335 0.000000
0.585749 0.098433 0.000000
0.600907 0.087315 0.000000
0.622609 0.081235 0.000000
0.639708 0.062796 0.000000
0.655805 0.045061 0.000000
0.000000 0.090927 0.047034
0.000000 0.090781 0.046554
0.000000 0.091531 0.046333
0.000000 0.093080 0.046476
0.000000 0.095058 0.046339
0.029248 0.098914 0.045599
0.046220 0.103541 0.045001
0.073464 0.110543 0.043029
0.096243 0.116583 0.040436
0.121693 0.123257 0.036437
0.143584 0.129032 0.031507
0.170037 0.134357 0.021005
0.193803 0.138422 0.000000
0.220973 0.143875 0.000000
0.244801 0.147359 0.000000
0.272182 0.152622 0.000000
0.299357 0.156355 0.000000
0.324957 0.160332 0.000000
0.354831 0.161530 0.000000
0.382441 0.160988 0.000000
0.410813 0.158732 0.000000
0.436318 0.152007 0.000000
0.461445 0.146399 0.000000
0.488525 0.143078 0.000000
0.517455 0.139725 0.000000
0.542189 0.137859 0.000000
0.565498 0.135158 0.000000
0.589747 0.130222 0.000000
0.609793 0.125529 0.000000
0.628129 0.120308 0.000000
0.647434 0.114455 0.000000
0.660809 0.107392 0.000000
0.677388 0.101540 0.000000
0.000000 0.103156 0.050804
0.000000 0.103539 0.050524
0.000000 0.103786 0.050185
0.000000 0.105506 0.050215
0.000000 0.107648 0.050241
0.000000 0.112648 0.049306
0.032054 0.118008 0.048095
0.069598 0.125440 0.045626
0.096671 0.132562 0.042468
0.123532 0.139377 0.037739
0.150342 0.146276 0.031067
0.179692 0.152480 0.013459
0.207926 0.157991 0.000000
0.235829 0.163858 0.000000
0.267481 0.168847 0.000000
0.295508 0.173910 0.000000
0.324204 0.179735 0.000000
0.353359 0.183063 0.000000
0.382941 0.184983 0.000000
0.410976 0.184288 0.000000
0.439798 0.182324 0.000000
0.466358 0.176757 0.000000
0.491777 0.169434 0.000000
0.521020 0.166122 0.000000
0.546760 0.163546 0.000000
0.571272 0.162405 0.000000
0.596188 0.161108 0.000000
0.617905 0.156285 0.000000
0.636317 0.154251 0.000000
0.654645 0.149532 0.000000
0.671861 0.144596 0.000000
0.684618 0.142379 0.000000
0.698751 0.136986 0.000000
0.000000 0.117273 0.053936
0.000000 0.117825 0.053266
0.000000 0.118604 0.052801
0.000000 0.120708 0.052423
0.000000 0.122271 0.051682
0.000000 0.127925 0.050371
0.000000 0.133083 0.048767
0.055009 0.141521 0.045526
0.089933 0.149268 0.041266
0.124190 0.158360 0.033897
0.154455 0.167473 0.021342
0.191320 0.176291 0.000000
0.223005 0.182615 0.000000
0.256360 0.189257 0.000000
0.290197 0.195255 0.000000
0.321094 0.200555 0.000000
0.351488 0.205454 0.000000
0.383599 0.208267 0.000000
0.413497 0.209373 0.000000
0.442847 0.210214 0.000000
0.473105 0.209423 0.000000
0.503401 0.208979 0.000000
0.530842 0.202628 0.000000
0.560161 0.201923 0.000000
0.583665 0.197557 0.000000
0.605429 0.196439 0.000000
0.631272 0.196201 0.000000
0.649551 0.192953 0.000000
0.668220 0.190790 0.000000
0.686350 0.187436 0.000000
0.702308 0.187920 0.000000
0.712322 0.184239 0.000000
0.728947 0.184888 0.000000
0.000000 0.134087 0.056113
0.000000 0.134024 0.054919
0.000000 0.135021 0.053902
0.000000 0.136940 0.052380
0.000000 0.138832 0.051013
0.000000 0.143827 0.049482
0.000000 0.149482 0.047516
0.031821 0.158393 0.043383
0.081511 0.167126 0.037744
0.120124 0.178232 0.025533
0.155913 0.188879 0.000000
0.197492 0.199544 0.000000
0.239619 0.210940 0.000000
0.276398 0.217604 0.000000
0.313467 0.225496 0.000000
0.345541 0.231389 0.000000
0.382399 0.236016 0.000000
0.417068 0.238614 0.000000
0.448016 0.240585 0.000000
0.480301 0.242344 0.000000
0.512355 0.243800 0.000000
0.541892 0.243839 0.000000
0.574606 0.244903 0.000000
0.600178 0.243700 0.000000
0.623964 0.241477 0.000000
0.645730 0.240266 0.000000
0.669242 0.237503 0.000000
0.685538 0.236376 0.000000
0.702517 0.233748 0.000000
0.719202 0.232496 0.000000
0.730881 0.232772 0.000000
0.741633 0.228972 0.000000
0.755153 0.229661 0.000000
0.000000 0.149736 0.057850
0.000000 0.150390 0.056221
0.000000 0.151540 0.054644
0.000000 0.153489 0.052514
0.000000 0.155359 0.050448
0.000000 0.160216 0.048410
0.000000 0.167364 0.045094
0.000000 0.177509 0.039645
0.065419 0.187228 0.030818
0.114845 0.200712 0.000000
0.156040 0.212667 0.000000
0.207199 0.227251 0.000000
0.254392 0.239387 0.000000
0.298364 0.247931 0.000000
0.337107 0.255574 0.000000
0.371995 0.262252 0.000000
0.409706 0.266151 0.000000
0.448287 0.270881 0.000000
0.484103 0.273267 0.000000
0.517603 0.275925 0.000000
0.550556 0.277737 0.000000
0.584282 0.281777 0.000000
0.615013 0.282989 0.000000
0.636420 0.281798 0.000000
0.660156 0.280247 0.000000
0.683557 0.279883 0.000000
0.701680 0.278572 0.000000
0.719438 0.278172 0.000000
0.735533 0.276466 0.000000
0.750006 0.276465 0.000000
0.760310 0.274169 0.000000
0.772600 0.273455 0.000000
0.779572 0.271460 0.000000
0.000000 0.172915 0.066344
0.000000 0.174105 0.065028
0.000000 0.175565 0.062255
0.000000 0.177171 0.059066
0.000000 0.178786 0.054996
0.000000 0.184140 0.048701
0.000000 0.190532 0.040996
0.000000 0.200256 0.030972
0.000000 0.213089 0.000000
0.103090 0.227727 0.000000
0.153564 0.242248 0.000000
0.210506 0.258407 0.000000
0.266977 0.274885 0.000000
0.317030 0.285751 0.000000
0.363045 0.294245 0.000000
0.400855 0.301322 0.000000
0.442260 0.306673 0.000000
0.483537 0.311638 0.000000
0.522295 0.315408 0.000000
0.555816 0.316850 0.000000
0.589608 0.320425 0.000000
0.623001 0.324037 0.000000
0.650491 0.329319 0.000000
0.673519 0.328034 0.000000
0.697608 0.326741 0.000000
0.718546 0.326804 0.000000
0.735478 0.327109 0.000000
0.753122 0.326121 0.000000
0.767836 0.324384 0.000000
0.778429 0.322861 0.000000
0.789909 0.320226 0.000000
0.798229 0.317239 0.000000
0.806356 0.316460 0.000000
0.000000 0.198353 0.076127
0.000000 0.200675 0.074498
0.000000 0.202091 0.070100
0.000000 0.203538 0.066449
0.000000 0.205930 0.061514
0.000000 0.210491 0.049534
0.000000 0.215258 0.034652
0.000000 0.224978 0.000000
0.000000 0.239893 0.000000
0.094738 0.258534 0.000000
0.152092 0.274628 0.000000
0.218440 0.294376 0.000000
0.280719 0.313780 0.000000
0.336482 0.327155 0.000000
0.387501 0.338091 0.000000
0.431561 0.345052 0.000000
0.474288 0.351631 0.000000
0.516502 0.356754 0.000000
0.557651 0.361010 0.000000
0.593556 0.363295 0.000000
0.626952 0.366464 0.000000
0.659361 0.370331 0.000000
0.683598 0.371316 0.000000
0.707817 0.372153 0.000000
0.731378 0.371302 0.000000
0.749445 0.372324 0.000000
0.766715 0.373021 0.000000
0.784228 0.372221 0.000000
0.796687 0.372879 0.000000
0.807939 0.371945 0.000000
0.818871 0.370639 0.000000
0.824266 0.367974 0.000000
0.832825 0.366403 0.000000
0.000000 0.228328 0.088971
0.000000 0.230165 0.086518
0.000000 0.231801 0.082778
0.000000 0.234639 0.080183
0.000000 0.237569 0.076058
0.000000 0.240549 0.059025
0.000000 0.244341 0.041026
0.000000 0.253166 0.000000
0.000000 0.270193 0.000000
0.033859 0.289973 0.000000
0.140118 0.309286 0.000000
0.225208 0.338204 0.000000
0.294398 0.358954 0.000000
0.355348 0.376311 0.000000
0.410370 0.388093 0.000000
0.458996 0.396124 0.000000
0.508823 0.401206 0.000000
0.554734 0.408021 0.000000
0.596909 0.410488 0.000000
0.634782 0.413392 0.000000
0.666837 0.416650 0.000000
0.693006 0.415468 0.000000
0.717562 0.416649 0.000000
0.741590 0.416225 0.000000
0.763253 0.417544 0.000000
0.780607 0.420057 0.000000
0.799887 0.421416 0.000000
0.813998 0.421928 0.000000
0.824894 0.420921 0.000000
0.835456 0.421210 0.000000
0.844065 0.420092 0.000000
0.850896 0.419310 0.000000
0.857650 0.417379 0.000000
0.000000 0.262153 0.104582
0.000000 0.263882 0.102082
0.000000 0.265465 0.098584
0.000000 0.268072 0.096921
0.000000 0.271053 0.092543
0.000000 0.273949 0.073490
0.000000 0.275787 0.046922
0.000000 0.282285 0.000000
0.000000 0.299870 0.000000
0.000000 0.319881 0.000000
0.122047 0.345779 0.000000
0.231013 0.378781 0.000000
0.307707 0.406259 0.000000
0.374400 0.427528 0.000000
0.435082 0.443317 0.000000
0.489733 0.450070 0.000000
0.543450 0.454984 0.000000
0.594459 0.459490 0.000000
0.636904 0.462339 0.000000
0.674816 0.465772 0.000000
0.702924 0.467173 0.000000
0.728292 0.466083 0.000000
0.751986 0.463276 0.000000
0.775895 0.463385 0.000000
0.793427 0.464590 0.000000
0.812654 0.467707 0.000000
0.832447 0.472439 0.000000
0.841992 0.471318 0.000000
0.852044 0.471769 0.000000
0.862869 0.470874 0.000000
0.870031 0.472042 0.000000
0.876485 0.472595 0.000000
0.885039 0.474105 0.000000
0.000000 0.295481 0.120488
0.000000 0.297181 0.117800
0.000000 0.298262 0.114163
0.000000 0.301761 0.111175
0.000000 0.302867 0.106628
0.000000 0.305281 0.092769
0.000000 0.306854 0.059168
0.000000 0.310609 0.000000
0.000000 0.327062 0.000000
0.000000 0.348819 0.000000
0.100847 0.378070 0.000000
0.229477 0.416068 0.000000
0.315687 0.447868 0.000000
0.393225 0.474393 0.000000
0.457480 0.490613 0.000000
0.516062 0.496345 0.000000
0.576047 0.502178 0.000000
0.628322 0.505679 0.000000
0.675662 0.511631 0.000000
0.713060 0.513869 0.000000
0.737328 0.516386 0.000000
0.762661 0.514630 0.000000
0.788272 0.512857 0.000000
0.807946 0.513497 0.000000
0.826679 0.513920 0.000000
0.845853 0.518676 0.000000
0.860505 0.523044 0.000000
0.870966 0.524160 0.000000
0.880393 0.523409 0.000000
0.889103 0.524633 0.000000
0.896014 0.525585 0.000000
0.903200 0.526618 0.000000
0.907986 0.528161 0.000000
0.000000 0.323519 0.124073
0.000000 0.325620 0.119415
0.000000 0.327897 0.116743
0.000000 0.329963 0.111676
0.000000 0.332893 0.104778
0.000000 0.333292 0.091805
0.000000 0.336000 0.050502
0.000000 0.341994 0.000000
0.000000 0.356534 0.000000
0.000000 0.377286 0.000000
0.065993 0.411458 0.000000
0.215789 0.447083 0.000000
0.320329 0.486577 0.000000
0.401565 0.513088 0.000000
0.476145 0.533060 0.000000
0.539786 0.541299 0.000000
0.602353 0.550816 0.000000
0.656747 0.553788 0.000000
0.708329 0.559806 0.000000
0.742880 0.561906 0.000000
0.768172 0.563329 0.000000
0.794019 0.562056 0.000000
0.817594 0.560376 0.000000
0.835908 0.559487 0.000000
0.857172 0.561938 0.000000
0.872737 0.564757 0.000000
0.883938 0.568909 0.000000
0.894617 0.570208 0.000000
0.904566 0.572587 0.000000
0.910530 0.570788 0.000000
0.917380 0.573125 0.000000
0.922901 0.574156 0.000000
0.927565 0.574013 0.000000
0.000000 0.351588 0.126627
0.000000 0.353480 0.121469
0.000000 0.355355 0.116768
0.000000 0.357231 0.112131
0.000000 0.360164 0.101795
0.000000 0.362856 0.084337
0.000000 0.363734 0.038683
0.000000 0.372383 0.000000
0.000000 0.385325 0.000000
0.000000 0.407619 0.000000
0.000000 0.437751 0.000000
0.198978 0.474118 0.000000
0.309237 0.510913 0.000000
0.398612 0.538196 0.000000
0.477927 0.561801 0.000000
0.551520 0.575444 0.000000
0.620292 0.588611 0.000000
0.681370 0.597958 0.000000
0.738360 0.607289 0.000000
0.769513 0.610437 0.000000
0.796193 0.611586 0.000000
0.822442 0.611511 0.000000
0.844104 0.610619 0.000000
0.863478 0.610495 0.000000
0.882624 0.609873 0.000000
0.894842 0.612713 0.000000
0.905923 0.615590 0.000000
0.916659 0.617039 0.000000
0.924046 0.616755 0.000000
0.930712 0.618053 0.000000
0.936503 0.617590 0.000000
0.941744 0.617216 0.000000
0.946255 0.617842 0.000000
0.000000 0.380000 0.127741
0.000000 0.380422 0.121802
0.000000 0.382125 0.115672
0.000000 0.384332 0.107019
0.000000 0.386247 0.094136
0.000000 0.387620 0.071974
0.000000 0.391308 0.000000
0.000000 0.399030 0.000000
0.000000 0.414099 0.000000
0.000000 0.435009 0.000000
0.000000 0.465723 0.000000
0.169297 0.499212 0.000000
0.290763 0.536949 0.000000
0.382777 0.565571 0.000000
0.477077 0.593283 0.000000
0.560684 0.610792 0.000000
0.645939 0.633547 0.000000
0.710278 0.645202 0.000000
0.767018 0.656933 0.000000
0.797291 0.656291 0.000000
0.823781 0.657151 0.000000
0.849406 0.654792 0.000000
0.869004 0.654868 0.000000
0.889549 0.655096 0.000000
0.905869 0.654716 0.000000
0.915581 0.653708 0.000000
0.926578 0.656457 0.000000
0.936571 0.656854 0.000000
0.941896 0.656441 0.000000
0.947650 0.656260 0.000000
0.953969 0.656882 0.000000
0.955912 0.655418 0.000000
0.961309 0.655923 0.000000
0.000000 0.404361 0.125512
0.000000 0.404261 0.120699
0.000000 0.407289 0.111968
0.000000 0.409168 0.104652
0.000000 0.410457 0.095546
0.000000 0.414621 0.052798
0.000000 0.417874 0.000000
0.000000 0.433573 0.000000
0.000000 0.443066 0.000000
0.000000 0.463016 0.000000
0.000000 0.492894 0.000000
0.137682 0.521137 0.000000
0.260865 0.553889 0.000000
0.350770 0.580435 0.000000
0.454204 0.611355 0.000000
0.563504 0.639462 0.000000
0.655349 0.664671 0.000000
0.735589 0.684098 0.000000
0.790745 0.695899 0.000000
0.825412 0.699512 0.000000
0.851625 0.698042 0.000000
0.873778 0.697055 0.000000
0.892315 0.696287 0.000000
0.913549 0.697748 0.000000
0.926624 0.698033 0.000000
0.937256 0.698010 0.000000
0.947150 0.696975 0.000000
0.953490 0.696326 0.000000
0.958399 0.694289 0.000000
0.966343 0.696106 0.000000
0.968948 0.694345 0.000000
0.972025 0.693787 0.000000
0.975299 0.693378 0.000000
0.000000 0.425621 0.125929
0.000000 0.428239 0.115741
0.000000 0.429334 0.108897
0.000000 0.430380 0.102921
0.000000 0.434921 0.067234
0.000000 0.438122 0.000000
0.000000 0.440681 0.000000
0.000000 0.448763 0.000000
0.000000 0.461682 0.000000
0.000000 0.481923 0.000000
0.000000 0.503760 0.000000
0.000000 0.535301 0.000000
0.234312 0.569526 0.000000
0.343692 0.601952 0.000000
0.448724 0.632947 0.000000
0.565390 0.664836 0.000000
0.667855 0.693815 0.000000
0.753930 0.714804 0.000000
0.807701 0.727049 0.000000
0.844599 0.731465 0.000000
0.870541 0.731149 0.000000
0.891490 0.729335 0.000000
0.912307 0.728246 0.000000
0.931856 0.729495 0.000000
0.941998 0.728304 0.000000
0.952662 0.728833 0.000000
0.962203 0.728528 0.000000
0.966850 0.726014 0.000000
0.973095 0.725912 0.000000
0.978644 0.726359 0.000000
0.981977 0.726554 0.000000
0.986183 0.727374 0.000000
0.987080 0.725262 0.000000
0.000000 0.442732 0.123569
0.000000 0.445890 0.111890
0.000000 0.446975 0.106114
0.000000 0.449935 0.087543
0.000000 0.453517 0.038702
0.000000 0.457531 0.000000
0.000000 0.459547 0.000000
0.000000 0.470325 0.000000
0.000000 0.482873 0.000000
0.000000 0.495137 0.000000
0.000000 0.522886 0.000000
0.000000 0.554849 0.000000
0.214352 0.584949 0.000000
0.323459 0.614095 0.000000
0.444179 0.649927 0.000000
0.565690 0.683297 0.000000
0.676753 0.713737 0.000000
0.767782 0.735731 0.000000
0.821397 0.747751 0.000000
0.859861 0.754170 0.000000
0.885421 0.754537 0.000000
0.907208 0.755768 0.000000
0.929344 0.756416 0.000000
0.946079 0.757728 0.000000
0.956871 0.758728 0.000000
0.967666 0.758372 0.000000
0.974323 0.756943 0.000000
0.979209 0.755038 0.000000
0.985420 0.753812 0.000000
0.988709 0.752835 0.000000
0.993132 0.753729 0.000000
0.995664 0.752498 0.000000
0.997947 0.752013 0.000000
0.000000 0.457889 0.121688
0.000000 0.462131 0.109255
0.000000 0.463549 0.103944
0.000000 0.467375 0.080475
0.000000 0.468588 0.060376
0.000000 0.474120 0.000000
0.000000 0.475126 0.000000
0.000000 0.484847 0.000000
0.000000 0.495394 0.000000
0.000000 0.504041 0.000000
0.000000 0.531793 0.000000
0.000000 0.561619 0.000000
0.182245 0.591600 0.000000
0.305049 0.622283 0.000000
0.427545 0.658515 0.000000
0.551262 0.692464 0.000000
0.664347 0.723980 0.000000
0.760928 0.747979 0.000000
0.820273 0.761982 0.000000
0.862751 0.768408 0.000000
0.890374 0.770066 0.000000
0.915592 0.772539 0.000000
0.936816 0.773985 0.000000
0.953115 0.775114 0.000000
0.965269 0.776407 0.000000
0.976593 0.776623 0.000000
0.981993 0.775239 0.000000
0.987647 0.774713 0.000000
0.993874 0.774925 0.000000
0.997314 0.774963 0.000000
1.001267 0.775781 0.000000
1.004310 0.775671 0.000000
1.007463 0.776326 0.000000
0.000000 0.471040 0.118855
0.000000 0.474984 0.103062
0.000000 0.478437 0.082029
0.000000 0.477829 0.081658
0.000000 0.484980 0.000000
0.000000 0.487870 0.000000
0.000000 0.487870 0.000000
0.000000 0.499932 0.000000
0.000000 0.504008 0.000000
0.000000 0.513771 0.000000
0.000000 0.545468 0.000000
0.000000 0.563350 0.000000
0.147481 0.600092 0.000000
0.268378 0.626343 0.000000
0.407013 0.664861 0.000000
0.533192 0.700378 0.000000
0.659741 0.734281 0.000000
0.752471 0.756223 0.000000
0.817000 0.770800 0.000000
0.861216 0.778418 0.000000
0.894521 0.782992 0.000000
0.919571 0.786294 0.000000
0.944777 0.789870 0.000000
0.960152 0.791996 0.000000
0.973311 0.793703 0.000000
0.983982 0.793708 0.000000
0.989669 0.792720 0.000000
0.995717 0.792342 0.000000
1.000664 0.791545 0.000000
