transforms/AB05_aged_tinted_fpe_r709.cube
#  AB_06_FPE_r709.cube
LUT_3D_SIZE 5
0.000000 0.000000 0.000000
0.070575 0.042202 0.013047
0.184235 0.061101 0.000000
0.363459 0.044616 0.000000
0.553271 0.000000 0.000000
0.000000 0.078727 0.043168
0.096072 0.101001 0.037993
0.277047 0.136006 0.000000
0.486329 0.118880 0.000000
0.655805 0.045061 0.000000
0.000000 0.228328 0.088971
0.000000 0.270193 0.000000
0.508823 0.401206 0.000000
0.763253 0.417544 0.000000
0.857650 0.417379 0.000000
0.000000 0.442732 0.123569
0.000000 0.482873 0.000000
0.676753 0.713737 0.000000
0.956871 0.758728 0.000000
0.997947 0.752013 0.000000
0.000000 0.526529 0.043375
0.000000 0.555441 0.000000
0.511572 0.731044 0.000000
0.991139 0.835230 0.000000
1.029869 0.840653 0.000000
0.021128 0.022648 0.059878
0.072996 0.044689 0.071219
0.200546 0.060684 0.069778
0.392848 0.027274 0.048447
0.582026 0.000000 0.000000
0.000000 0.088325 0.101026
0.098043 0.110874 0.106864
0.300731 0.142873 0.101514
0.525644 0.114640 0.000000
0.681654 0.000000 0.000000
0.000000 0.285660 0.188449
0.000000 0.312393 0.160539
0.558349 0.455515 0.158341
0.803662 0.460273 0.153668
0.890049 0.456993 0.147335
0.000000 0.519743 0.291492
0.000000 0.552475 0.253235
0.668442 0.771191 0.248163
0.968715 0.825041 0.309171
1.006043 0.825403 0.351522
0.000000 0.578455 0.293525
0.000000 0.618750 0.271535
0.403187 0.765347 0.268808
0.985437 0.895657 0.340602
1.018053 0.909663 0.412376
0.012966 0.001918 0.156903
0.071678 0.012629 0.170306
0.199786 0.050361 0.186987
0.406422 0.000000 0.189054
0.599996 0.000000 0.194720
0.000000 0.086208 0.233577
0.062399 0.095442 0.265974
0.306430 0.152736 0.299608
0.538196 0.097351 0.233293
0.693175 0.000000 0.222225
0.000000 0.360340 0.447155
0.000000 0.391932 0.471033
0.574907 0.561829 0.542009
0.822836 0.520930 0.496009
0.900665 0.507473 0.492693
0.000000 0.630453 0.607852
0.000000 0.674307 0.624533
0.576074 0.833699 0.646775
0.961165 0.895498 0.682732
0.997977 0.891829 0.695422
0.000000 0.696410 0.652335
0.000000 0.729240 0.670032
0.191387 0.833495 0.675935
0.963962 0.956182 0.742027
1.007364 0.964849 0.766411
0.035930 0.000000 0.284615
0.079210 0.000000 0.307100
0.196203 0.000000 0.339721
0.418180 0.000000 0.367256
0.612916 0.000000 0.373325
0.000000 0.045631 0.373504
0.030499 0.011385 0.403385
0.258916 0.057447 0.446439
0.502113 0.000000 0.421628
0.680772 0.000000 0.416487
0.000000 0.335696 0.574448
0.000000 0.375256 0.624708
0.449630 0.501263 0.724715
0.839092 0.625040 0.774885
0.916253 0.583909 0.750087
0.000000 0.641261 0.755292
0.000000 0.700328 0.792845
0.474363 0.856045 0.863440
0.953432 0.939861 0.909399
0.992126 0.930825 0.898969
0.000000 0.759558 0.828353
0.000000 0.768750 0.833922
0.000000 0.854288 0.865683
0.938229 0.980857 0.930941
1.001080 0.989202 0.935427
0.100253 0.000000 0.412603
0.128994 0.000000 0.428302
0.231449 0.000000 0.481542
0.420350 0.000000 0.521692
0.633330 0.000000 0.549441
0.006127 0.000000 0.483801
0.094841 0.000000 0.510960
0.274023 0.000000 0.585442
0.516856 0.000000 0.596196
0.701895 0.000000 0.604848
0.000000 0.296353 0.635594
0.000000 0.338204 0.694174
0.426401 0.446501 0.805826
0.803416 0.564995 0.872859
0.919602 0.614462 0.891232
0.000000 0.615391 0.789777
0.000000 0.676805 0.830040
0.430461 0.840498 0.923889
0.921824 0.927844 0.970514
0.990081 0.949871 0.978566
0.000000 0.724963 0.841997
0.000000 0.766138 0.868491
0.000000 0.848546 0.910607
0.914485 0.984994 0.984194
0.998438 0.996629 0.993049
