transforms/AB05_aged_tinted_fpe_r709.cube
#  AB_06_FPE_r709.cube
LUT_3D_SIZE 9
0.000000 0.000000 0.000000
0.014870 0.009393 0.005561
0.070575 0.042202 0.013047
0.125863 0.055104 0.000000
0.184235 0.061101 0.000000
0.264743 0.064864 0.000000
0.363459 0.044616 0.000000
0.463890 0.000000 0.000000
0.553271 0.000000 0.000000
0.005625 0.014879 0.008153
0.014270 0.015859 0.007656
0.075022 0.058849 0.020784
0.135494 0.071567 0.000000
0.206378 0.081992 0.000000
0.294870 0.091557 0.000000
0.401052 0.075501 0.000000
0.504941 0.000000 0.000000
0.595213 0.000000 0.000000
0.000000 0.078727 0.043168
0.034561 0.082124 0.042237
0.096072 0.101001 0.037993
0.183384 0.120611 0.000000
0.277047 0.136006 0.000000
0.382633 0.140037 0.000000
0.486329 0.118880 0.000000
0.585749 0.098433 0.000000
0.655805 0.045061 0.000000
0.000000 0.134087 0.056113
0.000000 0.138832 0.051013
0.081511 0.167126 0.037744
0.239619 0.210940 0.000000
0.382399 0.236016 0.000000
0.512355 0.243800 0.000000
0.623964 0.241477 0.000000
0.702517 0.233748 0.000000
0.755153 0.229661 0.000000
0.000000 0.228328 0.088971
0.000000 0.237569 0.076058
0.000000 0.270193 0.000000
0.294398 0.358954 0.000000
0.508823 0.401206 0.000000
0.666837 0.416650 0.000000
0.763253 0.417544 0.000000
0.824894 0.420921 0.000000
0.857650 0.417379 0.000000
0.000000 0.351588 0.126627
0.000000 0.360164 0.101795
0.000000 0.385325 0.000000
0.309237 0.510913 0.000000
0.620292 0.588611 0.000000
0.796193 0.611586 0.000000
0.882624 0.609873 0.000000
0.924046 0.616755 0.000000
0.946255 0.617842 0.000000
0.000000 0.442732 0.123569
0.000000 0.453517 0.038702
0.000000 0.482873 0.000000
0.214352 0.584949 0.000000
0.676753 0.713737 0.000000
0.885421 0.754537 0.000000
0.956871 0.758728 0.000000
0.985420 0.753812 0.000000
0.997947 0.752013 0.000000
0.000000 0.496496 0.099411
0.000000 0.502818 0.000000
0.000000 0.517086 0.000000
0.000000 0.586556 0.000000
0.632527 0.744246 0.000000
0.897081 0.801705 0.000000
0.983089 0.814095 0.000000
1.010521 0.814604 0.000000
1.022172 0.816385 0.000000
0.000000 0.526529 0.043375
0.000000 0.525800 0.040660
0.000000 0.555441 0.000000
0.000000 0.596884 0.000000
0.511572 0.731044 0.000000
0.875335 0.814802 0.000000
0.991139 0.835230 0.000000
1.019522 0.838410 0.000000
1.029869 0.840653 0.000000
0.007262 0.006961 0.010672
0.014758 0.009457 0.011826
0.073184 0.044173 0.037642
0.129907 0.055114 0.036817
0.195550 0.061156 0.026926
0.279704 0.065154 0.000000
0.384422 0.036534 0.000000
0.483820 0.000000 0.000000
0.573228 0.000000 0.000000
0.003559 0.014432 0.014399
0.014020 0.015872 0.014453
0.079756 0.060188 0.047082
0.142377 0.072125 0.047012
0.220318 0.079655 0.034891
0.309906 0.085612 0.000000
0.419665 0.071397 0.000000
0.522165 0.000000 0.000000
0.610106 0.000000 0.000000
0.000000 0.082187 0.062497
0.026600 0.086092 0.061936
0.102567 0.104583 0.061859
0.192488 0.125451 0.054840
0.293719 0.140039 0.032393
0.402525 0.141465 0.000000
0.512181 0.118357 0.000000
0.607134 0.087423 0.000000
0.677987 0.000000 0.000000
0.000000 0.141535 0.075946
0.000000 0.146089 0.071164
0.077394 0.176544 0.065785
0.255643 0.223755 0.039337
0.406669 0.246933 0.000000
0.540539 0.254495 0.000000
0.650570 0.248918 0.000000
0.722881 0.225762 0.000000
0.769920 0.217821 0.000000
0.000000 0.248829 0.121971
0.000000 0.258460 0.111409
0.000000 0.286099 0.061404
0.303487 0.380439 0.000000
0.543245 0.426531 0.000000
0.699466 0.436441 0.000000
0.792331 0.438674 0.000000
0.850314 0.438579 0.000000
0.881162 0.436528 0.000000
0.000000 0.378591 0.157243
0.000000 0.387569 0.138883
0.000000 0.410214 0.052032
0.310314 0.533833 0.000000
0.648560 0.622202 0.000000
0.822384 0.639221 0.000000
0.905343 0.637938 0.000000
0.944964 0.643868 0.000000
0.964426 0.645063 0.000000
0.000000 0.468607 0.164480
0.000000 0.477693 0.128992
0.000000 0.504316 0.000000
0.212758 0.610746 0.000000
0.681258 0.732788 0.000000
0.898150 0.777143 0.000000
0.970277 0.784662 0.000000
0.997750 0.785905 0.000000
1.008641 0.784327 0.000000
0.000000 0.511345 0.160256
0.000000 0.523433 0.115690
0.000000 0.539424 0.054082
0.000000 0.622500 0.000000
0.629363 0.762721 0.000000
0.909908 0.824562 0.000000
0.992559 0.839777 0.000000
1.017489 0.845128 0.000000
1.027006 0.848494 0.000000
0.000000 0.535370 0.165318
0.000000 0.544909 0.126951
0.000000 0.573581 0.000000
0.000000 0.606322 0.000000
0.464268 0.735309 0.000000
0.882335 0.832199 0.000000
0.993584 0.854824 0.000000
1.023287 0.860618 0.000000
1.025622 0.867010 0.000000
0.021128 0.022648 0.059878
0.041473 0.026443 0.060634
0.072996 0.044689 0.071219
0.131395 0.055452 0.071814
0.200546 0.060684 0.069778
0.287959 0.064427 0.064229
0.392848 0.027274 0.048447
0.494521 0.000000 0.000000
0.582026 0.000000 0.000000
0.000000 0.043445 0.071784
0.038681 0.046613 0.073112
0.077237 0.060656 0.080559
0.142547 0.070036 0.082410
0.222708 0.075996 0.077030
0.315335 0.082672 0.065494
0.426647 0.063796 0.044125
0.532594 0.000000 0.000000
0.615187 0.000000 0.000000
0.000000 0.088325 0.101026
0.000000 0.090623 0.100034
0.098043 0.110874 0.106864
0.196096 0.129871 0.104459
0.300731 0.142873 0.101514
0.412314 0.141627 0.079643
0.525644 0.114640 0.000000
0.618520 0.075045 0.000000
0.681654 0.000000 0.000000
0.000000 0.157408 0.126775
0.000000 0.160474 0.121878
0.043170 0.188461 0.126635
0.263613 0.239794 0.134709
0.422162 0.257850 0.133680
0.555924 0.263204 0.119477
0.665012 0.254708 0.089853
0.736079 0.226032 0.027291
0.778082 0.215104 0.000000
0.000000 0.285660 0.188449
0.000000 0.295771 0.187202
0.000000 0.312393 0.160539
0.289731 0.405770 0.160987
0.558349 0.455515 0.158341
0.712821 0.460532 0.158485
0.803662 0.460273 0.153668
0.862241 0.462024 0.148098
0.890049 0.456993 0.147335
0.000000 0.423788 0.250842
0.000000 0.437344 0.250101
0.000000 0.451410 0.209572
0.261040 0.561465 0.195204
0.652202 0.657448 0.181260
0.831010 0.676605 0.204576
0.910568 0.672930 0.221735
0.947713 0.676468 0.236831
0.966846 0.679148 0.252367
0.000000 0.519743 0.291492
0.000000 0.531467 0.284535
0.000000 0.552475 0.253235
0.000000 0.644921 0.240301
0.668442 0.771191 0.248163
0.893479 0.815779 0.271883
0.968715 0.825041 0.309171
0.995582 0.825368 0.330920
1.006043 0.825403 0.351522
0.000000 0.561717 0.301909
0.000000 0.572763 0.301387
0.000000 0.598847 0.296203
0.000000 0.660663 0.274987
0.588035 0.796979 0.289406
0.902839 0.865313 0.318120
0.986694 0.881505 0.351689
1.010658 0.888595 0.386943
1.019609 0.890625 0.410365
0.000000 0.578455 0.293525
0.000000 0.596628 0.288634
0.000000 0.618750 0.271535
0.000000 0.647654 0.260350
0.403187 0.765347 0.268808
0.867586 0.869246 0.290279
0.985437 0.895657 0.340602
1.015192 0.902859 0.373537
1.018053 0.909663 0.412376
0.019228 0.022609 0.108099
0.045128 0.025530 0.110152
0.073479 0.038169 0.116688
0.129079 0.052556 0.121175
0.202621 0.058211 0.119839
0.292187 0.061768 0.118034
0.399984 0.000000 0.116909
0.502951 0.000000 0.112465
0.591488 0.000000 0.109951
0.000000 0.043438 0.127108
0.036910 0.044821 0.127394
0.078706 0.057022 0.138005
0.140081 0.067937 0.140810
0.224377 0.072697 0.133409
0.318925 0.076680 0.122946
0.431206 0.051732 0.118577
0.536268 0.000000 0.114253
0.624851 0.000000 0.110951
0.000000 0.086906 0.161009
0.000000 0.088798 0.164957
0.079702 0.105842 0.182838
0.195284 0.139870 0.195554
0.306847 0.145470 0.181230
0.420736 0.138979 0.158737
0.532669 0.109339 0.136403
0.622767 0.046899 0.131667
0.690474 0.000000 0.126461
0.000000 0.178446 0.221823
0.000000 0.184782 0.227266
0.000000 0.202805 0.237855
0.259226 0.265486 0.268397
0.434683 0.274082 0.249784
0.569649 0.277169 0.241441
0.675940 0.263624 0.226126
0.745891 0.232349 0.198874
0.782743 0.214414 0.187285
0.000000 0.340445 0.324830
0.000000 0.349359 0.324050
0.000000 0.354018 0.301062
0.237071 0.433889 0.311842
0.573976 0.498511 0.330064
0.724182 0.486413 0.332498
0.813228 0.485976 0.335698
0.868583 0.485532 0.335789
0.894995 0.479338 0.332241
0.000000 0.487197 0.401554
0.000000 0.501526 0.405800
0.000000 0.516348 0.383960
0.102346 0.593985 0.374005
0.632012 0.699712 0.404586
0.836077 0.720092 0.423807
0.911456 0.711915 0.436931
0.948343 0.709180 0.446110
0.966530 0.711304 0.453865
0.000000 0.574476 0.438061
0.000000 0.592020 0.448727
0.000000 0.618354 0.447863
0.000000 0.684963 0.433058
0.622671 0.804311 0.472503
0.884378 0.855269 0.502511
0.964822 0.863584 0.527603
0.990480 0.862687 0.541053
1.001622 0.862341 0.551523
0.000000 0.621293 0.467411
0.000000 0.646748 0.486467
0.000000 0.665894 0.486177
0.000000 0.691082 0.465257
0.493008 0.822260 0.510705
0.884592 0.900895 0.550096
0.979424 0.916492 0.574327
1.004068 0.922113 0.596408
1.013608 0.923448 0.607744
0.000000 0.640978 0.471731
0.000000 0.649568 0.476694
0.000000 0.672374 0.495054
0.000000 0.700939 0.494687
0.285473 0.802049 0.516099
0.830507 0.906544 0.563682
0.974597 0.933811 0.594023
1.005862 0.940373 0.616258
1.011648 0.943374 0.630872
0.012966 0.001918 0.156903
0.043495 0.000000 0.161783
0.071678 0.012629 0.170306
0.126390 0.034260 0.180910
0.199786 0.050361 0.186987
0.296149 0.050891 0.189112
0.406422 0.000000 0.189054
0.507793 0.000000 0.190111
0.599996 0.000000 0.194720
0.000000 0.026235 0.182613
0.032825 0.022700 0.189048
0.073901 0.037765 0.198933
0.138332 0.054267 0.206936
0.222079 0.065393 0.212087
0.319198 0.065580 0.197839
0.432706 0.000000 0.196864
0.539893 0.000000 0.197690
0.632422 0.000000 0.202279
0.000000 0.086208 0.233577
0.000000 0.085587 0.244027
0.062399 0.095442 0.265974
0.181599 0.124139 0.291963
0.306430 0.152736 0.299608
0.422262 0.133220 0.255189
0.538196 0.097351 0.233293
0.624872 0.000000 0.226161
0.693175 0.000000 0.222225
0.000000 0.192375 0.325653
0.000000 0.194672 0.335752
0.000000 0.202032 0.350170
0.214270 0.251318 0.389227
0.442036 0.320353 0.419203
0.585254 0.294832 0.377342
0.689239 0.277028 0.357935
0.757978 0.245074 0.339450
0.790175 0.222862 0.322622
0.000000 0.360340 0.447155
0.000000 0.372599 0.463248
0.000000 0.391932 0.471033
0.160972 0.463687 0.501075
0.574907 0.561829 0.542009
0.732593 0.521308 0.493697
0.822836 0.520930 0.496009
0.875739 0.513553 0.492037
0.900665 0.507473 0.492693
0.000000 0.526748 0.548492
0.000000 0.546250 0.564617
0.000000 0.575570 0.573077
0.000000 0.634869 0.562622
0.587786 0.738737 0.598989
0.844557 0.767945 0.595497
0.915968 0.753673 0.604504
0.950074 0.745134 0.604832
0.966425 0.741155 0.611000
0.000000 0.630453 0.607852
0.000000 0.644766 0.614664
0.000000 0.674307 0.624533
0.000000 0.727150 0.608698
0.576074 0.833699 0.646775
0.872085 0.887228 0.670768
0.961165 0.895498 0.682732
0.987721 0.894818 0.692710
0.997977 0.891829 0.695422
0.000000 0.674311 0.636965
0.000000 0.684763 0.640013
0.000000 0.710243 0.648168
0.000000 0.731651 0.629528
0.410906 0.842467 0.660453
0.862875 0.925047 0.704618
0.971834 0.943297 0.726144
0.998566 0.946796 0.739253
1.007957 0.947717 0.746105
0.000000 0.696410 0.652335
0.000000 0.715991 0.666071
0.000000 0.729240 0.670032
0.000000 0.745718 0.660824
0.191387 0.833495 0.675935
0.791824 0.927048 0.716879
0.963962 0.956182 0.742027
0.999525 0.962550 0.757198
1.007364 0.964849 0.766411
0.007341 0.000000 0.215917
0.042237 0.000000 0.223629
0.071650 0.000000 0.234419
0.123554 0.000000 0.247038
0.197534 0.000000 0.262963
0.297453 0.000000 0.272506
0.410725 0.000000 0.270676
0.514914 0.000000 0.271691
0.605223 0.000000 0.280276
0.000000 0.000000 0.247306
0.001429 0.000000 0.255177
0.068187 0.000000 0.266516
0.128469 0.000000 0.277396
0.214387 0.027980 0.288312
0.316809 0.034971 0.290171
0.433323 0.000000 0.284512
0.541396 0.000000 0.285053
0.634659 0.000000 0.294042
0.000000 0.080437 0.308566
0.000000 0.074003 0.318913
0.053308 0.074001 0.340784
0.162700 0.092179 0.366305
0.284859 0.117125 0.382298
0.418389 0.123235 0.369131
0.532186 0.064599 0.327510
0.622152 0.000000 0.320380
0.689444 0.000000 0.319078
0.000000 0.185361 0.403749
0.000000 0.188540 0.415547
0.000000 0.197105 0.440750
0.182321 0.239296 0.484510
0.396422 0.297515 0.523021
0.593006 0.337700 0.535062
0.695728 0.295264 0.494013
0.762925 0.250830 0.466379
0.798254 0.232368 0.454828
0.000000 0.346192 0.520505
0.000000 0.358639 0.536117
0.000000 0.383078 0.560523
0.102762 0.445226 0.603833
0.495098 0.529598 0.650808
0.739172 0.602666 0.673918
0.833086 0.570172 0.644833
0.883273 0.550406 0.633228
0.907402 0.538528 0.626694
0.000000 0.527445 0.639226
0.000000 0.549507 0.655954
0.000000 0.583713 0.677273
0.000000 0.648488 0.697265
0.543068 0.756038 0.746129
0.838083 0.814125 0.775627
0.915083 0.790468 0.749462
0.950414 0.777284 0.740355
0.967288 0.774542 0.737894
0.000000 0.652097 0.719028
0.000000 0.672564 0.731193
0.000000 0.702242 0.744293
0.000000 0.753824 0.745146
0.535622 0.855606 0.788081
0.850154 0.911668 0.815195
0.958146 0.923023 0.812459
0.983757 0.916802 0.806776
0.995426 0.914375 0.805426
0.000000 0.699146 0.744097
0.000000 0.713292 0.753539
0.000000 0.737536 0.764883
0.000000 0.763050 0.763905
0.380702 0.867106 0.795751
0.825080 0.940909 0.832334
0.963864 0.961673 0.843566
0.993571 0.964076 0.845356
1.002831 0.964089 0.846730
0.000000 0.717358 0.756330
0.000000 0.728577 0.765042
0.000000 0.750204 0.778263
0.000000 0.774050 0.779537
0.000000 0.856776 0.800889
0.758795 0.943091 0.840870
0.951280 0.971712 0.856523
0.994117 0.978599 0.864135
1.004273 0.979864 0.864833
0.035930 0.000000 0.284615
0.048550 0.000000 0.293877
0.079210 0.000000 0.307100
0.127360 0.000000 0.322901
0.196203 0.000000 0.339721
0.292236 0.000000 0.355603
0.418180 0.000000 0.367256
0.525003 0.000000 0.370160
0.612916 0.000000 0.373325
0.006526 0.000000 0.315766
0.007455 0.000000 0.321272
0.070864 0.000000 0.336410
0.127050 0.000000 0.350195
0.207048 0.000000 0.364588
0.307661 0.000000 0.374060
0.437106 0.000000 0.385124
0.547348 0.000000 0.385319
0.640711 0.000000 0.390609
0.000000 0.045631 0.373504
0.000000 0.019225 0.380908
0.030499 0.011385 0.403385
0.148564 0.026936 0.430572
0.258916 0.057447 0.446439
0.380320 0.068868 0.445132
0.502113 0.000000 0.421628
0.604343 0.000000 0.419028
0.680772 0.000000 0.416487
0.000000 0.183318 0.469004
0.000000 0.184764 0.480092
0.000000 0.192432 0.511497
0.165872 0.227023 0.558525
0.365778 0.269674 0.596591
0.559461 0.314644 0.623633
0.693231 0.319724 0.621202
0.766243 0.271833 0.593032
0.803213 0.237901 0.576713
0.000000 0.335696 0.574448
0.000000 0.349479 0.590729
0.000000 0.375256 0.624708
0.000000 0.433624 0.678802
0.449630 0.501263 0.724715
0.704659 0.588709 0.764817
0.839092 0.625040 0.774885
0.893730 0.604943 0.761109
0.916253 0.583909 0.750087
0.000000 0.505692 0.678085
0.000000 0.531159 0.697276
0.000000 0.571787 0.726264
0.000000 0.642986 0.765829
0.502981 0.735209 0.817446
0.788796 0.798484 0.850500
0.915546 0.832757 0.859993
0.953691 0.821758 0.849836
0.969724 0.813458 0.846240
0.000000 0.641261 0.755292
0.000000 0.665963 0.771145
0.000000 0.700328 0.792845
0.000000 0.762688 0.817232
0.474363 0.856045 0.863440
0.816696 0.917121 0.894421
0.953432 0.939861 0.909399
0.980349 0.934523 0.902678
0.992126 0.930825 0.898969
0.000000 0.698344 0.787590
0.000000 0.721588 0.804011
0.000000 0.742626 0.816237
0.000000 0.776884 0.831756
0.314749 0.874564 0.871244
0.795603 0.948031 0.908705
0.953798 0.972209 0.923740
0.989784 0.976776 0.926577
0.999563 0.975498 0.923266
0.000000 0.759558 0.828353
0.000000 0.759558 0.828353
0.000000 0.768750 0.833922
0.000000 0.785985 0.839541
0.000000 0.854288 0.865683
0.694224 0.944155 0.909242
0.938229 0.980857 0.930941
0.989083 0.988637 0.937473
1.001080 0.989202 0.935427
0.060604 0.000000 0.350750
0.070283 0.000000 0.357136
0.099608 0.000000 0.372960
0.147160 0.000000 0.394692
0.210617 0.000000 0.417253
0.299014 0.000000 0.434124
0.420513 0.000000 0.450643
0.531189 0.000000 0.459604
0.624812 0.000000 0.467721
0.037526 0.000000 0.381847
0.056987 0.000000 0.385824
0.090418 0.000000 0.401211
0.143707 0.000000 0.418933
0.213273 0.000000 0.440549
0.307823 0.000000 0.451767
0.437659 0.000000 0.468246
0.556448 0.000000 0.480448
0.653141 0.000000 0.488351
0.000000 0.000000 0.429756
0.000000 0.000000 0.436372
0.057035 0.000000 0.456426
0.148388 0.000000 0.486693
0.246799 0.000000 0.505749
0.368509 0.000000 0.514370
0.493097 0.000000 0.508627
0.601682 0.000000 0.517098
0.684502 0.000000 0.514619
0.000000 0.161834 0.517270
0.000000 0.163391 0.527686
0.000000 0.172209 0.560366
0.160781 0.202170 0.611249
0.351351 0.230148 0.648100
0.525284 0.259913 0.677275
0.673615 0.283576 0.694137
0.764416 0.270028 0.690846
0.806313 0.235941 0.673169
0.000000 0.324528 0.613697
0.000000 0.338641 0.632115
0.000000 0.364243 0.668880
0.000000 0.413917 0.725609
0.434713 0.472041 0.770853
0.663004 0.541450 0.811545
0.822000 0.608145 0.837673
0.895847 0.631493 0.845886
0.921178 0.617703 0.840664
0.000000 0.497441 0.707290
0.000000 0.518807 0.725871
0.000000 0.555924 0.756647
0.000000 0.627495 0.809032
0.482781 0.714489 0.859681
0.749225 0.769586 0.892452
0.899288 0.826958 0.912170
0.954094 0.847379 0.918799
0.971191 0.841158 0.914861
0.000000 0.627091 0.774320
0.000000 0.652744 0.793517
0.000000 0.689697 0.817263
0.000000 0.757019 0.851437
0.458563 0.850738 0.900636
0.781373 0.906827 0.932039
0.936969 0.935982 0.948921
0.978481 0.946094 0.952558
0.991144 0.944792 0.950799
0.000000 0.691629 0.807000
0.000000 0.718815 0.826102
0.000000 0.740589 0.839740
0.000000 0.780401 0.861730
0.302503 0.879061 0.909826
0.757427 0.946913 0.946754
0.942320 0.975675 0.964432
0.987456 0.982470 0.969587
0.997648 0.981891 0.967461
0.000000 0.737001 0.834749
0.000000 0.737001 0.834749
0.000000 0.759543 0.849640
0.000000 0.789909 0.867555
0.000000 0.859170 0.900411
0.623645 0.938579 0.940856
0.926489 0.984400 0.967730
0.986188 0.992656 0.974127
0.998827 0.993972 0.975018
0.100253 0.000000 0.412603
0.113936 0.000000 0.414658
0.128994 0.000000 0.428302
0.173146 0.000000 0.451419
0.231449 0.000000 0.481542
0.309760 0.000000 0.503754
0.420350 0.000000 0.521692
0.540758 0.000000 0.540958
0.633330 0.000000 0.549441
0.091983 0.000000 0.435447
0.098292 0.000000 0.438547
0.127467 0.000000 0.454443
0.171689 0.000000 0.482834
0.235598 0.000000 0.511635
0.326310 0.000000 0.532216
0.447538 0.000000 0.549252
0.561845 0.000000 0.559181
0.662456 0.000000 0.573076
0.006127 0.000000 0.483801
0.037520 0.000000 0.491785
0.094841 0.000000 0.510960
0.160976 0.000000 0.548377
0.274023 0.000000 0.585442
0.394210 0.000000 0.596758
0.516856 0.000000 0.596196
0.620746 0.000000 0.597406
0.701895 0.000000 0.604848
0.000000 0.124893 0.549061
0.000000 0.125113 0.559343
0.000000 0.124326 0.593287
0.171652 0.153587 0.643656
0.352150 0.181767 0.685490
0.515022 0.191573 0.710622
0.656186 0.195981 0.729377
0.755255 0.206989 0.744017
0.799239 0.180009 0.741088
0.000000 0.296353 0.635594
0.000000 0.310809 0.652095
0.000000 0.338204 0.694174
0.000000 0.385109 0.754623
0.426401 0.446501 0.805826
0.640995 0.497677 0.842377
0.803416 0.564995 0.872859
0.886568 0.605894 0.888208
0.919602 0.614462 0.891232
0.000000 0.481552 0.725838
0.000000 0.508194 0.750013
0.000000 0.536100 0.774003
0.000000 0.607462 0.835946
0.469773 0.690939 0.886311
0.718221 0.744800 0.916759
0.883109 0.802102 0.939207
0.947033 0.837128 0.949574
0.969906 0.846598 0.952159
0.000000 0.615391 0.789777
0.000000 0.640000 0.805710
0.000000 0.676805 0.830040
0.000000 0.742490 0.870454
0.430461 0.840498 0.923889
0.749643 0.896933 0.953117
0.921824 0.927844 0.970514
0.973776 0.943709 0.976692
0.990081 0.949871 0.978566
0.000000 0.691495 0.824946
0.000000 0.716380 0.841489
0.000000 0.739761 0.856156
0.000000 0.778905 0.879152
0.273321 0.875563 0.926426
0.727062 0.942515 0.962953
0.928796 0.972935 0.980846
0.983001 0.981968 0.986394
0.996743 0.984692 0.988301
0.000000 0.724963 0.841997
0.000000 0.753048 0.860176
0.000000 0.766138 0.868491
0.000000 0.787034 0.879898
0.000000 0.848546 0.910607
0.593948 0.935755 0.956473
0.914485 0.984994 0.984194
0.982692 0.994127 0.990645
0.998438 0.996629 0.993049
