transforms/AB06_aged_tinted_d65_r709.cube
#  AB_06_D65_r709.cube
LUT_3D_SIZE 9
0.000000 0.000000 0.000000
0.017948 0.000000 0.000000
0.094962 0.000000 0.000000
0.171497 0.000000 0.000000
0.267681 0.000000 0.000000
0.371945 0.000000 0.000000
0.479573 0.000000 0.000000
0.568316 0.000000 0.000000
0.609249 0.000000 0.000000
0.000000 0.017317 0.000000
0.014952 0.017626 0.000000
0.096224 0.021157 0.000000
0.173708 0.000000 0.000000
0.269074 0.000000 0.000000
0.371910 0.000000 0.000000
0.479551 0.000000 0.000000
0.568301 0.000000 0.000000
0.610944 0.000000 0.000000
0.000000 0.122111 0.000000
0.000000 0.123991 0.000000
0.126402 0.129070 0.000000
0.248078 0.108261 0.000000
0.349611 0.056868 0.000000
0.451947 0.000000 0.000000
0.557241 0.000000 0.000000
0.637744 0.000000 0.000000
0.668152 0.000000 0.000000
0.000000 0.275001 0.000000
0.000000 0.277724 0.000000
0.000000 0.298485 0.000000
0.324892 0.303290 0.000000
0.475185 0.275502 0.000000
0.593670 0.253644 0.000000
0.700364 0.220330 0.000000
0.780354 0.182110 0.000000
0.812891 0.151562 0.000000
0.000000 0.475255 0.000000
0.000000 0.479954 0.000000
0.000000 0.494487 0.000000
0.288984 0.559788 0.000000
0.588477 0.539296 0.000000
0.728141 0.500919 0.000000
0.829390 0.478537 0.000000
0.905017 0.461712 0.000000
0.934121 0.449977 0.000000
0.000000 0.661796 0.000000
0.000000 0.669364 0.000000
0.000000 0.676857 0.000000
0.000000 0.718805 0.000000
0.590871 0.782696 0.000000
0.796469 0.745970 0.000000
0.897486 0.714120 0.000000
0.967710 0.698465 0.000000
0.993394 0.687734 0.000000
0.000000 0.783935 0.000000
0.000000 0.791759 0.000000
0.000000 0.798224 0.000000
0.000000 0.815059 0.000000
0.378549 0.874975 0.000000
0.787302 0.885570 0.000000
0.904655 0.861833 0.000000
0.973067 0.852287 0.000000
0.997418 0.848962 0.000000
0.000000 0.867873 0.000000
0.000000 0.875569 0.000000
0.000000 0.879916 0.000000
0.000000 0.889758 0.000000
0.000000 0.921477 0.000000
0.710311 0.953520 0.000000
0.885386 0.939335 0.000000
0.961480 0.930035 0.000000
0.991277 0.927177 0.000000
0.000000 0.903530 0.000000
0.000000 0.902532 0.000000
0.000000 0.917114 0.000000
0.000000 0.925577 0.000000
0.000000 0.941268 0.000000
0.544995 0.974627 0.000000
0.857944 0.966633 0.000000
0.947870 0.957743 0.000000
0.987149 0.954908 0.000000
0.002442 0.002539 0.013797
0.017385 0.000000 0.013848
0.094962 0.000000 0.019493
0.172660 0.000000 0.000000
0.269148 0.000000 0.000000
0.373560 0.000000 0.000000
0.479572 0.000000 0.000000
0.568315 0.000000 0.000000
0.609249 0.000000 0.000000
0.000000 0.016526 0.014690
0.015095 0.017087 0.015057
0.097199 0.017597 0.024317
0.175021 0.000000 0.000000
0.269091 0.000000 0.000000
0.373532 0.000000 0.000000
0.479553 0.000000 0.000000
0.568301 0.000000 0.000000
0.610945 0.000000 0.000000
0.000000 0.122111 0.000000
0.000000 0.124955 0.000000
0.127693 0.129026 0.000000
0.246812 0.106211 0.000000
0.346437 0.060148 0.000000
0.450272 0.000000 0.000000
0.553743 0.000000 0.000000
0.632719 0.000000 0.000000
0.663098 0.000000 0.000000
0.000000 0.274999 0.000000
0.000000 0.277720 0.000000
0.000000 0.297033 0.000000
0.325472 0.300305 0.000000
0.479017 0.272122 0.000000
0.595518 0.251849 0.000000
0.700590 0.214938 0.000000
0.781997 0.177377 0.000000
0.812991 0.146609 0.000000
0.000000 0.475253 0.000000
0.000000 0.481593 0.000000
0.000000 0.494495 0.000000
0.286499 0.559821 0.000000
0.591875 0.540793 0.000000
0.731714 0.498980 0.000000
0.833649 0.479987 0.000000
0.908566 0.463203 0.000000
0.939865 0.451251 0.000000
0.000000 0.664870 0.000000
0.000000 0.670906 0.000000
0.000000 0.679929 0.000000
0.000000 0.721771 0.000000
0.590871 0.782696 0.000000
0.799343 0.747307 0.000000
0.900902 0.716874 0.000000
0.969459 0.699918 0.000000
0.994817 0.689205 0.000000
0.000000 0.786586 0.000000
0.000000 0.794413 0.000000
0.000000 0.800884 0.000000
0.000000 0.817630 0.000000
0.374621 0.876139 0.000000
0.787043 0.886586 0.000000
0.905378 0.864093 0.000000
0.973701 0.853410 0.000000
0.998540 0.850063 0.000000
0.000000 0.869019 0.000000
0.000000 0.878903 0.000000
0.000000 0.884379 0.000000
0.000000 0.893941 0.000000
0.000000 0.922459 0.000000
0.711363 0.955670 0.000000
0.886263 0.940765 0.000000
0.962834 0.931747 0.000000
0.991902 0.928916 0.000000
0.000000 0.907463 0.000000
0.000000 0.907463 0.000000
0.000000 0.921078 0.000000
0.000000 0.927315 0.000000
0.000000 0.941301 0.000000
0.544436 0.975773 0.000000
0.858742 0.968334 0.000000
0.949158 0.959740 0.000000
0.988314 0.956332 0.000000
0.003041 0.002652 0.076334
0.027378 0.000000 0.076290
0.092283 0.000000 0.074668
0.170336 0.000000 0.064933
0.267681 0.000000 0.060477
0.371945 0.000000 0.045092
0.479572 0.000000 0.000000
0.568315 0.000000 0.000000
0.609248 0.000000 0.000000
0.000000 0.016312 0.083038
0.024175 0.016522 0.084699
0.093782 0.000000 0.085660
0.172604 0.000000 0.070714
0.269123 0.000000 0.059115
0.373545 0.000000 0.042654
0.479559 0.000000 0.000000
0.570002 0.000000 0.000000
0.612659 0.000000 0.000000
0.000000 0.119220 0.114036
0.000000 0.121094 0.115913
0.123810 0.129155 0.120247
0.238847 0.099428 0.105608
0.337407 0.039889 0.075494
0.438729 0.000000 0.000000
0.537908 0.000000 0.000000
0.614127 0.000000 0.000000
0.634541 0.000000 0.000000
0.000000 0.280524 0.109574
0.000000 0.283241 0.113206
0.000000 0.299924 0.123878
0.327469 0.307638 0.148128
0.481078 0.268865 0.160139
0.597766 0.243621 0.143119
0.702902 0.198008 0.109911
0.782498 0.157278 0.086798
0.814710 0.135560 0.086289
0.000000 0.488240 0.118633
0.000000 0.494734 0.124354
0.000000 0.509294 0.135035
0.268995 0.568040 0.181549
0.598647 0.553572 0.224085
0.745919 0.505070 0.240822
0.846434 0.484338 0.237299
0.919372 0.465858 0.234668
0.947241 0.454196 0.239902
0.000000 0.675636 0.030392
0.000000 0.683145 0.064908
0.000000 0.691804 0.081913
0.000000 0.730504 0.142733
0.588251 0.790801 0.219296
0.809699 0.758493 0.262165
0.910338 0.726638 0.277797
0.976044 0.708691 0.293064
1.000716 0.699737 0.309288
0.000000 0.790560 0.000000
0.000000 0.797072 0.000000
0.000000 0.804862 0.000000
0.000000 0.820084 0.000000
0.369010 0.879562 0.122850
0.790346 0.891535 0.205377
0.910392 0.868485 0.233222
0.977082 0.857865 0.257467
1.001817 0.854525 0.281490
0.000000 0.872370 0.000000
0.000000 0.875667 0.000000
0.000000 0.886603 0.000000
0.000000 0.896882 0.000000
0.000000 0.923386 0.000000
0.714417 0.957049 0.161412
0.888359 0.942158 0.203959
0.964867 0.933433 0.220963
0.993009 0.930637 0.236177
0.000000 0.910437 0.000000
0.000000 0.915329 0.000000
0.000000 0.922096 0.000000
0.000000 0.929043 0.000000
0.000000 0.944715 0.000000
0.527267 0.976597 0.019117
0.859540 0.970034 0.169391
0.950642 0.960843 0.174689
0.988869 0.958357 0.192372
0.002667 0.002667 0.138498
0.020564 0.000000 0.139585
0.077245 0.000000 0.139369
0.165695 0.000000 0.137065
0.266214 0.000000 0.129357
0.370331 0.000000 0.125710
0.477878 0.000000 0.118421
0.568315 0.000000 0.112162
0.609248 0.000000 0.110152
0.000000 0.010026 0.147280
0.017004 0.009787 0.148375
0.078949 0.000000 0.148162
0.166816 0.000000 0.144820
0.266202 0.000000 0.128195
0.371934 0.000000 0.124346
0.479562 0.000000 0.118202
0.570005 0.000000 0.110305
0.612659 0.000000 0.107846
0.000000 0.078797 0.198273
0.000000 0.080386 0.199458
0.097343 0.086891 0.209291
0.217663 0.102787 0.200639
0.311586 0.000000 0.143940
0.407334 0.000000 0.123484
0.503148 0.000000 0.113394
0.581797 0.000000 0.104627
0.616003 0.000000 0.105203
0.000000 0.258442 0.279590
0.000000 0.261120 0.282304
0.000000 0.279785 0.292870
0.330274 0.328401 0.328434
0.480302 0.258480 0.264893
0.596982 0.227568 0.246959
0.701951 0.177465 0.219257
0.783092 0.127374 0.197908
0.812248 0.095470 0.200332
0.000000 0.507996 0.318758
0.000000 0.512838 0.323155
0.000000 0.524114 0.333400
0.245505 0.574701 0.355169
0.602885 0.569729 0.367510
0.751752 0.511661 0.378002
0.852353 0.483892 0.370300
0.924462 0.463593 0.364231
0.951900 0.450084 0.363770
0.000000 0.698055 0.310614
0.000000 0.703839 0.318898
0.000000 0.713965 0.329948
0.000000 0.745998 0.362777
0.560571 0.804813 0.424367
0.819651 0.782635 0.449761
0.918315 0.748158 0.456945
0.982141 0.728932 0.460640
1.004864 0.720365 0.466711
0.000000 0.813162 0.296019
0.000000 0.819470 0.304894
0.000000 0.826583 0.317785
0.000000 0.839684 0.332856
0.355882 0.892654 0.401505
0.799764 0.914219 0.454589
0.920990 0.891349 0.470409
0.982866 0.878817 0.479844
1.003940 0.874893 0.487533
0.000000 0.888026 0.228869
0.000000 0.897246 0.246186
0.000000 0.903010 0.259171
0.000000 0.909751 0.274067
0.000000 0.934413 0.321253
0.709000 0.968152 0.405546
0.899576 0.955667 0.431760
0.969672 0.946006 0.445959
0.996388 0.942836 0.455836
0.000000 0.916463 0.000000
0.000000 0.918419 0.038588
0.000000 0.927602 0.104340
0.000000 0.937595 0.152138
0.000000 0.952088 0.201679
0.485695 0.979439 0.289986
0.865363 0.976186 0.341792
0.953713 0.966509 0.351289
0.990726 0.963492 0.356916
0.003383 0.002799 0.214322
0.016037 0.000000 0.215631
0.073101 0.000000 0.216840
0.154139 0.000000 0.221587
0.263282 0.000000 0.217290
0.368717 0.000000 0.207603
0.477878 0.000000 0.202771
0.568315 0.000000 0.200112
0.610959 0.000000 0.199947
0.000000 0.008874 0.224835
0.014033 0.008774 0.224833
0.071546 0.000000 0.226056
0.152966 0.000000 0.225559
0.260334 0.000000 0.218676
0.367093 0.000000 0.206293
0.476173 0.000000 0.201445
0.568303 0.000000 0.200094
0.610947 0.000000 0.199927
0.000000 0.052950 0.266840
0.000000 0.052214 0.266843
0.071680 0.050468 0.265354
0.159195 0.027981 0.249472
0.260045 0.000000 0.221218
0.363767 0.000000 0.204971
0.472712 0.000000 0.198730
0.568239 0.000000 0.198538
0.610891 0.000000 0.198346
0.000000 0.214754 0.384935
0.000000 0.215939 0.388074
0.065653 0.225551 0.398807
0.257776 0.244166 0.426187
0.451927 0.280211 0.408711
0.570741 0.203575 0.340137
0.677109 0.119241 0.294318
0.757418 0.000000 0.277099
0.783270 0.000000 0.256545
0.000000 0.468777 0.515033
0.000000 0.473394 0.518151
0.000000 0.481068 0.524481
0.254517 0.536296 0.560255
0.608382 0.606418 0.603046
0.754515 0.514826 0.518747
0.854408 0.476637 0.492702
0.926289 0.456172 0.481935
0.952981 0.435446 0.469250
0.000000 0.726215 0.587877
0.000000 0.731833 0.590620
0.000000 0.735799 0.591737
0.000000 0.758711 0.600601
0.534783 0.815637 0.623175
0.824425 0.809103 0.610773
0.924080 0.768873 0.594702
0.985711 0.749312 0.589251
1.008864 0.737819 0.587810
0.000000 0.839240 0.569461
0.000000 0.842800 0.570647
0.000000 0.851079 0.574575
0.000000 0.862244 0.579783
0.363083 0.904544 0.605244
0.787561 0.931134 0.624309
0.928940 0.917127 0.627467
0.986539 0.905195 0.627112
1.006001 0.900343 0.625263
0.000000 0.913350 0.542505
0.000000 0.917228 0.545450
0.000000 0.925554 0.552920
0.000000 0.931237 0.560854
0.000000 0.948153 0.579019
0.671389 0.978086 0.613020
0.909454 0.976012 0.617873
0.976209 0.966316 0.617061
0.997979 0.963810 0.616645
0.000000 0.950826 0.491659
0.000000 0.950816 0.491648
0.000000 0.953675 0.496756
0.000000 0.961198 0.510444
0.000000 0.972558 0.532376
0.459931 0.990741 0.576420
0.872015 0.993544 0.601679
0.964288 0.986700 0.595933
0.994343 0.984009 0.597091
0.004179 0.003583 0.301338
0.014109 0.001986 0.302816
0.069330 0.000000 0.305718
0.146087 0.000000 0.309880
0.246342 0.000000 0.312005
0.365489 0.000000 0.307125
0.474487 0.000000 0.301351
0.566540 0.000000 0.299696
0.610958 0.000000 0.299413
0.000000 0.009439 0.311700
0.012252 0.009772 0.311699
0.064761 0.000000 0.314618
0.143770 0.000000 0.314344
0.243559 0.000000 0.312032
0.363862 0.000000 0.307151
0.472778 0.000000 0.301392
0.566526 0.000000 0.299684
0.610945 0.000000 0.299401
0.000000 0.024311 0.332488
0.000000 0.025104 0.332486
0.053555 0.024192 0.332455
0.137856 0.000000 0.324764
0.237939 0.000000 0.312070
0.358953 0.000000 0.305714
0.469335 0.000000 0.299935
0.564706 0.000000 0.298169
0.610905 0.000000 0.297805
0.000000 0.177897 0.463263
0.000000 0.178989 0.464857
0.038991 0.177352 0.466456
0.221263 0.181608 0.480480
0.350405 0.175533 0.461385
0.457864 0.120432 0.385806
0.561681 0.000000 0.340866
0.647308 0.000000 0.321971
0.672947 0.000000 0.300623
0.000000 0.404104 0.620420
0.000000 0.410148 0.625024
0.000000 0.417583 0.629514
0.266383 0.456222 0.660847
0.505078 0.500965 0.697961
0.722622 0.553038 0.680680
0.829398 0.506724 0.641599
0.907635 0.474089 0.621291
0.936445 0.451579 0.607966
0.000000 0.669240 0.719186
0.000000 0.675182 0.723400
0.000000 0.682536 0.727399
0.000000 0.706788 0.744720
0.503988 0.792522 0.800072
0.819582 0.818047 0.814081
0.922921 0.775763 0.771488
0.985493 0.750791 0.757410
1.008219 0.737853 0.753155
0.000000 0.823131 0.742305
0.000000 0.829081 0.747767
0.000000 0.838583 0.755887
0.000000 0.854104 0.767492
0.371816 0.905457 0.805364
0.764365 0.934366 0.820969
0.931484 0.929334 0.811368
0.988317 0.916715 0.796261
1.006663 0.910716 0.795006
0.000000 0.906268 0.740612
0.000000 0.912080 0.746104
0.000000 0.920730 0.754304
0.000000 0.929375 0.764795
0.000000 0.951199 0.787979
0.642687 0.981503 0.814079
0.905833 0.982327 0.814833
0.978491 0.977469 0.804059
0.998649 0.974774 0.801089
0.000000 0.944945 0.730321
0.000000 0.944916 0.730301
0.000000 0.950741 0.737317
0.000000 0.963880 0.755332
0.000000 0.976579 0.773913
0.459852 0.995252 0.801059
0.863462 0.997796 0.808629
0.969364 0.994560 0.802473
0.995801 0.992407 0.796533
0.005475 0.004864 0.394257
0.014370 0.004112 0.395842
0.059600 0.000000 0.398988
0.140354 0.000000 0.401977
0.238053 0.000000 0.406206
0.355823 0.000000 0.406581
0.471098 0.000000 0.403067
0.564765 0.000000 0.402547
0.609245 0.000000 0.401335
0.000000 0.012325 0.406956
0.013489 0.012400 0.405365
0.055752 0.000000 0.408522
0.139170 0.000000 0.408339
0.235272 0.000000 0.406223
0.354190 0.000000 0.406596
0.469384 0.000000 0.404703
0.564746 0.000000 0.402536
0.610940 0.000000 0.402906
0.000000 0.024303 0.419678
0.009079 0.024640 0.419676
0.044227 0.024106 0.421256
0.131434 0.000000 0.414721
0.229690 0.000000 0.406252
0.349452 0.000000 0.406641
0.465953 0.000000 0.403139
0.564704 0.000000 0.402512
0.610896 0.000000 0.401248
0.000000 0.109599 0.507161
0.000000 0.108581 0.507166
0.023240 0.104494 0.502125
0.148017 0.095018 0.498624
0.255967 0.058500 0.457256
0.361659 0.000000 0.417541
0.474083 0.000000 0.407663
0.576525 0.000000 0.397183
0.626035 0.000000 0.397394
0.000000 0.370145 0.695281
0.000000 0.372988 0.696677
0.000000 0.375675 0.701105
0.240945 0.393635 0.726092
0.454462 0.419263 0.753778
0.655427 0.470592 0.749345
0.780382 0.468003 0.727769
0.864064 0.428190 0.702457
0.893115 0.398835 0.685611
0.000000 0.621222 0.804218
0.000000 0.627274 0.807980
0.000000 0.633236 0.813125
0.055944 0.650694 0.826632
0.490180 0.724644 0.872038
0.759957 0.761725 0.887950
0.904984 0.786097 0.880247
0.973073 0.767985 0.866838
0.997955 0.755760 0.859878
0.000000 0.791574 0.837937
0.000000 0.800592 0.843698
0.000000 0.806985 0.848354
0.000000 0.823120 0.859167
0.380089 0.877203 0.894254
0.721323 0.924125 0.923848
0.928364 0.929441 0.927556
0.987817 0.915854 0.916264
1.006830 0.909827 0.911670
0.000000 0.887750 0.841150
0.000000 0.897891 0.849031
0.000000 0.901680 0.852210
0.000000 0.912215 0.861915
0.000000 0.933256 0.879980
0.614803 0.978026 0.920646
0.895194 0.982651 0.926553
0.978530 0.979551 0.924291
0.999241 0.977579 0.921212
0.000000 0.943602 0.846265
0.000000 0.943602 0.846265
0.000000 0.948568 0.851741
0.000000 0.955872 0.859370
0.000000 0.963968 0.869227
0.402743 0.988896 0.899755
0.843933 0.999086 0.923180
0.966727 0.997164 0.923930
0.996637 0.995402 0.921590
0.006892 0.006339 0.492416
0.014919 0.005895 0.494097
0.046454 0.000000 0.497451
0.130612 0.000000 0.502379
0.227032 0.000000 0.505385
0.344853 0.000000 0.506220
0.464327 0.000000 0.504814
0.561220 0.000000 0.501515
0.607532 0.000000 0.500593
0.007309 0.020834 0.522743
0.020658 0.020135 0.522742
0.052442 0.017828 0.526108
0.143651 0.000000 0.532731
0.243504 0.000000 0.527259
0.360617 0.000000 0.511139
0.479536 0.000000 0.506282
0.578494 0.000000 0.502879
0.624590 0.000000 0.503638
0.000000 0.035523 0.536251
0.020160 0.035344 0.537942
0.047376 0.035017 0.539625
0.139816 0.019387 0.542880
0.241972 0.000000 0.534024
0.357317 0.000000 0.511154
0.476087 0.000000 0.506313
0.578445 0.000000 0.506273
0.626220 0.000000 0.505291
0.000000 0.075448 0.573858
0.000000 0.075334 0.575488
0.043122 0.074163 0.573849
0.136132 0.072402 0.575358
0.248079 0.038968 0.558669
0.363387 0.000000 0.526270
0.474186 0.000000 0.511372
0.578306 0.000000 0.507923
0.627797 0.000000 0.508631
0.000000 0.300356 0.748802
0.000000 0.303021 0.751614
0.000000 0.302736 0.754483
0.199271 0.311171 0.768579
0.402395 0.322396 0.790472
0.578954 0.345181 0.781069
0.700602 0.330010 0.754723
0.785630 0.279885 0.721171
0.805440 0.204792 0.675248
0.000000 0.573828 0.871514
0.000000 0.579934 0.874656
0.000000 0.584347 0.877860
0.124009 0.599169 0.888590
0.465439 0.658918 0.923262
0.713859 0.699074 0.936009
0.876240 0.734016 0.931657
0.957670 0.734580 0.924636
0.986446 0.727237 0.920814
0.000000 0.767124 0.908883
0.000000 0.775225 0.913507
0.000000 0.782885 0.918159
0.000000 0.795662 0.925411
0.357619 0.842907 0.947736
0.689304 0.897218 0.970584
0.907077 0.907077 0.972227
0.981783 0.912561 0.970482
1.005012 0.910781 0.968940
0.000000 0.876473 0.914347
0.000000 0.884027 0.918959
0.000000 0.890486 0.922932
0.000000 0.900144 0.929347
0.000000 0.918072 0.941272
0.591087 0.968191 0.969914
0.879802 0.977488 0.977714
0.976516 0.977536 0.977961
0.999923 0.977138 0.977547
0.000000 0.932659 0.913278
0.000000 0.932659 0.913278
0.000000 0.944227 0.921596
0.000000 0.952893 0.928996
0.000000 0.960301 0.935520
0.359427 0.981344 0.953743
0.821316 0.998937 0.975659
0.963280 0.997277 0.977501
0.996960 0.996651 0.977362
0.008677 0.009034 0.570733
0.021295 0.006664 0.569101
0.040377 0.000000 0.570726
0.121351 0.000000 0.575538
0.216053 0.000000 0.580167
0.337066 0.000000 0.579475
0.455908 0.000000 0.576707
0.557676 0.000000 0.573695
0.604114 0.000000 0.572937
0.011905 0.025468 0.606482
0.022927 0.027853 0.612911
0.053623 0.023213 0.609686
0.140082 0.000000 0.619232
0.240691 0.000000 0.610867
0.357381 0.000000 0.585864
0.479525 0.000000 0.581346
0.578497 0.000000 0.576654
0.626271 0.000000 0.575837
0.000000 0.051428 0.649867
0.028534 0.051930 0.651432
0.066171 0.050044 0.651418
0.149507 0.044020 0.657582
0.262730 0.000000 0.654078
0.378249 0.000000 0.593875
0.498129 0.000000 0.584380
0.602319 0.000000 0.581189
0.651458 0.000000 0.580308
0.000000 0.092735 0.702984
0.042109 0.092470 0.704492
0.078040 0.091786 0.704474
0.157868 0.092335 0.711932
0.288046 0.068126 0.703947
0.407246 0.000000 0.606466
0.525643 0.000000 0.590562
0.634509 0.000000 0.585540
0.684884 0.000000 0.582919
0.000000 0.203000 0.776509
0.000000 0.205295 0.780814
0.079235 0.204896 0.782238
0.164454 0.209930 0.790776
0.356393 0.217119 0.810388
0.518167 0.222827 0.799447
0.638115 0.187397 0.762632
0.745100 0.137390 0.737861
0.789708 0.082805 0.721871
0.000000 0.519179 0.910179
0.000000 0.525402 0.915019
0.000000 0.530119 0.916851
0.142592 0.540435 0.925562
0.432768 0.581177 0.950416
0.678815 0.629326 0.963316
0.846058 0.666229 0.957846
0.939279 0.667561 0.952259
0.973988 0.657829 0.947517
0.000000 0.741585 0.955307
0.000000 0.749786 0.958070
0.000000 0.757900 0.961244
0.000000 0.770196 0.965655
0.309576 0.804475 0.979510
0.672457 0.867716 0.994755
0.889747 0.882302 0.995671
0.977415 0.890249 0.993628
1.003663 0.892266 0.993000
0.000000 0.865228 0.961875
0.000000 0.872740 0.965786
0.000000 0.880274 0.968941
0.000000 0.889952 0.973699
0.000000 0.907066 0.979878
0.565513 0.955628 0.995711
0.864796 0.968731 0.997882
0.972047 0.969925 0.997330
0.999552 0.971850 0.996942
0.000000 0.933485 0.963208
0.000000 0.939253 0.966474
0.000000 0.945844 0.969933
0.000000 0.952843 0.974071
0.000000 0.960262 0.977492
0.360931 0.979630 0.988188
0.793507 0.998146 0.997421
0.957296 0.996465 0.996860
0.995931 0.995931 0.997001
