transforms/AB06_aged_tinted_d65_r709.cube
#  AB_06_D65_r709.cube
LUT_3D_SIZE 33
0.000000 0.000000 0.000000
0.000843 0.000552 0.000462
0.003480 0.001010 0.000904
0.008970 0.000000 0.000660
0.017948 0.000000 0.000000
0.030492 0.000000 0.000000
0.046924 0.000000 0.000000
0.068363 0.000000 0.000000
0.094962 0.000000 0.000000
0.112165 0.000000 0.000000
0.130623 0.000000 0.000000
0.150684 0.000000 0.000000
0.171497 0.000000 0.000000
0.195455 0.000000 0.000000
0.218805 0.000000 0.000000
0.242197 0.000000 0.000000
0.267681 0.000000 0.000000
0.292707 0.000000 0.000000
0.320003 0.000000 0.000000
0.344862 0.000000 0.000000
0.371945 0.000000 0.000000
0.397846 0.000000 0.000000
0.425893 0.000000 0.000000
0.452575 0.000000 0.000000
0.479573 0.000000 0.000000
0.506754 0.000000 0.000000
0.531181 0.000000 0.000000
0.552377 0.000000 0.000000
0.568316 0.000000 0.000000
0.581935 0.000000 0.000000
0.592167 0.000000 0.000000
0.604121 0.000000 0.000000
0.609249 0.000000 0.000000
0.000345 0.000901 0.000442
0.000780 0.000893 0.000432
0.003359 0.001801 0.000849
0.008774 0.002288 0.000455
0.017636 0.000000 0.000000
0.030477 0.000000 0.000000
0.046915 0.000000 0.000000
0.068357 0.000000 0.000000
0.094957 0.000000 0.000000
0.112161 0.000000 0.000000
0.130620 0.000000 0.000000
0.150682 0.000000 0.000000
0.171495 0.000000 0.000000
0.195453 0.000000 0.000000
0.217434 0.000000 0.000000
0.242196 0.000000 0.000000
0.267680 0.000000 0.000000
0.292706 0.000000 0.000000
0.318455 0.000000 0.000000
0.344862 0.000000 0.000000
0.371945 0.000000 0.000000
0.397845 0.000000 0.000000
0.425893 0.000000 0.000000
0.452574 0.000000 0.000000
0.479572 0.000000 0.000000
0.508456 0.000000 0.000000
0.531180 0.000000 0.000000
0.552376 0.000000 0.000000
0.568315 0.000000 0.000000
0.581934 0.000000 0.000000
0.592166 0.000000 0.000000
0.604120 0.000000 0.000000
0.609248 0.000000 0.000000
0.000000 0.003406 0.000397
0.000577 0.003399 0.000324
0.002948 0.003365 0.000000
0.008268 0.005046 0.000000
0.017504 0.006077 0.000000
0.030380 0.004442 0.000000
0.046861 0.000000 0.000000
0.068319 0.000000 0.000000
0.095822 0.000000 0.000000
0.113157 0.000000 0.000000
0.130602 0.000000 0.000000
0.150668 0.000000 0.000000
0.171486 0.000000 0.000000
0.195447 0.000000 0.000000
0.217429 0.000000 0.000000
0.242193 0.000000 0.000000
0.267677 0.000000 0.000000
0.292704 0.000000 0.000000
0.320002 0.000000 0.000000
0.344860 0.000000 0.000000
0.371943 0.000000 0.000000
0.397843 0.000000 0.000000
0.425890 0.000000 0.000000
0.454244 0.000000 0.000000
0.479570 0.000000 0.000000
0.508454 0.000000 0.000000
0.531178 0.000000 0.000000
0.552374 0.000000 0.000000
0.568313 0.000000 0.000000
0.581933 0.000000 0.000000
0.593871 0.000000 0.000000
0.604118 0.000000 0.000000
0.610957 0.000000 0.000000
0.000000 0.008549 0.000000
0.000000 0.008545 0.000000
0.001260 0.008672 0.000000
0.007241 0.008742 0.000000
0.016758 0.011446 0.000000
0.029692 0.012768 0.000000
0.046654 0.010966 0.000000
0.068189 0.000000 0.000000
0.095710 0.000000 0.000000
0.113057 0.000000 0.000000
0.131558 0.000000 0.000000
0.151760 0.000000 0.000000
0.172604 0.000000 0.000000
0.195414 0.000000 0.000000
0.218774 0.000000 0.000000
0.243553 0.000000 0.000000
0.267661 0.000000 0.000000
0.294169 0.000000 0.000000
0.319993 0.000000 0.000000
0.344851 0.000000 0.000000
0.371934 0.000000 0.000000
0.397836 0.000000 0.000000
0.425884 0.000000 0.000000
0.452566 0.000000 0.000000
0.479565 0.000000 0.000000
0.508450 0.000000 0.000000
0.531174 0.000000 0.000000
0.552371 0.000000 0.000000
0.568310 0.000000 0.000000
0.581930 0.000000 0.000000
0.593868 0.000000 0.000000
0.604116 0.000000 0.000000
0.610955 0.000000 0.000000
0.000000 0.017317 0.000000
0.000000 0.017315 0.000000
0.000000 0.017303 0.000000
0.005606 0.017515 0.000000
0.014952 0.017626 0.000000
0.028813 0.021376 0.000000
0.046597 0.022610 0.000000
0.068530 0.021592 0.000000
0.096224 0.021157 0.000000
0.113753 0.016678 0.000000
0.133342 0.000000 0.000000
0.153855 0.000000 0.000000
0.173708 0.000000 0.000000
0.196575 0.000000 0.000000
0.218697 0.000000 0.000000
0.243482 0.000000 0.000000
0.269074 0.000000 0.000000
0.294132 0.000000 0.000000
0.319967 0.000000 0.000000
0.346384 0.000000 0.000000
0.371910 0.000000 0.000000
0.397814 0.000000 0.000000
0.425864 0.000000 0.000000
0.452550 0.000000 0.000000
0.479551 0.000000 0.000000
0.508437 0.000000 0.000000
0.531163 0.000000 0.000000
0.552361 0.000000 0.000000
0.568301 0.000000 0.000000
0.583628 0.000000 0.000000
0.593860 0.000000 0.000000
0.604110 0.000000 0.000000
0.610944 0.000000 0.000000
0.000000 0.031410 0.000000
0.000000 0.031408 0.000000
0.000000 0.031401 0.000000
0.000000 0.031783 0.000000
0.013163 0.032091 0.000000
0.026990 0.032261 0.000000
0.047942 0.036146 0.000000
0.072108 0.038017 0.000000
0.100694 0.042208 0.000000
0.120249 0.039503 0.000000
0.139388 0.037576 0.000000
0.160293 0.030811 0.000000
0.180902 0.014313 0.000000
0.201398 0.000000 0.000000
0.222617 0.000000 0.000000
0.247475 0.000000 0.000000
0.270423 0.000000 0.000000
0.295527 0.000000 0.000000
0.321456 0.000000 0.000000
0.346325 0.000000 0.000000
0.373468 0.000000 0.000000
0.399381 0.000000 0.000000
0.425813 0.000000 0.000000
0.454174 0.000000 0.000000
0.481207 0.000000 0.000000
0.508400 0.000000 0.000000
0.531132 0.000000 0.000000
0.552337 0.000000 0.000000
0.569979 0.000000 0.000000
0.583605 0.000000 0.000000
0.593840 0.000000 0.000000
0.605806 0.000000 0.000000
0.612638 0.000000 0.000000
0.000000 0.051673 0.000000
0.000000 0.051672 0.000000
0.000000 0.051668 0.000000
0.000000 0.052250 0.000000
0.000000 0.052778 0.000000
0.023078 0.053212 0.000000
0.048079 0.053934 0.000000
0.078430 0.059250 0.000000
0.114261 0.065392 0.000000
0.135865 0.061141 0.000000
0.156944 0.058610 0.000000
0.178798 0.053349 0.000000
0.201950 0.046125 0.000000
0.223344 0.036278 0.000000
0.245599 0.000000 0.000000
0.270084 0.000000 0.000000
0.293853 0.000000 0.000000
0.318200 0.000000 0.000000
0.343115 0.000000 0.000000
0.366921 0.000000 0.000000
0.391173 0.000000 0.000000
0.415751 0.000000 0.000000
0.440730 0.000000 0.000000
0.465882 0.000000 0.000000
0.491317 0.000000 0.000000
0.513449 0.000000 0.000000
0.536364 0.000000 0.000000
0.554048 0.000000 0.000000
0.569923 0.000000 0.000000
0.583566 0.000000 0.000000
0.595498 0.000000 0.000000
0.605760 0.000000 0.000000
0.612607 0.000000 0.000000
0.000000 0.081159 0.000000
0.000000 0.081158 0.000000
0.000000 0.081154 0.000000
0.000000 0.081869 0.000000
0.000000 0.082549 0.000000
0.000000 0.083966 0.000000
0.045033 0.084450 0.000000
0.081171 0.085279 0.000000
0.125458 0.096296 0.000000
0.153167 0.091663 0.000000
0.179622 0.083967 0.000000
0.203283 0.076411 0.000000
0.226324 0.073995 0.000000
0.250018 0.070779 0.000000
0.274970 0.061173 0.000000
0.298952 0.040402 0.000000
0.322405 0.000000 0.000000
0.347558 0.000000 0.000000
0.373243 0.000000 0.000000
0.397536 0.000000 0.000000
0.422257 0.000000 0.000000
0.447268 0.000000 0.000000
0.472523 0.000000 0.000000
0.497987 0.000000 0.000000
0.522131 0.000000 0.000000
0.548613 0.000000 0.000000
0.568106 0.000000 0.000000
0.585144 0.000000 0.000000
0.600516 0.000000 0.000000
0.609071 0.000000 0.000000
0.615932 0.000000 0.000000
0.622793 0.000000 0.000000
0.627842 0.000000 0.000000
0.000000 0.122111 0.000000
0.000000 0.122110 0.000000
0.000000 0.122107 0.000000
0.000000 0.123062 0.000000
0.000000 0.123991 0.000000
0.000000 0.125811 0.000000
0.012057 0.128672 0.000000
0.085007 0.131216 0.000000
0.126402 0.129070 0.000000
0.159704 0.125533 0.000000
0.190753 0.118504 0.000000
0.221217 0.110939 0.000000
0.248078 0.108261 0.000000
0.274595 0.106205 0.000000
0.298750 0.099206 0.000000
0.324008 0.085517 0.000000
0.349611 0.056868 0.000000
0.375874 0.000000 0.000000
0.400384 0.000000 0.000000
0.425243 0.000000 0.000000
0.451947 0.000000 0.000000
0.477311 0.000000 0.000000
0.502823 0.000000 0.000000
0.530705 0.000000 0.000000
0.557241 0.000000 0.000000
0.583223 0.000000 0.000000
0.603745 0.000000 0.000000
0.622581 0.000000 0.000000
0.637744 0.000000 0.000000
0.644516 0.000000 0.000000
0.656314 0.000000 0.000000
0.661395 0.000000 0.000000
0.668152 0.000000 0.000000
0.000000 0.154896 0.000000
0.000000 0.154895 0.000000
0.000000 0.154891 0.000000
0.000000 0.154883 0.000000
0.000000 0.157025 0.000000
0.000000 0.159105 0.000000
0.000000 0.161108 0.000000
0.059476 0.166592 0.000000
0.118024 0.168125 0.000000
0.161344 0.165769 0.000000
0.201609 0.158104 0.000000
0.238523 0.151399 0.000000
0.270097 0.146794 0.000000
0.298973 0.144258 0.000000
0.324576 0.137934 0.000000
0.351875 0.129426 0.000000
0.376965 0.113237 0.000000
0.403917 0.082171 0.000000
0.430917 0.056648 0.000000
0.456170 0.011752 0.000000
0.483296 0.000000 0.000000
0.510650 0.000000 0.000000
0.537155 0.000000 0.000000
0.563799 0.000000 0.000000
0.589567 0.000000 0.000000
0.615251 0.000000 0.000000
0.637291 0.000000 0.000000
0.655870 0.000000 0.000000
0.669426 0.000000 0.000000
0.679511 0.000000 0.000000
0.689408 0.000000 0.000000
0.696045 0.000000 0.000000
0.700985 0.000000 0.000000
0.000000 0.191055 0.000000
0.000000 0.191052 0.000000
0.000000 0.191047 0.000000
0.000000 0.192232 0.000000
0.000000 0.193405 0.000000
0.000000 0.195727 0.000000
0.000000 0.199180 0.000000
0.000000 0.205284 0.000000
0.093682 0.211163 0.000000
0.150787 0.208952 0.000000
0.207936 0.204744 0.000000
0.254816 0.197527 0.000000
0.291120 0.192867 0.000000
0.323607 0.188065 0.000000
0.354937 0.180363 0.000000
0.383524 0.172298 0.000000
0.408907 0.163945 0.000000
0.437906 0.155802 0.000000
0.465401 0.145458 0.000000
0.491424 0.132452 0.000000
0.519248 0.124217 0.000000
0.546028 0.112885 0.000000
0.572623 0.096782 0.000000
0.600186 0.074845 0.000000
0.624297 0.038503 0.000000
0.649746 0.000000 0.000000
0.673494 0.000000 0.000000
0.690078 0.000000 0.000000
0.706607 0.000000 0.000000
0.716672 0.000000 0.000000
0.725009 0.000000 0.000000
0.731538 0.000000 0.000000
0.734802 0.000000 0.000000
0.000000 0.228991 0.000000
0.000000 0.230280 0.000000
0.000000 0.230275 0.000000
0.000000 0.230265 0.000000
0.000000 0.231540 0.000000
0.000000 0.234082 0.000000
0.000000 0.236569 0.000000
0.000000 0.244339 0.000000
0.029889 0.253550 0.000000
0.134310 0.255531 0.000000
0.203829 0.252796 0.000000
0.268646 0.246553 0.000000
0.312221 0.240411 0.000000
0.345835 0.235746 0.000000
0.382012 0.227710 0.000000
0.416637 0.219458 0.000000
0.444092 0.217019 0.000000
0.471660 0.215757 0.000000
0.499633 0.209768 0.000000
0.528462 0.200138 0.000000
0.555553 0.193169 0.000000
0.583670 0.183762 0.000000
0.611523 0.173462 0.000000
0.637308 0.162469 0.000000
0.662987 0.150141 0.000000
0.688251 0.136088 0.000000
0.709885 0.123433 0.000000
0.728206 0.106943 0.000000
0.744195 0.095018 0.000000
0.753892 0.076797 0.000000
0.765075 0.066319 0.000000
0.770054 0.000000 0.000000
0.774886 0.000000 0.000000
0.000000 0.275001 0.000000
0.000000 0.274997 0.000000
0.000000 0.276369 0.000000
0.000000 0.276357 0.000000
0.000000 0.277724 0.000000
0.000000 0.280451 0.000000
0.000000 0.283147 0.000000
0.000000 0.288690 0.000000
0.000000 0.298485 0.000000
0.107388 0.306548 0.000000
0.193051 0.308367 0.000000
0.268448 0.306631 0.000000
0.324892 0.303290 0.000000
0.366306 0.295603 0.000000
0.407461 0.287499 0.000000
0.446802 0.279025 0.000000
0.475185 0.275502 0.000000
0.505246 0.273176 0.000000
0.536416 0.267344 0.000000
0.565443 0.261357 0.000000
0.593670 0.253644 0.000000
0.620036 0.245707 0.000000
0.647614 0.238792 0.000000
0.673478 0.229954 0.000000
0.700364 0.220330 0.000000
0.725532 0.210278 0.000000
0.746575 0.200285 0.000000
0.766023 0.189884 0.000000
0.780354 0.182110 0.000000
0.791203 0.172585 0.000000
0.800469 0.165229 0.000000
0.806735 0.156105 0.000000
0.812891 0.151562 0.000000
0.000000 0.323822 0.000000
0.000000 0.323816 0.000000
0.000000 0.325263 0.000000
0.000000 0.326708 0.000000
0.000000 0.328148 0.000000
0.000000 0.329576 0.000000
0.000000 0.332483 0.000000
0.000000 0.336874 0.000000
0.000000 0.347148 0.000000
0.000000 0.360240 0.000000
0.171225 0.366909 0.000000
0.264358 0.374516 0.000000
0.331501 0.377508 0.000000
0.383646 0.366500 0.000000
0.433353 0.352039 0.000000
0.477763 0.343552 0.000000
0.507557 0.337099 0.000000
0.543399 0.328393 0.000000
0.572393 0.323058 0.000000
0.600947 0.317515 0.000000
0.630681 0.313264 0.000000
0.658631 0.307257 0.000000
0.684278 0.301205 0.000000
0.709817 0.293308 0.000000
0.736253 0.286647 0.000000
0.760773 0.278148 0.000000
0.781561 0.269789 0.000000
0.800149 0.263238 0.000000
0.815670 0.256935 0.000000
0.826368 0.249364 0.000000
0.835155 0.243863 0.000000
0.841133 0.236803 0.000000
0.845595 0.231894 0.000000
0.000000 0.374920 0.000000
0.000000 0.374913 0.000000
0.000000 0.376417 0.000000
0.000000 0.377919 0.000000
0.000000 0.379418 0.000000
0.000000 0.380942 0.000000
0.000000 0.382445 0.000000
0.000000 0.387006 0.000000
0.000000 0.396112 0.000000
0.000000 0.409746 0.000000
0.119373 0.423048 0.000000
0.247358 0.440631 0.000000
0.332882 0.451755 0.000000
0.395403 0.438933 0.000000
0.452585 0.419335 0.000000
0.508921 0.407330 0.000000
0.543948 0.399127 0.000000
0.577478 0.389116 0.000000
0.610590 0.378831 0.000000
0.640753 0.373415 0.000000
0.666820 0.371447 0.000000
0.694014 0.369259 0.000000
0.721222 0.363522 0.000000
0.747590 0.357647 0.000000
0.772060 0.351742 0.000000
0.794090 0.344129 0.000000
0.815983 0.338147 0.000000
0.835038 0.334083 0.000000
0.848300 0.328845 0.000000
0.860109 0.323689 0.000000
0.868575 0.320718 0.000000
0.874217 0.314438 0.000000
0.878421 0.310141 0.000000
0.000000 0.426158 0.000000
0.000000 0.427711 0.000000
0.000000 0.427695 0.000000
0.000000 0.429240 0.000000
0.000000 0.430797 0.000000
0.000000 0.432347 0.000000
0.000000 0.433899 0.000000
0.000000 0.436997 0.000000
0.000000 0.444737 0.000000
0.000000 0.458688 0.000000
0.000000 0.475615 0.000000
0.213904 0.494091 0.000000
0.321558 0.515723 0.000000
0.396565 0.512500 0.000000
0.465856 0.490536 0.000000
0.531424 0.476438 0.000000
0.573716 0.466237 0.000000
0.608242 0.453044 0.000000
0.643535 0.441180 0.000000
0.675668 0.432555 0.000000
0.704559 0.434004 0.000000
0.731128 0.432153 0.000000
0.756226 0.426902 0.000000
0.783396 0.421334 0.000000
0.807003 0.417628 0.000000
0.830872 0.413776 0.000000
0.848855 0.406848 0.000000
0.867332 0.403271 0.000000
0.880962 0.400109 0.000000
0.893365 0.395233 0.000000
0.901710 0.390735 0.000000
0.906969 0.386558 0.000000
0.909648 0.382668 0.000000
0.000000 0.475255 0.000000
0.000000 0.475244 0.000000
0.000000 0.476813 0.000000
0.000000 0.479977 0.000000
0.000000 0.479954 0.000000
0.000000 0.481570 0.000000
0.000000 0.483186 0.000000
0.000000 0.486421 0.000000
0.000000 0.494487 0.000000
0.000000 0.504138 0.000000
0.000000 0.521859 0.000000
0.155512 0.540362 0.000000
0.288984 0.559788 0.000000
0.379658 0.567904 0.000000
0.460694 0.558007 0.000000
0.535749 0.547694 0.000000
0.588477 0.539296 0.000000
0.627405 0.526267 0.000000
0.665024 0.512903 0.000000
0.699611 0.502524 0.000000
0.728141 0.500919 0.000000
0.755275 0.495826 0.000000
0.781242 0.488937 0.000000
0.805354 0.483792 0.000000
0.829390 0.478537 0.000000
0.851907 0.473281 0.000000
0.871426 0.468156 0.000000
0.890651 0.464757 0.000000
0.905017 0.461712 0.000000
0.915188 0.457189 0.000000
0.923968 0.454571 0.000000
0.930279 0.452163 0.000000
0.934121 0.449977 0.000000
0.000000 0.532775 0.000000
0.000000 0.532762 0.000000
0.000000 0.534329 0.000000
0.000000 0.535894 0.000000
0.000000 0.537454 0.000000
0.000000 0.537419 0.000000
0.000000 0.538979 0.000000
0.000000 0.542109 0.000000
0.000000 0.548353 0.000000
0.000000 0.557690 0.000000
0.000000 0.571658 0.000000
0.000000 0.588442 0.000000
0.220805 0.609597 0.000000
0.334861 0.627254 0.000000
0.446053 0.625280 0.000000
0.548860 0.630514 0.000000
0.611778 0.625468 0.000000
0.652815 0.604804 0.000000
0.689418 0.590425 0.000000
0.725407 0.579103 0.000000
0.755043 0.569530 0.000000
0.781523 0.563244 0.000000
0.807390 0.555117 0.000000
0.832011 0.548619 0.000000
0.854353 0.542159 0.000000
0.876963 0.535582 0.000000
0.896071 0.530850 0.000000
0.913862 0.526146 0.000000
0.927726 0.523390 0.000000
0.938413 0.519130 0.000000
0.945356 0.515139 0.000000
0.951028 0.512957 0.000000
0.955751 0.509117 0.000000
0.000000 0.580626 0.000000
0.000000 0.582211 0.000000
0.000000 0.583751 0.000000
0.000000 0.585295 0.000000
0.000000 0.586830 0.000000
0.000000 0.588367 0.000000
0.000000 0.589900 0.000000
0.000000 0.591413 0.000000
0.000000 0.596013 0.000000
0.000000 0.605252 0.000000
0.000000 0.617535 0.000000
0.000000 0.632763 0.000000
0.164948 0.651908 0.000000
0.281740 0.674096 0.000000
0.410943 0.679954 0.000000
0.543601 0.692121 0.000000
0.628312 0.698832 0.000000
0.667216 0.676534 0.000000
0.706642 0.656525 0.000000
0.744713 0.643977 0.000000
0.775667 0.634725 0.000000
0.803567 0.625491 0.000000
0.828884 0.617862 0.000000
0.854170 0.610088 0.000000
0.877156 0.603848 0.000000
0.897234 0.597700 0.000000
0.916924 0.589844 0.000000
0.933776 0.585424 0.000000
0.947336 0.582848 0.000000
0.957722 0.578793 0.000000
0.965081 0.576602 0.000000
0.970233 0.572880 0.000000
0.973457 0.569289 0.000000
0.000000 0.624717 0.000000
0.000000 0.626275 0.000000
0.000000 0.627830 0.000000
0.000000 0.630947 0.000000
0.000000 0.632494 0.000000
0.000000 0.632462 0.000000
0.000000 0.635486 0.000000
0.000000 0.635429 0.000000
0.000000 0.639924 0.000000
0.000000 0.647432 0.000000
0.000000 0.657905 0.000000
0.000000 0.671382 0.000000
0.000000 0.688796 0.000000
0.226212 0.710311 0.000000
0.362689 0.726728 0.000000
0.519611 0.739680 0.000000
0.622389 0.750089 0.000000
0.673298 0.735755 0.000000
0.717119 0.717119 0.000000
0.758466 0.703495 0.000000
0.790849 0.693091 0.000000
0.818823 0.682756 0.000000
0.844857 0.673931 0.000000
0.869875 0.666595 0.000000
0.892689 0.660826 0.000000
0.913985 0.653273 0.000000
0.931630 0.649073 0.000000
0.949149 0.643223 0.000000
0.961815 0.639236 0.000000
0.971710 0.637011 0.000000
0.978879 0.633323 0.000000
0.984101 0.629750 0.000000
0.987834 0.627887 0.000000
0.000000 0.661796 0.000000
0.000000 0.663315 0.000000
0.000000 0.664824 0.000000
0.000000 0.666328 0.000000
0.000000 0.669364 0.000000
0.000000 0.670873 0.000000
0.000000 0.672374 0.000000
0.000000 0.673861 0.000000
0.000000 0.676857 0.000000
0.000000 0.682833 0.000000
0.000000 0.690022 0.000000
0.000000 0.701570 0.000000
0.000000 0.718805 0.000000
0.162480 0.739684 0.000000
0.304249 0.758517 0.000000
0.472448 0.769049 0.000000
0.590871 0.782696 0.000000
0.665391 0.780812 0.000000
0.716312 0.765852 0.000000
0.759813 0.754515 0.000000
0.796469 0.745970 0.000000
0.824554 0.734744 0.000000
0.851544 0.727822 0.000000
0.875837 0.720943 0.000000
0.897486 0.714120 0.000000
0.918555 0.710186 0.000000
0.937488 0.704692 0.000000
0.954743 0.700706 0.000000
0.967710 0.698465 0.000000
0.977721 0.696370 0.000000
0.984650 0.692885 0.000000
0.989735 0.691047 0.000000
0.993394 0.687734 0.000000
0.000000 0.696643 0.000000
0.000000 0.698104 0.000000
0.000000 0.699559 0.000000
0.000000 0.702472 0.000000
0.000000 0.703915 0.000000
0.000000 0.705371 0.000000
0.000000 0.706805 0.000000
0.000000 0.708257 0.000000
0.000000 0.709685 0.000000
0.000000 0.714059 0.000000
0.000000 0.719830 0.000000
0.000000 0.729893 0.000000
0.000000 0.746320 0.000000
0.043868 0.768199 0.000000
0.258837 0.786261 0.000000
0.427681 0.797770 0.000000
0.559886 0.812668 0.000000
0.647986 0.815636 0.000000
0.706538 0.805261 0.000000
0.758266 0.798290 0.000000
0.800073 0.790120 0.000000
0.828722 0.780942 0.000000
0.856305 0.773084 0.000000
0.879654 0.766688 0.000000
0.903476 0.761581 0.000000
0.922436 0.758005 0.000000
0.941846 0.754375 0.000000
0.958186 0.750671 0.000000
0.971121 0.748572 0.000000
0.980608 0.745164 0.000000
0.988220 0.743309 0.000000
0.992539 0.741616 0.000000
0.995822 0.741447 0.000000
0.000000 0.729327 0.000000
0.000000 0.730728 0.000000
0.000000 0.732093 0.000000
0.000000 0.733479 0.000000
0.000000 0.734857 0.000000
0.000000 0.737626 0.000000
0.000000 0.739002 0.000000
0.000000 0.740355 0.000000
0.000000 0.743150 0.000000
0.000000 0.744491 0.000000
0.000000 0.750020 0.000000
0.000000 0.756905 0.000000
0.000000 0.770648 0.000000
0.000000 0.788784 0.000000
0.166036 0.808037 0.000000
0.361336 0.824374 0.000000
0.518907 0.838203 0.000000
0.632007 0.848338 0.000000
0.693425 0.840610 0.000000
0.752936 0.833951 0.000000
0.799468 0.828747 0.000000
0.829422 0.820214 0.000000
0.858055 0.811651 0.000000
0.882944 0.805674 0.000000
0.905787 0.800985 0.000000
0.926097 0.797513 0.000000
0.943271 0.794036 0.000000
0.960750 0.790518 0.000000
0.972887 0.789965 0.000000
0.983065 0.788120 0.000000
0.990957 0.784997 0.000000
0.995087 0.783425 0.000000
0.997694 0.783300 0.000000
0.000000 0.759032 0.000000
0.000000 0.760428 0.000000
0.000000 0.761792 0.000000
0.000000 0.763190 0.000000
0.000000 0.765959 0.000000
0.000000 0.768746 0.000000
0.000000 0.768712 0.000000
0.000000 0.770097 0.000000
0.000000 0.771463 0.000000
0.000000 0.774244 0.000000
0.000000 0.776834 0.000000
0.000000 0.782001 0.000000
0.000000 0.792310 0.000000
0.000000 0.809053 0.000000
0.000000 0.827352 0.000000
0.277376 0.847309 0.000000
0.459446 0.858263 0.000000
0.599578 0.871589 0.000000
0.677584 0.869853 0.000000
0.745021 0.864702 0.000000
0.796427 0.860924 0.000000
0.829386 0.854186 0.000000
0.857548 0.846395 0.000000
0.883982 0.840883 0.000000
0.906418 0.834998 0.000000
0.926348 0.832955 0.000000
0.945037 0.829670 0.000000
0.961796 0.826439 0.000000
0.974359 0.825901 0.000000
0.984609 0.824186 0.000000
0.991616 0.821339 0.000000
0.995771 0.819884 0.000000
0.998398 0.819765 0.000000
0.000000 0.783935 0.000000
0.000000 0.785233 0.000000
0.000000 0.786547 0.000000
0.000000 0.789142 0.000000
0.000000 0.791759 0.000000
0.000000 0.794355 0.000000
0.000000 0.794334 0.000000
0.000000 0.795622 0.000000
0.000000 0.798224 0.000000
0.000000 0.799516 0.000000
0.000000 0.802112 0.000000
0.000000 0.805987 0.000000
0.000000 0.815059 0.000000
0.000000 0.825849 0.000000
0.000000 0.842450 0.000000
0.167924 0.860754 0.000000
0.378549 0.874975 0.000000
0.555793 0.889957 0.000000
0.658230 0.893917 0.000000
0.728113 0.889213 0.000000
0.787302 0.885570 0.000000
0.826347 0.880349 0.000000
0.853157 0.872771 0.000000
0.881059 0.867252 0.000000
0.904655 0.861833 0.000000
0.924233 0.859957 0.000000
0.943030 0.856939 0.000000
0.959369 0.853995 0.000000
0.973067 0.852287 0.000000
0.983114 0.851869 0.000000
0.990602 0.850403 0.000000
0.994772 0.849076 0.000000
0.997418 0.848962 0.000000
0.000000 0.807893 0.000000
0.000000 0.809215 0.000000
0.000000 0.809211 0.000000
0.000000 0.811826 0.000000
0.000000 0.811799 0.000000
0.000000 0.817038 0.000000
0.000000 0.818245 0.000000
0.000000 0.819418 0.000000
0.000000 0.821819 0.000000
0.000000 0.824235 0.000000
0.000000 0.825406 0.000000
0.000000 0.828990 0.000000
0.000000 0.836173 0.000000
0.000000 0.844516 0.000000
0.000000 0.857343 0.000000
0.000000 0.871314 0.000000
0.256238 0.888320 0.000000
0.493779 0.902962 0.000000
0.623274 0.913732 0.000000
0.709299 0.909817 0.000000
0.775016 0.908118 0.000000
0.820691 0.903774 0.000000
0.849266 0.895808 0.000000
0.877158 0.890843 0.000000
0.900859 0.885971 0.000000
0.921638 0.883196 0.000000
0.940523 0.880464 0.000000
0.956586 0.877815 0.000000
0.970160 0.877284 0.000000
0.980768 0.875841 0.000000
0.988097 0.875545 0.000000
0.993607 0.874300 0.000000
0.997117 0.873134 0.000000
0.000000 0.829548 0.000000
0.000000 0.830760 0.000000
0.000000 0.831964 0.000000
0.000000 0.831964 0.000000
0.000000 0.836770 0.000000
0.000000 0.839193 0.000000
0.000000 0.839193 0.000000
0.000000 0.840354 0.000000
0.000000 0.842784 0.000000
0.000000 0.843970 0.000000
0.000000 0.847588 0.000000
0.000000 0.849993 0.000000
0.000000 0.857081 0.000000
0.000000 0.861393 0.000000
0.000000 0.871108 0.000000
0.000000 0.881805 0.000000
0.122449 0.900909 0.000000
0.404151 0.915100 0.000000
0.575643 0.927168 0.000000
0.683242 0.927621 0.000000
0.761501 0.926596 0.000000
0.813991 0.924285 0.000000
0.844167 0.917274 0.000000
0.871178 0.912054 0.000000
0.896012 0.908470 0.000000
0.919247 0.904622 0.000000
0.937231 0.901948 0.000000
0.953884 0.900318 0.000000
0.967940 0.897750 0.000000
