transforms/AB06_aged_tinted_d65_r709.cube
#  AB_06_D65_r709.cube
LUT_3D_SIZE 5
0.000000 0.000000 0.000000
0.094962 0.000000 0.000000
0.267681 0.000000 0.000000
0.479573 0.000000 0.000000
0.609249 0.000000 0.000000
0.000000 0.122111 0.000000
0.126402 0.129070 0.000000
0.349611 0.056868 0.000000
0.557241 0.000000 0.000000
0.668152 0.000000 0.000000
0.000000 0.475255 0.000000
0.000000 0.494487 0.000000
0.588477 0.539296 0.000000
0.829390 0.478537 0.000000
0.934121 0.449977 0.000000
0.000000 0.783935 0.000000
0.000000 0.798224 0.000000
0.378549 0.874975 0.000000
0.904655 0.861833 0.000000
0.997418 0.848962 0.000000
0.000000 0.903530 0.000000
0.000000 0.917114 0.000000
0.000000 0.941268 0.000000
0.857944 0.966633 0.000000
0.987149 0.954908 0.000000
0.003041 0.002652 0.076334
0.092283 0.000000 0.074668
0.267681 0.000000 0.060477
0.479572 0.000000 0.000000
0.609248 0.000000 0.000000
0.000000 0.119220 0.114036
0.123810 0.129155 0.120247
0.337407 0.039889 0.075494
0.537908 0.000000 0.000000
0.634541 0.000000 0.000000
0.000000 0.488240 0.118633
0.000000 0.509294 0.135035
0.598647 0.553572 0.224085
0.846434 0.484338 0.237299
0.947241 0.454196 0.239902
0.000000 0.790560 0.000000
0.000000 0.804862 0.000000
0.369010 0.879562 0.122850
0.910392 0.868485 0.233222
1.001817 0.854525 0.281490
0.000000 0.910437 0.000000
0.000000 0.922096 0.000000
0.000000 0.944715 0.000000
0.859540 0.970034 0.169391
0.988869 0.958357 0.192372
0.003383 0.002799 0.214322
0.073101 0.000000 0.216840
0.263282 0.000000 0.217290
0.477878 0.000000 0.202771
0.610959 0.000000 0.199947
0.000000 0.052950 0.266840
0.071680 0.050468 0.265354
0.260045 0.000000 0.221218
0.472712 0.000000 0.198730
0.610891 0.000000 0.198346
0.000000 0.468777 0.515033
0.000000 0.481068 0.524481
0.608382 0.606418 0.603046
0.854408 0.476637 0.492702
0.952981 0.435446 0.469250
0.000000 0.839240 0.569461
0.000000 0.851079 0.574575
0.363083 0.904544 0.605244
0.928940 0.917127 0.627467
1.006001 0.900343 0.625263
0.000000 0.950826 0.491659
0.000000 0.953675 0.496756
0.000000 0.972558 0.532376
0.872015 0.993544 0.601679
0.994343 0.984009 0.597091
0.005475 0.004864 0.394257
0.059600 0.000000 0.398988
0.238053 0.000000 0.406206
0.471098 0.000000 0.403067
0.609245 0.000000 0.401335
0.000000 0.024303 0.419678
0.044227 0.024106 0.421256
0.229690 0.000000 0.406252
0.465953 0.000000 0.403139
0.610896 0.000000 0.401248
0.000000 0.370145 0.695281
0.000000 0.375675 0.701105
0.454462 0.419263 0.753778
0.780382 0.468003 0.727769
0.893115 0.398835 0.685611
0.000000 0.791574 0.837937
0.000000 0.806985 0.848354
0.380089 0.877203 0.894254
0.928364 0.929441 0.927556
1.006830 0.909827 0.911670
0.000000 0.943602 0.846265
0.000000 0.948568 0.851741
0.000000 0.963968 0.869227
0.843933 0.999086 0.923180
0.996637 0.995402 0.921590
0.008677 0.009034 0.570733
0.040377 0.000000 0.570726
0.216053 0.000000 0.580167
0.455908 0.000000 0.576707
0.604114 0.000000 0.572937
0.000000 0.051428 0.649867
0.066171 0.050044 0.651418
0.262730 0.000000 0.654078
0.498129 0.000000 0.584380
0.651458 0.000000 0.580308
0.000000 0.203000 0.776509
0.079235 0.204896 0.782238
0.356393 0.217119 0.810388
0.638115 0.187397 0.762632
0.789708 0.082805 0.721871
0.000000 0.741585 0.955307
0.000000 0.757900 0.961244
0.309576 0.804475 0.979510
0.889747 0.882302 0.995671
1.003663 0.892266 0.993000
0.000000 0.933485 0.963208
0.000000 0.945844 0.969933
0.000000 0.960262 0.977492
0.793507 0.998146 0.997421
0.995931 0.995931 0.997001
