transforms/DD01_classic_fpe_r709.cube
#  DD_01_FPE_r709.cube
LUT_3D_SIZE 5
0.000000 0.000000 0.000000
0.141043 0.055825 0.000000
0.518891 0.000000 0.000000
0.624104 0.000000 0.000000
0.624104 0.000000 0.000000
0.000000 0.104543 0.049588
0.121235 0.100543 0.024226
0.561837 0.070001 0.000000
0.674343 0.000000 0.000000
0.687914 0.000000 0.000000
0.000000 0.379529 0.133370
0.000000 0.319166 0.000000
0.647789 0.410391 0.000000
0.843053 0.379396 0.000000
0.808206 0.293772 0.000000
0.000000 0.501885 0.120033
0.000000 0.503861 0.000000
0.569183 0.697443 0.000000
0.974151 0.750201 0.000000
0.967933 0.713691 0.000000
0.000000 0.514179 0.120657
0.000000 0.514251 0.120224
0.320248 0.675621 0.000000
0.993775 0.833360 0.000000
1.015580 0.833710 0.000000
0.020392 0.022971 0.082114
0.136359 0.045214 0.157761
0.579107 0.000000 0.140236
0.661268 0.000000 0.116654
0.663149 0.000000 0.139260
0.000000 0.090064 0.108810
0.082457 0.101818 0.105297
0.548232 0.097869 0.043167
0.709713 0.000000 0.000000
0.674494 0.000000 0.000000
0.000000 0.356080 0.223738
0.000000 0.367278 0.138728
0.609830 0.444716 0.000000
0.868460 0.406173 0.000000
0.834829 0.323114 0.000000
0.000000 0.536307 0.239248
0.000000 0.517082 0.165699
0.434525 0.673326 0.000000
0.985446 0.766902 0.000000
0.974197 0.725588 0.000000
0.000000 0.541190 0.207021
0.000000 0.529799 0.154336
0.000000 0.613948 0.000000
0.978084 0.831517 0.000000
1.014869 0.832530 0.000000
0.030807 0.000000 0.264105
0.087437 0.000000 0.321911
0.564433 0.000000 0.512452
0.696850 0.000000 0.534432
0.695821 0.000000 0.523847
0.000000 0.108518 0.284701
0.000000 0.122476 0.371466
0.551442 0.077581 0.520833
0.746056 0.000000 0.516911
0.767350 0.000000 0.510218
0.000000 0.424201 0.514857
0.000000 0.443556 0.524492
0.511862 0.546725 0.537883
0.904128 0.515624 0.526296
0.884954 0.421119 0.478499
0.000000 0.652978 0.636368
0.000000 0.683978 0.635412
0.000000 0.744375 0.481476
0.990369 0.851171 0.415053
1.007557 0.804129 0.286886
0.000000 0.690365 0.678873
0.000000 0.678572 0.629874
0.000000 0.712456 0.432846
0.951378 0.876491 0.193478
1.021651 0.889804 0.234470
0.108975 0.000000 0.427849
0.160547 0.000000 0.463709
0.455308 0.000000 0.594922
0.716086 0.000000 0.657423
0.715941 0.000000 0.656997
0.000000 0.136099 0.479149
0.000000 0.148284 0.563397
0.424362 0.178899 0.674110
0.776359 0.000000 0.726444
0.718727 0.000000 0.650868
0.000000 0.438158 0.655717
0.000000 0.480146 0.690619
0.459790 0.611169 0.797775
0.911528 0.588719 0.871574
0.894117 0.457718 0.838354
0.000000 0.662675 0.772374
0.000000 0.721174 0.807109
0.467556 0.857494 0.858981
0.953256 0.933023 0.894573
0.992769 0.910805 0.882139
0.000000 0.701091 0.799805
0.000000 0.719925 0.811574
0.070664 0.873287 0.867114
0.867426 0.965328 0.876729
1.004271 0.979873 0.867265
0.158204 0.000000 0.486757
0.189210 0.000000 0.514258
0.361170 0.000000 0.598404
0.725450 0.000000 0.693464
0.722965 0.000000 0.679301
0.000000 0.163674 0.580608
0.000000 0.180905 0.633133
0.389763 0.232536 0.750617
0.788773 0.000000 0.787407
0.763757 0.000000 0.730489
0.000000 0.450202 0.707164
0.000000 0.519515 0.769350
0.397277 0.646919 0.879291
0.899719 0.693704 0.934986
0.913625 0.537239 0.915448
0.000000 0.663482 0.809173
0.000000 0.731792 0.853735
0.577027 0.884845 0.932298
0.945422 0.948572 0.973521
0.989241 0.930441 0.984875
0.000000 0.700258 0.828715
0.000000 0.755479 0.863402
0.479159 0.918653 0.945008
0.954519 0.990037 0.984539
1.000230 0.996208 0.987619
