transforms/DD01_classic_fpe_r709.cube
#  DD_01_FPE_r709.cube
LUT_3D_SIZE 9
0.000000 0.000000 0.000000
0.018563 0.009385 0.005010
0.141043 0.055825 0.000000
0.320582 0.054689 0.000000
0.518891 0.000000 0.000000
0.605319 0.000000 0.000000
0.624104 0.000000 0.000000
0.624104 0.000000 0.000000
0.624104 0.000000 0.000000
0.003375 0.016038 0.007424
0.013506 0.012851 0.005060
0.133598 0.061703 0.000000
0.302938 0.065009 0.000000
0.513213 0.000000 0.000000
0.604734 0.000000 0.000000
0.624104 0.000000 0.000000
0.624104 0.000000 0.000000
0.638609 0.000000 0.000000
0.000000 0.104543 0.049588
0.000000 0.091171 0.042957
0.121235 0.100543 0.024226
0.316264 0.119303 0.000000
0.561837 0.070001 0.000000
0.662264 0.000000 0.000000
0.674343 0.000000 0.000000
0.668069 0.000000 0.000000
0.687914 0.000000 0.000000
0.000000 0.213934 0.082988
0.000000 0.188842 0.072408
0.000000 0.176009 0.034258
0.322816 0.221889 0.000000
0.601574 0.222979 0.000000
0.735576 0.193112 0.000000
0.750636 0.166736 0.000000
0.734935 0.125870 0.000000
0.738743 0.136253 0.000000
0.000000 0.379529 0.133370
0.000000 0.359357 0.135113
0.000000 0.319166 0.000000
0.270170 0.368635 0.000000
0.647789 0.410391 0.000000
0.817671 0.399630 0.000000
0.843053 0.379396 0.000000
0.826083 0.333189 0.000000
0.808206 0.293772 0.000000
0.000000 0.468127 0.124157
0.000000 0.458310 0.125893
0.000000 0.449630 0.073748
0.103351 0.503325 0.000000
0.632300 0.600398 0.000000
0.881027 0.615507 0.000000
0.924810 0.603053 0.000000
0.918020 0.571332 0.000000
0.902175 0.527773 0.000000
0.000000 0.501885 0.120033
0.000000 0.499011 0.119487
0.000000 0.503861 0.000000
0.000000 0.546284 0.000000
0.569183 0.697443 0.000000
0.899765 0.749351 0.000000
0.974151 0.750201 0.000000
0.975337 0.733953 0.000000
0.967933 0.713691 0.000000
0.000000 0.514179 0.120657
0.000000 0.513172 0.120722
0.000000 0.511807 0.117094
0.000000 0.540709 0.000000
0.462467 0.704829 0.000000
0.880323 0.800256 0.000000
0.991804 0.812960 0.000000
1.004809 0.812470 0.000000
1.002117 0.805655 0.000000
0.000000 0.514179 0.120657
0.000000 0.514179 0.120657
0.000000 0.514251 0.120224
0.000000 0.531973 0.000000
0.320248 0.675621 0.000000
0.818761 0.804828 0.000000
0.993775 0.833360 0.000000
1.016659 0.835489 0.000000
1.015580 0.833710 0.000000
0.006451 0.005845 0.009489
0.017740 0.009899 0.017636
0.159932 0.057205 0.048451
0.349799 0.046936 0.000000
0.546495 0.000000 0.000000
0.625711 0.000000 0.000000
0.639855 0.000000 0.000000
0.638240 0.000000 0.000000
0.626933 0.000000 0.000000
0.003852 0.010947 0.011463
0.009632 0.010279 0.009625
0.114332 0.059476 0.033611
0.282287 0.067690 0.000000
0.512868 0.000000 0.000000
0.615359 0.000000 0.000000
0.633828 0.000000 0.000000
0.635594 0.000000 0.000000
0.627961 0.000000 0.000000
0.000000 0.087613 0.058850
0.000000 0.093045 0.052823
0.101367 0.096539 0.039866
0.292567 0.119945 0.000000
0.543263 0.085354 0.000000
0.662938 0.000000 0.000000
0.685230 0.000000 0.000000
0.667022 0.000000 0.000000
0.667415 0.000000 0.000000
0.000000 0.189871 0.081373
0.000000 0.194735 0.078556
0.000000 0.177425 0.037806
0.290704 0.222678 0.000000
0.583850 0.231905 0.000000
0.730941 0.200664 0.000000
0.752682 0.175417 0.000000
0.738743 0.136253 0.000000
0.737106 0.131904 0.000000
0.000000 0.364244 0.144789
0.000000 0.366412 0.139459
0.000000 0.328954 0.054874
0.230853 0.368404 0.000000
0.612336 0.416185 0.000000
0.808587 0.408736 0.000000
0.844514 0.386249 0.000000
0.832924 0.349424 0.000000
0.816033 0.310461 0.000000
0.000000 0.463634 0.138018
0.000000 0.460365 0.130054
0.000000 0.452735 0.082013
0.000000 0.492083 0.000000
0.591741 0.600491 0.000000
0.871838 0.623557 0.000000
0.926281 0.613402 0.000000
0.920786 0.579042 0.000000
0.905627 0.537190 0.000000
0.000000 0.502703 0.130372
0.000000 0.498651 0.119887
0.000000 0.498144 0.103919
0.000000 0.526617 0.000000
0.505305 0.684439 0.000000
0.880462 0.750540 0.000000
0.972983 0.754859 0.000000
0.977104 0.738815 0.000000
0.969714 0.718548 0.000000
0.000000 0.515572 0.130059
0.000000 0.512883 0.120742
0.000000 0.511806 0.119172
0.000000 0.541902 0.000000
0.365811 0.679121 0.000000
0.846830 0.795664 0.000000
0.989397 0.814315 0.000000
1.004241 0.811035 0.000000
1.001123 0.803146 0.000000
0.000000 0.514179 0.120657
0.000000 0.514179 0.120657
0.000000 0.514179 0.120657
0.000000 0.525648 0.000000
0.295237 0.668859 0.000000
0.778198 0.796856 0.000000
0.986421 0.832525 0.000000
1.016254 0.834988 0.000000
1.015264 0.833185 0.000000
0.020392 0.022971 0.082114
0.039389 0.023414 0.094871
0.136359 0.045214 0.157761
0.353089 0.033172 0.150437
0.579107 0.000000 0.140236
0.649709 0.000000 0.125124
0.661268 0.000000 0.116654
0.661157 0.000000 0.115249
0.663149 0.000000 0.139260
0.000000 0.042163 0.073185
0.028791 0.048034 0.088508
0.107556 0.057037 0.125093
0.314203 0.058606 0.111704
0.541401 0.000000 0.082573
0.637411 0.000000 0.050846
0.656724 0.000000 0.043131
0.656613 0.000000 0.040081
0.678502 0.000000 0.061256
0.000000 0.090064 0.108810
0.000000 0.087500 0.103826
0.082457 0.101818 0.105297
0.285626 0.124155 0.089018
0.548232 0.097869 0.043167
0.687539 0.000000 0.000000
0.709713 0.000000 0.000000
0.692897 0.000000 0.000000
0.674494 0.000000 0.000000
0.000000 0.182712 0.141287
0.000000 0.184329 0.135566
0.000000 0.193378 0.090922
0.276524 0.233347 0.000000
0.589737 0.247111 0.000000
0.755938 0.213135 0.000000
0.782953 0.187392 0.000000
0.771908 0.158048 0.000000
0.749345 0.101340 0.000000
0.000000 0.356080 0.223738
0.000000 0.374519 0.206594
0.000000 0.367278 0.138728
0.181999 0.391221 0.000000
0.609830 0.444716 0.000000
0.832006 0.433496 0.000000
0.868460 0.406173 0.000000
0.858226 0.371390 0.000000
0.834829 0.323114 0.000000
0.000000 0.486510 0.245024
0.000000 0.483733 0.214724
0.000000 0.481068 0.155549
0.000000 0.501708 0.000000
0.567185 0.615803 0.000000
0.885506 0.643460 0.000000
0.946054 0.632968 0.000000
0.935656 0.595567 0.000000
0.920126 0.553482 0.000000
0.000000 0.536307 0.239248
0.000000 0.524646 0.200881
0.000000 0.517082 0.165699
0.000000 0.535427 0.000000
0.434525 0.673326 0.000000
0.878854 0.761852 0.000000
0.985446 0.766902 0.000000
0.987329 0.749164 0.000000
0.974197 0.725588 0.000000
0.000000 0.548288 0.233574
0.000000 0.537800 0.202086
0.000000 0.526595 0.168064
0.000000 0.533907 0.000000
0.271031 0.658074 0.000000
0.816905 0.793630 0.000000
0.992485 0.818288 0.000000
1.009748 0.815021 0.000000
1.002117 0.805655 0.000000
0.000000 0.541190 0.207021
0.000000 0.535155 0.188756
0.000000 0.529799 0.154336
0.000000 0.522240 0.111213
0.000000 0.613948 0.000000
0.680297 0.773714 0.000000
0.978084 0.831517 0.000000
1.017435 0.836085 0.000000
1.014869 0.832530 0.000000
0.014574 0.000000 0.159756
0.028329 0.000000 0.178266
0.091499 0.000000 0.260711
0.320670 0.000000 0.337944
0.563769 0.000000 0.353376
0.665721 0.000000 0.362556
0.680681 0.000000 0.359989
0.678837 0.000000 0.339795
0.677110 0.000000 0.319207
0.000000 0.044200 0.152469
0.000000 0.032928 0.184390
0.072366 0.031968 0.214460
0.277371 0.000000 0.304696
0.544461 0.000000 0.314534
0.655705 0.000000 0.309036
0.675135 0.000000 0.295606
0.673768 0.000000 0.279323
0.671380 0.000000 0.250956
0.000000 0.097439 0.200651
0.000000 0.094820 0.193136
0.000000 0.109314 0.231875
0.269113 0.117880 0.302355
0.574431 0.071125 0.299760
0.705768 0.000000 0.280517
0.728063 0.000000 0.270523
0.713161 0.000000 0.243261
0.749449 0.000000 0.262868
0.000000 0.219284 0.276361
0.000000 0.220725 0.278757
0.000000 0.218365 0.273083
0.228329 0.262850 0.276572
0.565434 0.281007 0.268003
0.766713 0.243244 0.248468
0.805666 0.215924 0.239213
0.796746 0.183455 0.225234
0.796334 0.182763 0.217768
0.000000 0.404886 0.377159
0.000000 0.411874 0.377511
0.000000 0.405032 0.342655
0.000000 0.425550 0.252424
0.583728 0.487722 0.216064
0.845811 0.471498 0.125648
0.893890 0.446720 0.120091
0.886021 0.411371 0.128580
0.868552 0.366186 0.126188
0.000000 0.539435 0.432400
0.000000 0.546021 0.427767
0.000000 0.551393 0.381697
0.000000 0.542124 0.229728
0.498229 0.643193 0.000000
0.880930 0.678196 0.000000
0.967527 0.664474 0.000000
0.964710 0.629670 0.000000
0.951032 0.589995 0.000000
0.000000 0.606236 0.462958
0.000000 0.601317 0.436615
0.000000 0.596335 0.376370
0.000000 0.586777 0.257081
0.352287 0.687381 0.000000
0.862574 0.783050 0.000000
1.002910 0.790470 0.000000
1.013000 0.775107 0.000000
1.004068 0.747790 0.000000
0.000000 0.628971 0.475512
0.000000 0.616924 0.437267
0.000000 0.603879 0.379169
0.000000 0.596671 0.252056
0.057729 0.665987 0.000000
0.770558 0.794364 0.000000
1.005123 0.833599 0.000000
1.031270 0.832150 0.000000
1.027548 0.821541 0.000000
0.000000 0.630103 0.466430
0.000000 0.623693 0.420274
0.000000 0.621232 0.297091
0.000000 0.591503 0.258715
0.000000 0.632037 0.000000
0.653079 0.775465 0.000000
0.980543 0.839744 0.000000
1.028567 0.849465 0.000000
1.029409 0.844343 0.000000
0.030807 0.000000 0.264105
0.044323 0.000000 0.287682
0.087437 0.000000 0.321911
0.272980 0.000000 0.449645
0.564433 0.000000 0.512452
0.674281 0.000000 0.528020
0.696850 0.000000 0.534432
0.696422 0.000000 0.530016
0.695821 0.000000 0.523847
0.000000 0.000000 0.256069
0.000000 0.004843 0.301199
0.065257 0.000000 0.339304
0.231578 0.000000 0.434566
0.538094 0.000000 0.495895
0.667769 0.000000 0.503626
0.694018 0.000000 0.505324
0.693364 0.000000 0.498351
0.692020 0.000000 0.483417
0.000000 0.108518 0.284701
0.000000 0.113927 0.308897
0.000000 0.122476 0.371466
0.200336 0.146186 0.428907
0.551442 0.077581 0.520833
0.722203 0.000000 0.525800
0.746056 0.000000 0.516911
0.728709 0.000000 0.483891
0.767350 0.000000 0.510218
0.000000 0.243061 0.406195
0.000000 0.242522 0.411012
0.000000 0.240951 0.406399
0.184690 0.291813 0.461261
0.551732 0.316387 0.547819
0.784574 0.262226 0.550191
0.822013 0.235830 0.537509
0.811828 0.196513 0.510449
0.792723 0.121428 0.478177
0.000000 0.424201 0.514857
0.000000 0.435746 0.526737
0.000000 0.443556 0.524492
0.000000 0.476160 0.522638
0.511862 0.546725 0.537883
0.827440 0.542407 0.532426
0.904128 0.515624 0.526296
0.902437 0.477082 0.506484
0.884954 0.421119 0.478499
0.000000 0.578317 0.594408
0.000000 0.589631 0.603891
0.000000 0.608632 0.598354
0.000000 0.627184 0.556377
0.366083 0.703510 0.508552
0.852516 0.747270 0.494952
0.964709 0.729527 0.440753
0.972158 0.703462 0.432321
0.961463 0.660941 0.406940
0.000000 0.652978 0.636368
0.000000 0.663982 0.642954
0.000000 0.683978 0.635412
0.000000 0.694096 0.576337
0.000000 0.744375 0.481476
0.798920 0.835672 0.391552
0.990369 0.851171 0.415053
1.011856 0.831978 0.345206
1.007557 0.804129 0.286886
0.000000 0.680984 0.661046
0.000000 0.679703 0.655344
0.000000 0.697895 0.642061
0.000000 0.699220 0.597476
0.000000 0.734824 0.462842
0.698523 0.843521 0.363996
0.988859 0.885288 0.330725
1.022308 0.886096 0.327174
1.025192 0.869327 0.220210
0.000000 0.690365 0.678873
0.000000 0.686102 0.660737
0.000000 0.678572 0.629874
0.000000 0.710027 0.545642
0.000000 0.712456 0.432846
0.570771 0.817322 0.335865
0.951378 0.876491 0.193478
1.020624 0.895546 0.274022
1.021651 0.889804 0.234470
0.059158 0.000000 0.364709
0.081482 0.000000 0.382621
0.121044 0.000000 0.408948
0.243780 0.000000 0.485871
0.517084 0.000000 0.576059
0.680110 0.000000 0.610558
0.707207 0.000000 0.617077
0.707104 0.000000 0.616150
0.707002 0.000000 0.615222
0.000000 0.000000 0.371472
0.000000 0.000000 0.409406
0.076705 0.000000 0.440789
0.201255 0.000000 0.489181
0.490937 0.000000 0.581396
0.677016 0.000000 0.605123
0.705994 0.000000 0.604740
0.705554 0.000000 0.602241
0.705348 0.000000 0.600388
0.000000 0.127542 0.378823
0.000000 0.130304 0.433114
0.000000 0.136389 0.489252
0.176119 0.154031 0.544088
0.484543 0.133561 0.626736
0.726460 0.000000 0.658784
0.761949 0.000000 0.655527
0.745125 0.000000 0.630184
0.730456 0.000000 0.610398
0.000000 0.252189 0.490362
0.000000 0.254293 0.491600
0.000000 0.273499 0.523227
0.090275 0.319722 0.597629
0.472230 0.361205 0.658573
0.784501 0.302784 0.722928
0.835050 0.259342 0.722482
0.822011 0.191955 0.699700
0.803787 0.072281 0.669961
0.000000 0.432267 0.604246
0.000000 0.446015 0.616217
0.000000 0.466348 0.632714
0.000000 0.509541 0.648777
0.495069 0.584655 0.699380
0.817052 0.586359 0.762536
0.909232 0.547812 0.764276
0.907918 0.508244 0.745256
0.894757 0.457722 0.722963
0.000000 0.583602 0.684610
0.000000 0.598939 0.696159
0.000000 0.629939 0.709780
0.000000 0.669060 0.710890
0.492943 0.749998 0.743003
0.808105 0.800140 0.759596
0.954132 0.792990 0.759844
0.972074 0.772164 0.754418
0.963462 0.730565 0.733132
0.000000 0.663345 0.728406
0.000000 0.677963 0.737959
0.000000 0.710265 0.750077
0.000000 0.746976 0.740481
0.361542 0.829817 0.759482
0.730720 0.889431 0.745084
0.969604 0.905760 0.739294
1.000613 0.892769 0.705480
0.998305 0.872703 0.688605
0.000000 0.692091 0.750248
0.000000 0.709907 0.758989
0.000000 0.737018 0.769772
0.000000 0.767672 0.757140
0.000000 0.822934 0.744480
0.609741 0.895415 0.722259
0.952495 0.937792 0.684744
1.010042 0.943437 0.707013
1.013691 0.930174 0.650446
0.000000 0.702963 0.765287
0.000000 0.734786 0.778822
0.000000 0.757108 0.782344
0.000000 0.762163 0.771712
0.000000 0.786874 0.727312
0.496049 0.877257 0.699556
0.905241 0.936372 0.661264
1.010170 0.949678 0.663722
1.010690 0.948245 0.652040
0.108975 0.000000 0.427849
0.127888 0.000000 0.441481
0.160547 0.000000 0.463709
0.230708 0.000000 0.504491
0.455308 0.000000 0.594922
0.668389 0.000000 0.642269
0.716086 0.000000 0.657423
0.716086 0.000000 0.657423
0.715941 0.000000 0.656997
0.001276 0.000000 0.452263
0.008313 0.000000 0.476064
0.100410 0.000000 0.504038
0.201550 0.000000 0.549935
0.431324 0.000000 0.617341
0.669546 0.000000 0.654992
0.715210 0.000000 0.655037
0.714074 0.000000 0.651462
0.713930 0.000000 0.651036
0.000000 0.136099 0.479149
0.000000 0.139202 0.518080
0.000000 0.148284 0.563397
0.145755 0.162377 0.619935
0.424362 0.178899 0.674110
0.711667 0.000000 0.722712
0.776359 0.000000 0.726444
0.763189 0.000000 0.703209
0.718727 0.000000 0.650868
0.000000 0.257796 0.544559
0.000000 0.270525 0.559782
0.000000 0.304537 0.617528
0.000000 0.343536 0.684471
0.444932 0.388524 0.744201
0.752246 0.369194 0.797752
0.846389 0.296961 0.806341
0.837875 0.236941 0.788391
0.824671 0.172509 0.771125
0.000000 0.438158 0.655717
0.000000 0.454045 0.669124
0.000000 0.480146 0.690619
0.000000 0.535627 0.730596
0.459790 0.611169 0.797775
0.769469 0.642537 0.837958
0.911528 0.588719 0.871574
0.912702 0.535492 0.860071
0.894117 0.457718 0.838354
0.000000 0.585537 0.732981
0.000000 0.603224 0.747777
0.000000 0.639318 0.770843
0.000000 0.688013 0.790546
0.541516 0.770170 0.828655
0.800331 0.821958 0.864094
0.948292 0.818896 0.895775
0.968014 0.789440 0.891943
0.960266 0.749676 0.877936
0.000000 0.662675 0.772374
0.000000 0.679196 0.784564
0.000000 0.721174 0.807109
0.000000 0.771064 0.820567
0.467556 0.857494 0.858981
0.810127 0.912107 0.885604
0.953256 0.933023 0.894573
0.992915 0.928449 0.893386
0.992769 0.910805 0.882139
0.000000 0.692310 0.790150
0.000000 0.707919 0.801567
0.000000 0.751039 0.823713
0.000000 0.794426 0.835154
0.366937 0.881806 0.866452
0.754602 0.941713 0.893193
0.926533 0.965660 0.886030
0.998614 0.970458 0.887058
1.004199 0.963991 0.866558
0.000000 0.701091 0.799805
0.000000 0.701127 0.799844
0.000000 0.719925 0.811574
0.000000 0.794666 0.840383
0.070664 0.873287 0.867114
0.595536 0.926347 0.880393
0.867426 0.965328 0.876729
0.996550 0.979456 0.860251
1.004271 0.979873 0.867265
0.143669 0.000000 0.466149
0.154604 0.000000 0.474736
0.180123 0.000000 0.492298
0.237578 0.000000 0.533007
0.393352 0.000000 0.593007
0.641666 0.000000 0.653999
0.716569 0.000000 0.673352
0.722131 0.000000 0.677075
0.722167 0.000000 0.677171
0.019382 0.000000 0.500535
0.046301 0.000000 0.517683
0.102309 0.000000 0.540573
0.194011 0.000000 0.584673
0.381547 0.000000 0.638756
0.644572 0.000000 0.678042
0.719633 0.000000 0.679463
0.721189 0.000000 0.674559
0.721189 0.000000 0.674559
0.000000 0.148286 0.541470
0.000000 0.153377 0.568787
0.000000 0.164360 0.607443
0.105735 0.175575 0.663468
0.405747 0.200068 0.719428
0.685494 0.135671 0.761056
0.785084 0.000000 0.762268
0.768896 0.000000 0.730622
0.760589 0.000000 0.720543
0.000000 0.265605 0.581851
0.000000 0.296137 0.623147
0.000000 0.327005 0.669770
0.000000 0.363018 0.734077
0.421883 0.410740 0.793765
0.713777 0.422027 0.832917
0.852356 0.358159 0.851157
0.855355 0.303018 0.837491
0.843145 0.253736 0.822709
0.000000 0.444141 0.686772
0.000000 0.461364 0.701763
0.000000 0.497280 0.733974
0.000000 0.556377 0.790901
0.427559 0.629042 0.849086
0.751635 0.668078 0.889889
0.906556 0.641628 0.913520
0.921886 0.573801 0.909563
0.907254 0.510490 0.893956
0.000000 0.587569 0.760073
0.000000 0.608920 0.776070
0.000000 0.646543 0.802379
0.000000 0.706946 0.834601
0.535804 0.788200 0.878683
0.781170 0.836057 0.916563
0.933291 0.851938 0.937094
0.969935 0.815889 0.950677
0.961764 0.768019 0.941904
0.000000 0.660830 0.795401
0.000000 0.683883 0.810427
0.000000 0.725229 0.836376
0.000000 0.783206 0.862009
0.519181 0.872833 0.906386
0.837485 0.919735 0.930949
0.952222 0.942005 0.946515
0.989371 0.939482 0.961939
0.988943 0.917534 0.957691
0.000000 0.691394 0.812186
0.000000 0.715573 0.828404
0.000000 0.754809 0.850647
0.000000 0.807801 0.873067
0.447776 0.899484 0.915550
0.809028 0.954717 0.944530
0.955717 0.976521 0.958740
0.993542 0.981511 0.960017
0.999291 0.978088 0.955700
0.000000 0.700701 0.820350
0.000000 0.711344 0.826536
0.000000 0.751969 0.851153
0.000000 0.820467 0.881896
0.365155 0.900857 0.918796
0.763593 0.960449 0.948700
0.931869 0.984684 0.961108
0.986559 0.991945 0.957458
1.001352 0.991405 0.955237
0.158204 0.000000 0.486757
0.168314 0.000000 0.491452
0.189210 0.000000 0.514258
0.236009 0.000000 0.545304
0.361170 0.000000 0.598404
0.604131 0.000000 0.654511
0.725450 0.000000 0.693464
0.722965 0.000000 0.679301
0.722965 0.000000 0.679301
0.040847 0.000000 0.530386
0.048276 0.000000 0.540529
0.071792 0.000000 0.562725
0.167436 0.000000 0.622056
0.365801 0.000000 0.663255
0.627198 0.000000 0.716537
0.752468 0.000000 0.732079
0.722965 0.000000 0.679301
0.752259 0.000000 0.715419
0.000000 0.163674 0.580608
0.000000 0.174552 0.601902
0.000000 0.180905 0.633133
0.000000 0.189689 0.689253
0.389763 0.232536 0.750617
0.650937 0.211814 0.784154
0.788773 0.000000 0.787407
0.792563 0.000000 0.766904
0.763757 0.000000 0.730489
0.000000 0.290665 0.630381
0.000000 0.315136 0.659603
0.000000 0.344475 0.697444
0.000000 0.379928 0.759715
0.398593 0.432586 0.822920
0.701731 0.452104 0.861477
0.854147 0.427742 0.877946
0.869785 0.357568 0.865887
0.847617 0.268738 0.839549
0.000000 0.450202 0.707164
0.000000 0.471000 0.725047
0.000000 0.519515 0.769350
0.000000 0.573039 0.822001
0.397277 0.646919 0.879291
0.734107 0.686037 0.917357
0.899719 0.693704 0.934986
0.932147 0.628124 0.934209
0.913625 0.537239 0.915448
0.000000 0.589592 0.775417
0.000000 0.614069 0.793150
0.000000 0.656107 0.823785
0.000000 0.723487 0.863698
0.479171 0.797033 0.910643
0.765812 0.847285 0.945179
0.927459 0.863788 0.962228
0.971751 0.846087 0.971300
0.965608 0.791761 0.966065
0.000000 0.663482 0.809173
0.000000 0.690705 0.828160
0.000000 0.731792 0.853735
0.000000 0.796112 0.887157
0.577027 0.884845 0.932298
0.840227 0.927330 0.955023
0.945422 0.948572 0.973521
0.985948 0.951637 0.980089
0.989241 0.930441 0.984875
0.000000 0.692811 0.823790
0.000000 0.712319 0.837610
0.000000 0.761696 0.867372
0.000000 0.820605 0.895740
0.512189 0.912458 0.942114
0.834761 0.961538 0.967986
0.961738 0.979226 0.979171
0.992064 0.984734 0.983805
0.998031 0.982560 0.987279
0.000000 0.700258 0.828715
0.000000 0.731051 0.849091
0.000000 0.755479 0.863402
0.000000 0.815842 0.894458
0.479159 0.918653 0.945008
0.802210 0.968822 0.971400
0.954519 0.990037 0.984539
0.993667 0.995290 0.987971
1.000230 0.996208 0.987619
