transforms/DD01_classic_fpe_r709.cube
#  DD_01_FPE_r709.cube
LUT_3D_SIZE 33
0.000000 0.000000 0.000000
0.000481 0.000376 0.000289
0.002752 0.001823 0.001299
0.008543 0.004765 0.002999
0.018563 0.009385 0.005010
0.034010 0.018201 0.006242
0.058409 0.031253 0.000000
0.095980 0.043908 0.000000
0.141043 0.055825 0.000000
0.171630 0.059163 0.000000
0.218879 0.060976 0.000000
0.267984 0.059872 0.000000
0.320582 0.054689 0.000000
0.373243 0.033710 0.000000
0.427432 0.000000 0.000000
0.478811 0.000000 0.000000
0.518891 0.000000 0.000000
0.551119 0.000000 0.000000
0.576945 0.000000 0.000000
0.593666 0.000000 0.000000
0.605319 0.000000 0.000000
0.613523 0.000000 0.000000
0.621021 0.000000 0.000000
0.624104 0.000000 0.000000
0.624104 0.000000 0.000000
0.624104 0.000000 0.000000
0.624104 0.000000 0.000000
0.624104 0.000000 0.000000
0.624104 0.000000 0.000000
0.624104 0.000000 0.000000
0.624104 0.000000 0.000000
0.624104 0.000000 0.000000
0.624104 0.000000 0.000000
0.000396 0.000412 0.000277
0.000359 0.000324 0.000222
0.002421 0.001817 0.001190
0.007673 0.004683 0.002875
0.017541 0.009325 0.004914
0.032105 0.016978 0.006383
0.054565 0.030237 0.004066
0.090679 0.042550 0.000000
0.135994 0.055208 0.000000
0.164985 0.058668 0.000000
0.209819 0.060738 0.000000
0.258852 0.060423 0.000000
0.311329 0.055886 0.000000
0.362258 0.040143 0.000000
0.417637 0.000000 0.000000
0.468943 0.000000 0.000000
0.510752 0.000000 0.000000
0.545118 0.000000 0.000000
0.573131 0.000000 0.000000
0.590831 0.000000 0.000000
0.602901 0.000000 0.000000
0.612056 0.000000 0.000000
0.619481 0.000000 0.000000
0.624104 0.000000 0.000000
0.624104 0.000000 0.000000
0.624104 0.000000 0.000000
0.624104 0.000000 0.000000
0.624104 0.000000 0.000000
0.624104 0.000000 0.000000
0.624104 0.000000 0.000000
0.624104 0.000000 0.000000
0.624104 0.000000 0.000000
0.624104 0.000000 0.000000
0.001728 0.002295 0.001314
0.001616 0.001892 0.001125
0.001951 0.001751 0.001056
0.006844 0.004904 0.002733
0.016538 0.010627 0.004851
0.030814 0.018691 0.006480
0.053129 0.032329 0.003860
0.088746 0.043398 0.000000
0.132815 0.055314 0.000000
0.161341 0.058252 0.000000
0.204170 0.060562 0.000000
0.252342 0.060763 0.000000
0.303414 0.056803 0.000000
0.355267 0.043440 0.000000
0.411117 0.000000 0.000000
0.462372 0.000000 0.000000
0.505874 0.000000 0.000000
0.541519 0.000000 0.000000
0.571051 0.000000 0.000000
0.588399 0.000000 0.000000
0.601141 0.000000 0.000000
0.610737 0.000000 0.000000
0.618325 0.000000 0.000000
0.624104 0.000000 0.000000
0.624104 0.000000 0.000000
0.624104 0.000000 0.000000
0.624104 0.000000 0.000000
0.624104 0.000000 0.000000
0.624104 0.000000 0.000000
0.624104 0.000000 0.000000
0.624104 0.000000 0.000000
0.624104 0.000000 0.000000
0.624104 0.000000 0.000000
0.003709 0.006859 0.003347
0.003520 0.006072 0.003050
0.003926 0.005139 0.002618
0.006057 0.005473 0.002673
0.014897 0.011639 0.005014
0.029274 0.020582 0.006925
0.052287 0.035080 0.004285
0.087440 0.046672 0.000000
0.133571 0.057889 0.000000
0.163860 0.060736 0.000000
0.202985 0.063401 0.000000
0.247727 0.062420 0.000000
0.296831 0.057496 0.000000
0.351498 0.046814 0.000000
0.410746 0.000000 0.000000
0.460977 0.000000 0.000000
0.502676 0.000000 0.000000
0.537922 0.000000 0.000000
0.567952 0.000000 0.000000
0.586315 0.000000 0.000000
0.599822 0.000000 0.000000
0.609859 0.000000 0.000000
0.617556 0.000000 0.000000
0.624104 0.000000 0.000000
0.624104 0.000000 0.000000
0.624104 0.000000 0.000000
0.624104 0.000000 0.000000
0.624104 0.000000 0.000000
0.624104 0.000000 0.000000
0.624104 0.000000 0.000000
0.624104 0.000000 0.000000
0.624104 0.000000 0.000000
0.624104 0.000000 0.000000
0.003375 0.016038 0.007424
0.004436 0.014406 0.006732
0.006228 0.012974 0.005984
0.009068 0.011283 0.004935
0.013506 0.012851 0.005060
0.025839 0.022333 0.007856
0.049921 0.036817 0.008739
0.086820 0.050706 0.000000
0.133598 0.061703 0.000000
0.166809 0.064805 0.000000
0.205637 0.068001 0.000000
0.250204 0.071325 0.000000
0.302938 0.065009 0.000000
0.356942 0.056126 0.000000
0.417658 0.031581 0.000000
0.468371 0.000000 0.000000
0.513213 0.000000 0.000000
0.549057 0.000000 0.000000
0.574721 0.000000 0.000000
0.592587 0.000000 0.000000
0.604734 0.000000 0.000000
0.613169 0.000000 0.000000
0.617158 0.000000 0.000000
0.623847 0.000000 0.000000
0.624104 0.000000 0.000000
0.624104 0.000000 0.000000
0.624104 0.000000 0.000000
0.624104 0.000000 0.000000
0.624104 0.000000 0.000000
0.624104 0.000000 0.000000
0.624104 0.000000 0.000000
0.633888 0.000000 0.000000
0.638609 0.000000 0.000000
0.000000 0.029419 0.013696
0.000000 0.027366 0.012514
0.000000 0.025161 0.011361
0.011907 0.023029 0.010165
0.018090 0.021138 0.008825
0.023714 0.024138 0.009303
0.046323 0.038899 0.011875
0.082014 0.055215 0.007623
0.131109 0.065869 0.000000
0.168856 0.071030 0.000000
0.208120 0.075222 0.000000
0.253672 0.079479 0.000000
0.307132 0.074059 0.000000
0.362638 0.066631 0.000000
0.424560 0.053585 0.000000
0.478327 0.000000 0.000000
0.523621 0.000000 0.000000
0.560515 0.000000 0.000000
0.585872 0.000000 0.000000
0.604435 0.000000 0.000000
0.616585 0.000000 0.000000
0.624091 0.000000 0.000000
0.630494 0.000000 0.000000
0.633774 0.000000 0.000000
0.632801 0.000000 0.000000
0.627366 0.000000 0.000000
0.630989 0.000000 0.000000
0.630989 0.000000 0.000000
0.624104 0.000000 0.000000
0.633164 0.000000 0.000000
0.624104 0.000000 0.000000
0.624104 0.000000 0.000000
0.668899 0.000000 0.000000
0.000000 0.050032 0.024889
0.000000 0.047527 0.023427
0.000000 0.043790 0.021238
0.000000 0.040825 0.018953
0.023670 0.037139 0.016321
0.028891 0.034453 0.014269
0.043500 0.040932 0.014831
0.079169 0.060043 0.015935
0.127576 0.074954 0.000000
0.165943 0.079597 0.000000
0.208169 0.083673 0.000000
0.257160 0.087922 0.000000
0.311250 0.085019 0.000000
0.369281 0.078913 0.000000
0.433084 0.070875 0.000000
0.487404 0.038855 0.000000
0.536038 0.000000 0.000000
0.572496 0.000000 0.000000
0.599147 0.000000 0.000000
0.618043 0.000000 0.000000
0.630195 0.000000 0.000000
0.637057 0.000000 0.000000
0.644359 0.000000 0.000000
0.646085 0.000000 0.000000
0.644407 0.000000 0.000000
0.644770 0.000000 0.000000
0.640058 0.000000 0.000000
0.638971 0.000000 0.000000
0.640421 0.000000 0.000000
0.645132 0.000000 0.000000
0.628091 0.000000 0.000000
0.624104 0.000000 0.000000
0.624104 0.000000 0.000000
0.000000 0.075696 0.037425
0.000000 0.073256 0.036503
0.000000 0.070006 0.035269
0.000000 0.066549 0.033094
0.015374 0.061725 0.029459
0.036349 0.058407 0.025953
0.046666 0.056863 0.022736
0.075024 0.068696 0.022485
0.125309 0.085697 0.013037
0.163521 0.089944 0.000000
0.203471 0.095450 0.000000
0.258577 0.101720 0.000000
0.316418 0.098747 0.000000
0.375022 0.093349 0.000000
0.440457 0.089416 0.000000
0.497965 0.071176 0.000000
0.549253 0.000000 0.000000
0.584356 0.000000 0.000000
0.612236 0.000000 0.000000
0.632265 0.000000 0.000000
0.645007 0.000000 0.000000
0.651650 0.000000 0.000000
0.656868 0.000000 0.000000
0.662968 0.000000 0.000000
0.658526 0.000000 0.000000
0.656035 0.000000 0.000000
0.652714 0.000000 0.000000
0.657696 0.000000 0.000000
0.650638 0.000000 0.000000
0.672217 0.000000 0.000000
0.640058 0.000000 0.000000
0.629902 0.000000 0.000000
0.651469 0.000000 0.000000
0.000000 0.104543 0.049588
0.000000 0.102157 0.048708
0.000000 0.098349 0.047304
0.000000 0.094688 0.045606
0.000000 0.091171 0.042957
0.029931 0.087987 0.040699
0.051343 0.088592 0.037571
0.080491 0.091666 0.032711
0.121235 0.100543 0.024226
0.162786 0.107626 0.000000
0.203758 0.113236 0.000000
0.257621 0.118016 0.000000
0.316264 0.119303 0.000000
0.381402 0.112829 0.000000
0.447652 0.108594 0.000000
0.509797 0.095379 0.000000
0.561837 0.070001 0.000000
0.598195 0.000000 0.000000
0.626860 0.000000 0.000000
0.648610 0.000000 0.000000
0.662264 0.000000 0.000000
0.667920 0.000000 0.000000
0.673732 0.000000 0.000000
0.673734 0.000000 0.000000
0.674343 0.000000 0.000000
0.672217 0.000000 0.000000
0.673047 0.000000 0.000000
0.662261 0.000000 0.000000
0.668069 0.000000 0.000000
0.658111 0.000000 0.000000
0.662261 0.000000 0.000000
0.646945 0.000000 0.000000
0.687914 0.000000 0.000000
0.000000 0.126515 0.054040
0.000000 0.123999 0.053634
0.000000 0.118981 0.052809
0.000000 0.113978 0.051965
0.000000 0.109089 0.049960
0.000000 0.107172 0.047600
0.025514 0.107549 0.044268
0.070859 0.110918 0.039607
0.112154 0.117144 0.032011
0.160373 0.126019 0.006061
0.205764 0.132471 0.000000
0.258711 0.136575 0.000000
0.317710 0.140462 0.000000
0.384320 0.138129 0.000000
0.450616 0.135886 0.000000
0.521176 0.127846 0.000000
0.574957 0.110376 0.000000
0.613480 0.088581 0.000000
0.643062 0.060177 0.000000
0.664469 0.000000 0.000000
0.679024 0.000000 0.000000
0.684468 0.000000 0.000000
0.689931 0.000000 0.000000
0.693040 0.000000 0.000000
0.691195 0.000000 0.000000
0.691195 0.000000 0.000000
0.693531 0.000000 0.000000
0.677153 0.000000 0.000000
0.685108 0.000000 0.000000
0.677153 0.000000 0.000000
0.679960 0.000000 0.000000
0.655620 0.000000 0.000000
0.658941 0.000000 0.000000
0.000000 0.149598 0.057651
0.000000 0.146802 0.057049
0.000000 0.141708 0.056325
0.000000 0.136628 0.055583
0.000000 0.132508 0.053897
0.000000 0.128456 0.050624
0.000000 0.125317 0.048678
0.043303 0.129306 0.045291
0.097794 0.135113 0.039119
0.150359 0.144639 0.022406
0.205657 0.153399 0.000000
0.258814 0.160188 0.000000
0.319592 0.165360 0.000000
0.388224 0.164032 0.000000
0.452848 0.162876 0.000000
0.526135 0.159044 0.000000
0.582075 0.146117 0.000000
0.628351 0.132165 0.000000
0.660341 0.117904 0.000000
0.682998 0.102447 0.000000
0.696139 0.084734 0.000000
0.703811 0.075167 0.000000
0.707473 0.054752 0.000000
0.710718 0.026660 0.000000
0.709300 0.000000 0.000000
0.708203 0.000000 0.000000
0.704365 0.000000 0.000000
0.699605 0.000000 0.000000
0.694934 0.000000 0.000000
0.697270 0.000000 0.000000
0.708752 0.000000 0.000000
0.657281 0.000000 0.000000
0.725150 0.094624 0.000000
0.000000 0.180731 0.069463
0.000000 0.178046 0.068449
0.000000 0.170899 0.065739
0.000000 0.164663 0.063371
0.000000 0.157586 0.060589
0.000000 0.151373 0.054090
0.000000 0.146575 0.048489
0.000000 0.147915 0.045067
0.076117 0.154936 0.038032
0.137766 0.166494 0.018807
0.195700 0.176406 0.000000
0.257729 0.184509 0.000000
0.322528 0.191171 0.000000
0.390940 0.193726 0.000000
0.459232 0.193715 0.000000
0.531553 0.192774 0.000000
0.591348 0.185743 0.000000
0.639134 0.174268 0.000000
0.676928 0.162278 0.000000
0.702230 0.152067 0.000000
0.714811 0.141876 0.000000
0.722305 0.134638 0.000000
0.727677 0.128263 0.000000
0.729215 0.116938 0.000000
0.730590 0.112987 0.000000
0.727327 0.102363 0.000000
0.722425 0.083894 0.000000
0.719688 0.071433 0.000000
0.715865 0.047128 0.000000
0.716957 0.055488 0.000000
0.709847 0.000000 0.000000
0.725694 0.096619 0.000000
0.707656 0.000000 0.000000
0.000000 0.213934 0.082988
0.000000 0.210507 0.081265
0.000000 0.202327 0.077605
0.000000 0.196009 0.075223
0.000000 0.188842 0.072408
0.000000 0.183780 0.065897
0.000000 0.177132 0.054762
0.000000 0.172085 0.043068
0.000000 0.176009 0.034258
0.118430 0.186263 0.000000
0.183068 0.201095 0.000000
0.245921 0.212772 0.000000
0.322816 0.221889 0.000000
0.396157 0.227574 0.000000
0.465201 0.228742 0.000000
0.538031 0.228259 0.000000
0.601574 0.222979 0.000000
0.652740 0.213325 0.000000
0.692808 0.205248 0.000000
0.718586 0.199677 0.000000
0.735576 0.193112 0.000000
0.743438 0.185801 0.000000
0.747294 0.179400 0.000000
0.750771 0.174028 0.000000
0.750636 0.166736 0.000000
0.746261 0.155979 0.000000
0.742504 0.146354 0.000000
0.738190 0.134838 0.000000
0.734935 0.125870 0.000000
0.733306 0.121179 0.000000
0.723515 0.088357 0.000000
0.737648 0.133376 0.000000
0.738743 0.136253 0.000000
0.000000 0.255369 0.103798
0.000000 0.253053 0.102636
0.000000 0.243803 0.097994
0.000000 0.234581 0.093364
0.000000 0.226381 0.085977
0.000000 0.218550 0.076843
0.000000 0.211069 0.057456
0.000000 0.204427 0.037801
0.000000 0.206500 0.004339
0.081679 0.215057 0.000000
0.160399 0.228707 0.000000
0.235486 0.243937 0.000000
0.313148 0.254663 0.000000
0.394328 0.260487 0.000000
0.470966 0.264299 0.000000
0.545688 0.267520 0.000000
0.613777 0.266045 0.000000
0.667444 0.259774 0.000000
0.706176 0.253456 0.000000
0.735255 0.247382 0.000000
0.754706 0.241177 0.000000
0.765193 0.235117 0.000000
0.768945 0.228197 0.000000
0.771374 0.222025 0.000000
0.772135 0.215692 0.000000
0.768665 0.207825 0.000000
0.764325 0.198291 0.000000
0.759977 0.188541 0.000000
0.761219 0.191351 0.000000
0.751885 0.169732 0.000000
0.756250 0.179989 0.000000
0.755627 0.178544 0.000000
0.733850 0.122759 0.000000
0.000000 0.299965 0.121029
0.000000 0.297438 0.120408
0.000000 0.286081 0.117606
0.000000 0.277454 0.114875
0.000000 0.269014 0.108060
0.000000 0.261829 0.097764
0.000000 0.253378 0.071869
0.000000 0.244708 0.036534
0.000000 0.242338 0.000000
0.000000 0.248774 0.000000
0.137528 0.260859 0.000000
0.218175 0.275539 0.000000
0.300007 0.290154 0.000000
0.385447 0.302146 0.000000
0.473340 0.306963 0.000000
0.554011 0.310846 0.000000
0.625016 0.310934 0.000000
0.681898 0.305394 0.000000
0.720945 0.300264 0.000000
0.752749 0.294215 0.000000
0.775343 0.290550 0.000000
0.787771 0.285500 0.000000
0.792192 0.281197 0.000000
0.794928 0.275266 0.000000
0.795401 0.267736 0.000000
0.791788 0.258330 0.000000
0.787165 0.248184 0.000000
0.783193 0.239386 0.000000
0.780541 0.233463 0.000000
0.773616 0.218502 0.000000
0.774235 0.219823 0.000000
0.771142 0.213190 0.000000
0.771142 0.213190 0.000000
0.000000 0.346147 0.132216
0.000000 0.342432 0.131326
0.000000 0.335012 0.129544
0.000000 0.323906 0.126864
0.000000 0.314161 0.123599
0.000000 0.306285 0.114377
0.000000 0.294805 0.094732
0.000000 0.285965 0.058238
0.000000 0.278085 0.000000
0.000000 0.284855 0.000000
0.103360 0.298191 0.000000
0.202396 0.312999 0.000000
0.286105 0.328499 0.000000
0.375710 0.340972 0.000000
0.469240 0.351205 0.000000
0.558126 0.357504 0.000000
0.637681 0.359288 0.000000
0.695903 0.356628 0.000000
0.739169 0.354274 0.000000
0.771578 0.348746 0.000000
0.796388 0.344602 0.000000
0.809994 0.340340 0.000000
0.815012 0.334425 0.000000
0.817029 0.325864 0.000000
0.819023 0.319983 0.000000
0.816033 0.310461 0.000000
0.810818 0.299354 0.000000
0.806244 0.289570 0.000000
0.804280 0.285356 0.000000
0.800348 0.276886 0.000000
0.792447 0.259771 0.000000
0.789808 0.253997 0.000000
0.787165 0.248184 0.000000
0.000000 0.379529 0.133370
0.000000 0.377912 0.133526
0.000000 0.372257 0.134046
0.000000 0.365803 0.134601
0.000000 0.359357 0.135113
0.000000 0.352527 0.127380
0.000000 0.341723 0.112712
0.000000 0.331703 0.084882
0.000000 0.319166 0.000000
0.000000 0.322518 0.000000
0.000000 0.333340 0.000000
0.173384 0.351233 0.000000
0.270170 0.368635 0.000000
0.366529 0.384384 0.000000
0.461702 0.396045 0.000000
0.555231 0.405285 0.000000
0.647789 0.410391 0.000000
0.709871 0.409468 0.000000
0.755389 0.407597 0.000000
0.790698 0.403674 0.000000
0.817671 0.399630 0.000000
0.831272 0.396767 0.000000
0.837925 0.391081 0.000000
0.840937 0.384904 0.000000
0.843053 0.379396 0.000000
0.841090 0.368775 0.000000
0.836333 0.357502 0.000000
0.831558 0.346185 0.000000
0.826083 0.333189 0.000000
0.821275 0.321752 0.000000
0.818636 0.315989 0.000000
0.817986 0.314608 0.000000
0.808206 0.293772 0.000000
0.000000 0.408721 0.130093
0.000000 0.407095 0.130300
0.000000 0.402219 0.130905
0.000000 0.396538 0.131576
0.000000 0.390051 0.132297
0.000000 0.384768 0.128402
0.000000 0.379690 0.119467
0.000000 0.371837 0.100168
0.000000 0.362927 0.039255
0.000000 0.360056 0.000000
0.000000 0.370056 0.000000
0.124044 0.388818 0.000000
0.249530 0.409988 0.000000
0.353280 0.427297 0.000000
0.454264 0.443129 0.000000
0.551172 0.454169 0.000000
0.647808 0.463914 0.000000
0.719559 0.465322 0.000000
0.772637 0.464232 0.000000
0.809928 0.460960 0.000000
0.835492 0.457219 0.000000
0.850787 0.453577 0.000000
0.860088 0.449505 0.000000
0.864573 0.444480 0.000000
0.865098 0.435576 0.000000
0.865796 0.428108 0.000000
0.861271 0.416728 0.000000
0.856589 0.405586 0.000000
0.851217 0.392823 0.000000
0.847850 0.384827 0.000000
0.841090 0.368775 0.000000
0.837694 0.360727 0.000000
0.832242 0.347806 0.000000
0.000000 0.431432 0.128704
0.000000 0.430226 0.128782
0.000000 0.427210 0.128971
0.000000 0.421783 0.129289
0.000000 0.417567 0.129520
0.000000 0.413766 0.126186
0.000000 0.410466 0.117434
0.000000 0.404349 0.097931
0.000000 0.397140 0.051135
0.000000 0.393148 0.000000
0.000000 0.399899 0.000000
0.000000 0.422868 0.000000
0.220208 0.446443 0.000000
0.333995 0.468119 0.000000
0.442283 0.486048 0.000000
0.549604 0.501517 0.000000
0.642606 0.512013 0.000000
0.723417 0.517328 0.000000
0.786595 0.519174 0.000000
0.827254 0.515683 0.000000
0.852759 0.512613 0.000000
0.870692 0.511120 0.000000
0.881009 0.507256 0.000000
0.886101 0.502285 0.000000
0.888082 0.496313 0.000000
0.887452 0.487742 0.000000
0.884188 0.478046 0.000000
0.879914 0.466421 0.000000
0.875638 0.454781 0.000000
0.871344 0.443123 0.000000
0.866413 0.429779 0.000000
0.861271 0.416728 0.000000
0.857929 0.408772 0.000000
0.000000 0.452071 0.126928
0.000000 0.451626 0.126999
0.000000 0.448955 0.127425
0.000000 0.444115 0.127805
0.000000 0.439280 0.128165
0.000000 0.434878 0.126714
0.000000 0.431969 0.119472
0.000000 0.429742 0.096115
0.000000 0.426605 0.048681
0.000000 0.423375 0.000000
0.000000 0.429776 0.000000
0.000000 0.451493 0.000000
0.178348 0.477819 0.000000
0.310008 0.502513 0.000000
0.424823 0.524720 0.000000
0.538284 0.544632 0.000000
0.639208 0.558968 0.000000
0.727480 0.568886 0.000000
0.795853 0.571016 0.000000
0.840004 0.569482 0.000000
0.869158 0.567427 0.000000
0.887827 0.564366 0.000000
0.899135 0.560588 0.000000
0.905236 0.557425 0.000000
0.907889 0.551867 0.000000
0.907725 0.544193 0.000000
0.905061 0.535637 0.000000
0.900987 0.524461 0.000000
0.897412 0.514526 0.000000
0.893225 0.502928 0.000000
0.889018 0.491322 0.000000
0.883582 0.476387 0.000000
0.879304 0.464759 0.000000
0.000000 0.468127 0.124157
0.000000 0.467234 0.124320
0.000000 0.465002 0.124723
0.000000 0.461432 0.125354
0.000000 0.458310 0.125893
0.000000 0.454745 0.126491
0.000000 0.453436 0.116760
0.000000 0.452433 0.097087
0.000000 0.449630 0.073748
0.000000 0.446803 0.000000
0.000000 0.453895 0.000000
0.000000 0.473851 0.000000
0.103351 0.503325 0.000000
0.281238 0.533933 0.000000
0.405512 0.559718 0.000000
0.525479 0.583098 0.000000
0.632300 0.600398 0.000000
0.729570 0.611277 0.000000
0.797303 0.615204 0.000000
0.846094 0.617180 0.000000
0.881027 0.615507 0.000000
0.903448 0.614680 0.000000
0.917145 0.613870 0.000000
0.921911 0.608352 0.000000
0.924810 0.603053 0.000000
0.926216 0.597300 0.000000
0.925094 0.591070 0.000000
0.921326 0.580546 0.000000
0.918020 0.571332 0.000000
0.914094 0.560471 0.000000
0.910717 0.551160 0.000000
0.906760 0.540295 0.000000
0.902175 0.527773 0.000000
0.000000 0.481269 0.121495
0.000000 0.480769 0.121612
0.000000 0.479766 0.121845
0.000000 0.477762 0.122308
0.000000 0.474382 0.122977
0.000000 0.470807 0.123658
0.000000 0.469508 0.114823
0.000000 0.468123 0.102265
0.000000 0.468887 0.046893
0.000000 0.467212 0.000000
0.000000 0.474001 0.000000
0.000000 0.491213 0.000000
0.000000 0.521831 0.000000
0.238183 0.552963 0.000000
0.380986 0.584041 0.000000
0.507549 0.611578 0.000000
0.625112 0.635636 0.000000
0.724275 0.651114 0.000000
0.796071 0.656662 0.000000
0.851425 0.658290 0.000000
0.890269 0.658927 0.000000
0.916468 0.658716 0.000000
0.930568 0.655619 0.000000
0.936240 0.651172 0.000000
0.940083 0.648340 0.000000
0.942210 0.644240 0.000000
0.942314 0.639869 0.000000
0.939426 0.631576 0.000000
0.936838 0.624150 0.000000
0.933650 0.615126 0.000000
0.929916 0.604601 0.000000
0.926703 0.595580 0.000000
0.923480 0.586559 0.000000
0.000000 0.490296 0.119298
0.000000 0.489795 0.119423
0.000000 0.488792 0.119674
0.000000 0.487036 0.120109
0.000000 0.485029 0.120599
0.000000 0.483023 0.121080
0.000000 0.482635 0.112739
0.000000 0.482193 0.103805
0.000000 0.483749 0.067425
0.000000 0.483793 0.000000
0.000000 0.489208 0.000000
0.000000 0.499207 0.000000
0.000000 0.532584 0.000000
0.195453 0.570385 0.000000
0.351852 0.604767 0.000000
0.486714 0.636892 0.000000
0.611427 0.663271 0.000000
0.712872 0.678638 0.000000
0.794300 0.688846 0.000000
0.853674 0.692952 0.000000
0.896460 0.694918 0.000000
0.925751 0.695936 0.000000
0.941554 0.696182 0.000000
0.949771 0.692519 0.000000
0.954151 0.689190 0.000000
0.955787 0.684464 0.000000
0.956208 0.680184 0.000000
0.953776 0.673067 0.000000
0.951337 0.665952 0.000000
0.948880 0.658830 0.000000
0.946424 0.651719 0.000000
0.943549 0.643424 0.000000
0.941490 0.637500 0.000000
0.000000 0.496714 0.119056
0.000000 0.496427 0.119002
0.000000 0.495997 0.118920
0.000000 0.494993 0.118733
0.000000 0.493846 0.118518
0.000000 0.492053 0.118851
0.000000 0.490046 0.119361
0.000000 0.492122 0.095043
0.000000 0.492789 0.068769
0.000000 0.495637 0.000000
0.000000 0.497879 0.000000
0.000000 0.513378 0.000000
0.000000 0.544647 0.000000
0.132055 0.581207 0.000000
0.321870 0.617667 0.000000
0.461832 0.652535 0.000000
0.592629 0.682965 0.000000
0.698019 0.703115 0.000000
0.789906 0.717377 0.000000
0.854921 0.723387 0.000000
0.900677 0.725740 0.000000
0.930802 0.726373 0.000000
0.948919 0.725350 0.000000
0.959261 0.723393 0.000000
0.964708 0.720682 0.000000
0.967221 0.717335 0.000000
0.967933 0.713691 0.000000
0.966150 0.708836 0.000000
0.964663 0.704790 0.000000
0.962659 0.699171 0.000000
0.960245 0.692050 0.000000
0.957824 0.684930 0.000000
0.955398 0.677811 0.000000
0.000000 0.501885 0.120033
0.000000 0.501598 0.119979
0.000000 0.501167 0.119898
0.000000 0.500017 0.119680
0.000000 0.499011 0.119487
0.000000 0.497863 0.119270
0.000000 0.497470 0.115464
0.000000 0.496935 0.112064
0.000000 0.503861 0.000000
0.000000 0.503526 0.000000
0.000000 0.507250 0.000000
0.000000 0.523510 0.000000
0.000000 0.546284 0.000000
0.000000 0.585704 0.000000
0.281758 0.625139 0.000000
0.431252 0.663312 0.000000
0.569183 0.697443 0.000000
0.682282 0.721328 0.000000
0.781256 0.737866 0.000000
0.854362 0.745125 0.000000
0.899765 0.749351 0.000000
0.933069 0.750895 0.000000
0.955506 0.751555 0.000000
0.967826 0.752023 0.000000
0.974151 0.750201 0.000000
0.977605 0.746752 0.000000
0.978136 0.742006 0.000000
0.976810 0.738004 0.000000
0.975337 0.733953 0.000000
0.973568 0.729092 0.000000
0.971788 0.724214 0.000000
0.969714 0.718548 0.000000
0.967933 0.713691 0.000000
0.000000 0.505977 0.120536
0.000000 0.505654 0.120502
0.000000 0.505439 0.120480
0.000000 0.504578 0.120391
0.000000 0.503716 0.120300
0.000000 0.502964 0.120220
0.000000 0.501885 0.120033
0.000000 0.500951 0.118859
0.000000 0.503964 0.098143
0.000000 0.508675 0.000000
0.000000 0.513669 0.000000
0.000000 0.522974 0.000000
0.000000 0.551273 0.000000
0.000000 0.579498 0.000000
0.229708 0.624692 0.000000
0.398344 0.665414 0.000000
0.540755 0.702625 0.000000
0.664364 0.732707 0.000000
0.772697 0.754956 0.000000
0.844310 0.764828 0.000000
0.897911 0.769645 0.000000
0.935625 0.772146 0.000000
0.959940 0.772114 0.000000
0.973362 0.771519 0.000000
0.980268 0.771368 0.000000
0.984921 0.769824 0.000000
0.987156 0.767865 0.000000
0.986445 0.764281 0.000000
0.985321 0.761265 0.000000
0.983971 0.757646 0.000000
0.982620 0.754027 0.000000
0.981215 0.750163 0.000000
0.979162 0.744488 0.000000
0.000000 0.509715 0.120920
0.000000 0.509428 0.120901
0.000000 0.509104 0.120866
0.000000 0.508457 0.120799
0.000000 0.507594 0.120707
0.000000 0.506732 0.120616
0.000000 0.505977 0.120536
0.000000 0.505296 0.119012
0.000000 0.505984 0.111909
0.000000 0.515913 0.000000
0.000000 0.516932 0.000000
0.000000 0.534609 0.000000
0.000000 0.544411 0.000000
0.000000 0.577079 0.000000
0.175405 0.622740 0.000000
0.358151 0.664419 0.000000
0.514164 0.707014 0.000000
0.643376 0.739831 0.000000
0.750423 0.761940 0.000000
0.833772 0.775608 0.000000
0.893584 0.782849 0.000000
0.934617 0.786696 0.000000
0.963185 0.789519 0.000000
0.978230 0.790298 0.000000
0.985725 0.790570 0.000000
0.990922 0.790137 0.000000
0.994218 0.789195 0.000000
0.994713 0.786611 0.000000
0.993599 0.783589 0.000000
