transforms/JF01_fogged_color_pull_fpe_r709.cube
#  JF_01_FPE_r709.cube
LUT_3D_SIZE 9
0.000000 0.000000 0.000000
0.004540 0.003706 0.002807
0.036475 0.023093 0.013212
0.154255 0.059564 0.000000
0.408718 0.038695 0.000000
0.577555 0.000000 0.000000
0.633598 0.000000 0.000000
0.667850 0.000000 0.000000
0.698286 0.000000 0.000000
0.005953 0.008929 0.005465
0.010899 0.011064 0.006080
0.059854 0.050396 0.022834
0.166944 0.076396 0.000000
0.393934 0.089941 0.000000
0.593177 0.000000 0.000000
0.669672 0.000000 0.000000
0.709077 0.000000 0.000000
0.743767 0.107456 0.000000
0.000000 0.072964 0.043620
0.043475 0.077487 0.041990
0.093019 0.097728 0.041840
0.245093 0.141615 0.000000
0.512182 0.168751 0.000000
0.688326 0.170150 0.000000
0.754461 0.202373 0.000000
0.794945 0.253852 0.000000
0.829186 0.310502 0.000000
0.000000 0.179246 0.068959
0.000000 0.185194 0.043993
0.116705 0.234548 0.000000
0.367997 0.314152 0.000000
0.664427 0.375890 0.000000
0.810791 0.416277 0.000000
0.868667 0.461490 0.000000
0.902838 0.511959 0.000000
0.926038 0.555961 0.000000
0.000000 0.392599 0.131020
0.000000 0.387176 0.000000
0.084233 0.462808 0.000000
0.509733 0.571550 0.000000
0.794698 0.637208 0.000000
0.909030 0.666081 0.000000
0.950093 0.688325 0.000000
0.968968 0.706395 0.000000
0.980423 0.720978 0.000000
0.000000 0.492423 0.116707
0.000000 0.515339 0.000000
0.260011 0.617662 0.000000
0.656472 0.718826 0.000000
0.872868 0.758733 0.000000
0.952585 0.771029 0.000000
0.980813 0.776513 0.000000
0.993877 0.780845 0.000000
1.002181 0.786047 0.000000
0.000000 0.530104 0.106236
0.000000 0.591638 0.000000
0.452638 0.699449 0.000000
0.764990 0.775103 0.000000
0.913775 0.799054 0.000000
0.971965 0.805878 0.000000
0.995006 0.808776 0.000000
1.005089 0.810008 0.000000
1.011191 0.811578 0.000000
0.000000 0.554748 0.095354
0.204513 0.655938 0.000000
0.597142 0.748661 0.000000
0.834396 0.800235 0.000000
0.943807 0.815734 0.000000
0.985469 0.820801 0.000000
1.002237 0.822348 0.000000
1.011337 0.823473 0.000000
1.016273 0.823822 0.000000
0.000000 0.576287 0.114223
0.389331 0.705749 0.000000
0.711858 0.781391 0.000000
0.888617 0.814320 0.000000
0.966576 0.825217 0.000000
0.995434 0.829005 0.000000
1.007659 0.830101 0.000000
1.015074 0.830482 0.000000
1.019977 0.830753 0.000000
0.003530 0.003319 0.003045
0.005460 0.004260 0.004276
0.039261 0.025571 0.022723
0.164492 0.060771 0.039824
0.424245 0.025285 0.000000
0.592779 0.000000 0.000000
0.650110 0.000000 0.000000
0.683508 0.000000 0.000000
0.712528 0.000000 0.134017
0.005802 0.010125 0.010043
0.011190 0.011792 0.011041
0.062261 0.052412 0.043714
0.174343 0.078231 0.047759
0.406926 0.090843 0.000000
0.611558 0.000000 0.000000
0.688187 0.000000 0.000000
0.727090 0.000000 0.000000
0.760483 0.099470 0.023636
0.000000 0.076652 0.063201
0.039723 0.082428 0.063180
0.099686 0.104001 0.068584
0.258591 0.150003 0.055541
0.533553 0.175259 0.000000
0.712076 0.175864 0.000000
0.777175 0.210268 0.000000
0.814649 0.257565 0.000000
0.845467 0.316678 0.000000
0.000000 0.192837 0.101982
0.000000 0.199019 0.080928
0.127483 0.251459 0.069770
0.393251 0.334891 0.000000
0.691410 0.392855 0.000000
0.835291 0.430301 0.000000
0.890685 0.474101 0.000000
0.921426 0.522513 0.000000
0.941432 0.568073 0.000000
0.000000 0.418334 0.173508
0.000000 0.414725 0.106242
0.078377 0.488369 0.000000
0.525371 0.594614 0.000000
0.809600 0.652192 0.000000
0.928014 0.678632 0.000000
0.968298 0.699943 0.000000
0.984739 0.718772 0.000000
0.994064 0.739181 0.000000
0.000000 0.534544 0.237866
0.000000 0.545591 0.108785
0.226374 0.641996 0.000000
0.642216 0.733108 0.000000
0.870464 0.774596 0.000000
0.962732 0.790278 0.000000
0.993120 0.798522 0.000000
1.006008 0.806809 0.000000
1.012947 0.814583 0.000000
0.000000 0.603903 0.357313
0.000000 0.627916 0.202680
0.388777 0.727412 0.122545
0.725527 0.797308 0.000000
0.900913 0.826300 0.000000
0.972398 0.835649 0.000000
0.999793 0.842076 0.000000
1.011741 0.847232 0.000000
1.017251 0.851698 0.131551
0.000000 0.666701 0.502336
0.000000 0.696891 0.312174
0.513751 0.785204 0.261478
0.791305 0.836811 0.210359
0.919271 0.854617 0.174403
0.977571 0.862824 0.175972
1.000629 0.868214 0.207245
1.011960 0.873437 0.243772
1.016280 0.876955 0.277009
0.000000 0.706707 0.612837
0.000000 0.757208 0.417582
0.614581 0.828931 0.370456
0.831860 0.864689 0.336802
0.935176 0.878308 0.315268
0.980683 0.883995 0.316354
0.999531 0.887519 0.331365
1.009542 0.891038 0.350212
1.013708 0.894511 0.378084
0.017194 0.017469 0.029221
0.023907 0.018966 0.032221
0.051587 0.036043 0.053505
0.180607 0.060523 0.083285
0.443863 0.000000 0.073359
0.606866 0.000000 0.094957
0.662495 0.000000 0.154043
0.697635 0.000000 0.251766
0.726006 0.000000 0.356458
0.011855 0.039762 0.058694
0.036700 0.043595 0.062464
0.065449 0.055968 0.073747
0.185194 0.081921 0.091060
0.425426 0.090896 0.080829
0.629240 0.000000 0.071282
0.702750 0.000000 0.121255
0.741758 0.000000 0.182202
0.773271 0.109175 0.266885
0.000000 0.085300 0.101400
0.000000 0.089954 0.102548
0.102802 0.116872 0.122826
0.275500 0.162214 0.138833
0.554314 0.187360 0.138585
0.729514 0.191279 0.150365
0.791529 0.227041 0.190358
0.828201 0.280250 0.249202
0.855861 0.342629 0.319081
0.000000 0.231243 0.185369
0.000000 0.230103 0.173422
0.090371 0.278931 0.181693
0.407526 0.365924 0.197432
0.706548 0.424014 0.189776
0.848797 0.462646 0.205849
0.899105 0.506911 0.251718
0.927872 0.559971 0.304523
0.944634 0.607642 0.358375
0.000000 0.481427 0.319824
0.000000 0.476406 0.278868
0.000000 0.527533 0.242550
0.519731 0.631581 0.238011
0.808076 0.688342 0.229968
0.926603 0.715754 0.248440
0.965216 0.737690 0.297358
0.980625 0.758713 0.346828
0.988738 0.780497 0.398180
0.000000 0.615669 0.468732
0.000000 0.617546 0.384514
0.000000 0.685350 0.341598
0.613111 0.775359 0.338308
0.854424 0.812955 0.336039
0.952209 0.831581 0.357828
0.984406 0.839543 0.384012
0.997441 0.848686 0.423076
1.004250 0.858302 0.459943
0.000000 0.683757 0.614006
0.000000 0.690369 0.484902
0.288825 0.773994 0.459851
0.690976 0.840902 0.450553
0.880234 0.870124 0.449489
0.956119 0.880376 0.460582
0.987411 0.886362 0.477017
1.000273 0.891727 0.502731
1.005035 0.897133 0.531713
0.000000 0.721627 0.713808
0.000000 0.744780 0.571724
0.440718 0.830790 0.560631
0.753832 0.881483 0.551795
0.894731 0.901172 0.547513
0.958528 0.908874 0.552558
0.986304 0.913267 0.562409
0.999644 0.918367 0.581357
1.003447 0.920427 0.598647
0.000000 0.741172 0.771926
0.000000 0.795663 0.653443
0.554490 0.870691 0.641078
0.797343 0.907467 0.629341
0.910588 0.921654 0.625255
0.961057 0.927823 0.629302
0.983585 0.930816 0.636699
0.995255 0.934029 0.650619
0.999921 0.936577 0.666965
0.022086 0.029765 0.086266
0.035411 0.030198 0.094489
0.069701 0.036112 0.160740
0.195913 0.048364 0.214108
0.466669 0.000000 0.257239
0.621272 0.000000 0.311138
0.677804 0.000000 0.386023
0.713346 0.000000 0.476570
0.741343 0.000000 0.553999
0.000000 0.050572 0.151577
0.031189 0.053044 0.154723
0.073113 0.062198 0.182213
0.194169 0.080852 0.213500
0.447893 0.078547 0.244276
0.643929 0.000000 0.277956
0.719072 0.000000 0.336275
0.757278 0.000000 0.415280
0.788502 0.111895 0.499335
0.000000 0.106370 0.231932
0.000000 0.105806 0.232178
0.076095 0.131302 0.268086
0.284703 0.180130 0.314085
0.574167 0.208601 0.348747
0.744541 0.213137 0.387186
0.808129 0.257310 0.443991
0.844378 0.317855 0.506740
0.868892 0.382076 0.572784
0.000000 0.301335 0.380018
0.000000 0.298294 0.375214
0.000000 0.325809 0.389549
0.400067 0.413724 0.437812
0.712213 0.472768 0.468169
0.854186 0.512484 0.502194
0.904602 0.557576 0.543202
0.930308 0.607720 0.588002
0.944854 0.655199 0.632797
0.000000 0.558748 0.554716
0.000000 0.564130 0.534950
0.000000 0.587402 0.503665
0.482822 0.685827 0.533647
0.798293 0.742450 0.554937
0.918299 0.765041 0.575511
0.957781 0.784376 0.602490
0.973451 0.801379 0.633031
0.981803 0.819831 0.663307
0.000000 0.675643 0.684034
0.000000 0.694539 0.644345
0.000000 0.738142 0.606735
0.575808 0.822134 0.623585
0.830639 0.858977 0.627556
0.936783 0.873659 0.639468
0.971909 0.881849 0.657935
0.986649 0.887804 0.674580
0.993514 0.894484 0.693402
0.000000 0.711893 0.755600
0.000000 0.744017 0.698350
0.034929 0.813034 0.681340
0.656676 0.878752 0.690592
0.860009 0.906651 0.690333
0.940726 0.916069 0.696670
0.974521 0.920420 0.704227
0.989630 0.924005 0.717329
0.994941 0.926871 0.731558
0.000000 0.730458 0.797689
0.000000 0.781455 0.740948
0.377709 0.860412 0.742614
0.725693 0.911226 0.746262
0.876220 0.930363 0.743021
0.944159 0.938144 0.746427
0.974368 0.942262 0.752247
0.987754 0.944612 0.760785
0.993681 0.945972 0.772644
0.000000 0.742347 0.822724
0.000000 0.816682 0.782387
0.514438 0.892039 0.785296
0.776949 0.931556 0.788970
0.893492 0.945055 0.787181
0.948420 0.950907 0.788421
0.973508 0.953961 0.793709
0.985669 0.955831 0.800217
0.991598 0.957169 0.808137
0.000000 0.000000 0.230924
0.037887 0.000000 0.299793
0.092357 0.000000 0.358670
0.226940 0.000000 0.423245
0.493398 0.000000 0.473801
0.641041 0.000000 0.513233
0.695021 0.000000 0.561045
0.726710 0.000000 0.612078
0.751951 0.000000 0.658335
0.000000 0.010180 0.331357
0.000000 0.003110 0.331355
0.067604 0.000000 0.366379
0.207829 0.000000 0.415996
0.469014 0.000000 0.465426
0.664971 0.000000 0.505234
0.738413 0.000000 0.556363
0.774167 0.000000 0.610175
0.802323 0.107511 0.668306
0.000000 0.128222 0.422380
0.000000 0.121080 0.425796
0.000000 0.141834 0.467594
0.291839 0.194509 0.528563
0.592631 0.225883 0.577728
0.761869 0.237349 0.614987
0.823938 0.289525 0.658885
0.855953 0.348097 0.702507
0.878653 0.412487 0.747471
0.000000 0.333877 0.552660
0.000000 0.339582 0.563001
0.000000 0.373478 0.598895
0.389618 0.457773 0.657658
0.715326 0.518448 0.696639
0.858241 0.557403 0.723857
0.908428 0.599608 0.751534
0.931994 0.643754 0.777190
0.945607 0.686392 0.802695
0.000000 0.583651 0.694645
0.000000 0.604322 0.701718
0.000000 0.641024 0.707383
0.455243 0.729401 0.743349
0.786322 0.781498 0.768507
0.908672 0.800383 0.779137
0.950089 0.814636 0.791375
0.966661 0.828714 0.804597
0.976065 0.845170 0.820048
0.000000 0.683266 0.771267
0.000000 0.722437 0.775470
0.000000 0.768298 0.766094
0.549859 0.850188 0.790914
0.816958 0.886585 0.803130
0.925603 0.899250 0.805419
0.961916 0.904530 0.813050
0.978148 0.908786 0.823251
0.985502 0.913773 0.830328
0.000000 0.712340 0.805257
0.000000 0.765998 0.801772
0.000000 0.832982 0.804997
0.635371 0.898759 0.825140
0.843471 0.927085 0.830933
0.929336 0.935619 0.832075
0.965178 0.939656 0.834493
0.980811 0.942493 0.842290
0.987176 0.944175 0.848847
0.000000 0.728956 0.826995
0.000000 0.797336 0.823960
0.337700 0.872625 0.835001
0.709949 0.925393 0.849677
0.863893 0.944874 0.851625
0.935060 0.952594 0.853524
0.966465 0.956072 0.855976
0.980175 0.957892 0.859503
0.987239 0.958441 0.864890
0.000000 0.741146 0.841572
0.000000 0.824692 0.843303
0.492377 0.902319 0.861902
0.762795 0.941578 0.870446
0.884437 0.955696 0.871346
0.941324 0.961511 0.872268
0.967177 0.964258 0.874065
0.979387 0.965867 0.877409
0.986285 0.967093 0.881760
0.117552 0.000000 0.444240
0.134567 0.000000 0.455906
0.172805 0.000000 0.484039
0.278865 0.000000 0.535489
0.522005 0.000000 0.584504
0.656705 0.000000 0.608973
0.705719 0.000000 0.636061
0.736227 0.000000 0.670546
0.759869 0.000000 0.704058
0.025801 0.000000 0.467660
0.068221 0.000000 0.471819
0.111910 0.000000 0.499118
0.233591 0.000000 0.552499
0.495761 0.000000 0.604604
0.683143 0.000000 0.639262
0.752360 0.000000 0.673696
0.787798 0.000000 0.710601
0.813238 0.133195 0.749056
0.000000 0.132517 0.533356
0.000000 0.130799 0.547782
0.000000 0.155771 0.594132
0.304420 0.209865 0.658485
0.610617 0.244347 0.711489
0.776395 0.264687 0.743803
0.834934 0.317509 0.773503
0.864993 0.375999 0.800710
0.884446 0.434480 0.828122
0.000000 0.357605 0.637583
0.000000 0.368497 0.659065
0.000000 0.406789 0.710605
0.392272 0.495698 0.775171
0.719575 0.550936 0.815653
0.863974 0.586963 0.837364
0.911140 0.627930 0.853956
0.933611 0.667848 0.869725
0.946012 0.705029 0.882499
0.000000 0.594088 0.750025
0.000000 0.617866 0.769774
0.000000 0.665252 0.798815
0.441300 0.750477 0.841922
0.779017 0.799492 0.868606
0.906115 0.815806 0.878289
0.947473 0.830433 0.883977
0.964319 0.843043 0.889975
0.973272 0.855524 0.896021
0.000000 0.685657 0.803275
0.000000 0.727671 0.822644
0.000000 0.780742 0.835801
0.540047 0.862788 0.871109
0.806251 0.898263 0.885382
0.919130 0.911187 0.891253
0.957107 0.916086 0.894441
0.974179 0.919532 0.898235
0.982408 0.923411 0.901776
0.000000 0.712342 0.825444
0.000000 0.771834 0.844545
0.000000 0.842454 0.863007
0.624795 0.906601 0.886732
0.834725 0.935085 0.895698
0.924623 0.944078 0.900353
0.960865 0.947930 0.901178
0.976473 0.950108 0.904266
0.983849 0.951291 0.906997
0.000000 0.728439 0.839735
0.000000 0.802519 0.860119
0.321919 0.880173 0.883599
0.699977 0.931329 0.900735
0.857063 0.951598 0.905640
0.930947 0.959769 0.908576
0.962667 0.962427 0.909501
0.976079 0.963967 0.910885
0.984023 0.964288 0.913076
0.000000 0.740175 0.849883
0.000000 0.828680 0.873564
0.486215 0.908125 0.900033
0.758533 0.946504 0.912238
0.878793 0.960726 0.915553
0.936784 0.966822 0.916562
0.964001 0.969826 0.917930
0.975879 0.971117 0.918885
0.983413 0.972169 0.921173
0.151844 0.000000 0.498334
0.167583 0.000000 0.505365
0.199976 0.000000 0.528017
0.309337 0.000000 0.581717
0.548125 0.000000 0.628651
0.670574 0.000000 0.648958
0.717408 0.000000 0.671511
0.745557 0.000000 0.698283
0.768327 0.000000 0.727222
0.071708 0.000000 0.521117
0.096877 0.000000 0.528654
0.122089 0.000000 0.555637
0.251824 0.000000 0.615239
0.522387 0.000000 0.669651
0.697410 0.000000 0.700408
0.763871 0.000000 0.727248
0.797069 0.000000 0.758286
0.821324 0.167221 0.789126
0.000000 0.153866 0.581459
0.000000 0.152801 0.601524
0.000000 0.176596 0.650840
0.320280 0.234870 0.719444
0.631833 0.272055 0.772613
0.786753 0.294667 0.800842
0.844556 0.347666 0.826114
0.872533 0.401874 0.847374
0.890666 0.458573 0.869088
0.000000 0.382130 0.678566
0.000000 0.392873 0.703555
0.000000 0.435878 0.760049
0.402701 0.523731 0.829261
0.729841 0.577203 0.869270
0.866954 0.611414 0.887825
0.914225 0.645950 0.900281
0.935289 0.681964 0.910680
0.947429 0.717865 0.920170
0.000000 0.605757 0.777541
0.000000 0.629643 0.801091
0.000000 0.681783 0.838415
0.449556 0.766020 0.887894
0.780621 0.811704 0.914272
0.902685 0.827777 0.922981
0.945514 0.839894 0.927223
0.963273 0.851296 0.930739
0.972186 0.862599 0.934014
0.000000 0.686888 0.817264
0.000000 0.731512 0.845103
0.000000 0.789019 0.870008
0.541479 0.869990 0.909182
0.804440 0.902749 0.925923
0.916367 0.916964 0.930470
0.954789 0.920560 0.932503
0.972033 0.923809 0.935635
0.980185 0.927476 0.936879
0.000000 0.712404 0.834418
0.000000 0.775142 0.864810
0.000000 0.848498 0.892845
0.624110 0.911427 0.919599
0.830781 0.938316 0.930582
0.918896 0.948434 0.935119
0.958353 0.952751 0.936003
0.974339 0.953932 0.937085
0.981976 0.955236 0.939058
0.000000 0.727774 0.846193
0.000000 0.806070 0.877962
0.319196 0.884142 0.908480
0.697885 0.934708 0.928574
0.853832 0.955053 0.935503
0.925263 0.962365 0.938732
0.960064 0.966000 0.939705
0.973938 0.967280 0.940372
0.982189 0.967501 0.941541
0.000000 0.739552 0.854369
0.000000 0.831505 0.889304
0.484536 0.910576 0.920172
0.756952 0.949007 0.935016
0.875774 0.963248 0.939624
0.932704 0.969379 0.941929
0.961861 0.972849 0.943181
0.973850 0.973995 0.943907
0.981970 0.975016 0.944846
0.147961 0.000000 0.518241
0.170124 0.000000 0.525162
0.209093 0.000000 0.552098
0.342136 0.000000 0.606316
0.575359 0.000000 0.649939
0.685919 0.000000 0.669434
0.726695 0.000000 0.690285
0.753759 0.000000 0.715101
0.776040 0.000000 0.742030
0.036312 0.000000 0.544889
0.074441 0.000000 0.555662
0.110406 0.000000 0.587112
0.277443 0.000000 0.650139
0.552785 0.000000 0.703728
0.716669 0.000000 0.732507
0.775303 0.000000 0.756197
0.806361 0.085948 0.783402
0.829217 0.207133 0.810756
0.000000 0.178997 0.605807
0.000000 0.176738 0.629182
0.000000 0.204470 0.684485
0.346226 0.262650 0.753916
0.651318 0.300038 0.806105
0.798960 0.326629 0.832587
0.851647 0.372943 0.852534
0.878464 0.426456 0.871017
0.896031 0.479140 0.888334
0.000000 0.409080 0.701935
0.000000 0.418222 0.728841
0.000000 0.465521 0.787620
0.419067 0.549917 0.857355
0.738956 0.602327 0.896157
0.872891 0.633492 0.913144
0.917203 0.665608 0.923764
0.937391 0.698051 0.931856
0.948742 0.729611 0.939382
0.000000 0.616059 0.789941
0.000000 0.641879 0.816958
0.000000 0.694588 0.858025
0.469312 0.779446 0.910650
0.783284 0.820287 0.936124
0.903972 0.836292 0.945219
0.945464 0.848385 0.949275
0.962965 0.858174 0.951887
0.971358 0.867656 0.953909
0.000000 0.688578 0.824167
0.000000 0.736031 0.855830
0.000000 0.797195 0.888252
0.549624 0.875128 0.929383
0.805365 0.906904 0.946523
0.915681 0.921522 0.953534
0.953610 0.924567 0.955812
0.970941 0.926785 0.956493
0.978296 0.930344 0.957548
0.000000 0.713211 0.838658
0.000000 0.777792 0.875192
0.000000 0.852868 0.907709
0.629048 0.914739 0.937707
0.832036 0.941255 0.950674
0.917754 0.950730 0.955920
0.957041 0.955255 0.956922
0.972822 0.956568 0.956379
0.980958 0.957553 0.956983
0.000000 0.728742 0.849307
0.000000 0.808332 0.887397
0.327130 0.887183 0.921662
0.699620 0.936994 0.944732
0.852916 0.957466 0.953343
0.923417 0.964699 0.956151
0.957748 0.967772 0.956915
0.972487 0.968398 0.957183
0.981160 0.969093 0.957055
0.000000 0.739683 0.856990
0.000000 0.833126 0.897918
0.488515 0.913138 0.932593
0.757192 0.950796 0.949475
0.873904 0.965298 0.955378
0.931682 0.971434 0.956992
0.960028 0.974599 0.958072
0.972728 0.975179 0.957964
0.981054 0.976059 0.958516
0.134199 0.000000 0.533550
0.163412 0.000000 0.541132
0.213698 0.000000 0.573985
0.383039 0.000000 0.630270
0.605937 0.000000 0.668744
0.700668 0.000000 0.686436
0.736637 0.000000 0.705775
0.761890 0.000000 0.729082
0.783651 0.000000 0.755384
0.006252 0.000000 0.561951
0.029977 0.000000 0.575099
0.100454 0.000000 0.614067
0.309528 0.000000 0.677890
0.587152 0.000000 0.726734
0.732085 0.000000 0.752930
0.787347 0.000000 0.775279
0.815863 0.152065 0.800240
0.837078 0.239950 0.824792
0.000000 0.206445 0.623643
0.000000 0.205277 0.648317
0.000000 0.236020 0.709870
0.381101 0.296355 0.778469
0.673165 0.332435 0.826189
0.811342 0.359838 0.850635
0.860295 0.400217 0.867970
0.885124 0.451793 0.884461
0.901108 0.501415 0.900338
0.000000 0.435312 0.718721
0.000000 0.445921 0.746476
0.000000 0.495512 0.807439
0.449088 0.578216 0.874093
0.752969 0.625100 0.910329
0.878808 0.653971 0.926149
0.920738 0.683237 0.936091
0.939861 0.712829 0.943144
0.950427 0.738478 0.948890
0.000000 0.624422 0.797702
0.000000 0.655097 0.827301
0.000000 0.709515 0.870355
0.492173 0.791263 0.921912
0.790706 0.829464 0.947580
0.905924 0.843685 0.957138
0.946161 0.854677 0.961077
0.963024 0.864782 0.963265
0.971332 0.873683 0.965469
0.000000 0.691464 0.828319
0.000000 0.741104 0.862600
0.000000 0.803666 0.898550
0.562634 0.879797 0.940229
0.808488 0.910924 0.958238
0.914841 0.924509 0.965328
0.952978 0.927662 0.967557
0.970049 0.930299 0.967868
0.977576 0.933010 0.968461
0.000000 0.714801 0.841361
0.000000 0.780584 0.880895
0.000000 0.857313 0.917068
0.635644 0.917407 0.948431
0.834624 0.943347 0.961075
0.918072 0.952281 0.966055
0.956540 0.956834 0.967721
0.971958 0.958232 0.967907
0.980155 0.958924 0.967875
0.000000 0.729700 0.851546
0.000000 0.810470 0.892972
0.338500 0.889540 0.930128
0.705832 0.939269 0.954205
0.854271 0.959042 0.962330
0.923989 0.965843 0.966068
0.957166 0.968739 0.967368
0.971906 0.969945 0.967774
0.980355 0.970103 0.967728
0.000000 0.739949 0.858450
0.000000 0.834964 0.903701
0.497816 0.915860 0.941517
0.758072 0.951859 0.957775
0.875206 0.966391 0.963470
0.930999 0.972478 0.966202
0.959069 0.975500 0.967442
0.971925 0.976379 0.967921
0.980335 0.976916 0.968356
