transforms/JF01_fogged_color_pull_fpe_r709.cube
#  JF_01_FPE_r709.cube
LUT_3D_SIZE 33
0.000000 0.000000 0.000000
0.000476 0.000442 0.000348
0.001174 0.001069 0.000836
0.002252 0.002009 0.001555
0.004540 0.003706 0.002807
0.010001 0.006991 0.005049
0.015918 0.010508 0.007342
0.024453 0.015707 0.009990
0.036475 0.023093 0.013212
0.049468 0.031394 0.015641
0.079669 0.051668 0.019270
0.113602 0.056174 0.011970
0.154255 0.059564 0.000000
0.202302 0.063604 0.000000
0.259360 0.073670 0.000000
0.334853 0.064852 0.000000
0.408718 0.038695 0.000000
0.468492 0.000000 0.000000
0.516327 0.000000 0.000000
0.551672 0.000000 0.000000
0.577555 0.000000 0.000000
0.597213 0.000000 0.000000
0.611346 0.000000 0.000000
0.622870 0.000000 0.000000
0.633598 0.000000 0.000000
0.642474 0.000000 0.000000
0.651126 0.000000 0.000000
0.660158 0.000000 0.000000
0.667850 0.000000 0.000000
0.675021 0.000000 0.000000
0.682869 0.000000 0.000000
0.690258 0.000000 0.000000
0.698286 0.000000 0.000000
0.000484 0.000459 0.000359
0.000503 0.000472 0.000367
0.001286 0.001184 0.000910
0.002618 0.002316 0.001762
0.006282 0.004789 0.003473
0.011328 0.007855 0.005531
0.018224 0.012229 0.007980
0.028008 0.018426 0.010944
0.044096 0.029015 0.015019
0.070789 0.047395 0.020298
0.098118 0.055547 0.019389
0.130434 0.059155 0.005831
0.173602 0.062426 0.000000
0.223794 0.069131 0.000000
0.285451 0.074052 0.000000
0.358320 0.063602 0.000000
0.428084 0.031349 0.000000
0.482935 0.000000 0.000000
0.527253 0.000000 0.000000
0.562124 0.000000 0.000000
0.585098 0.000000 0.000000
0.604458 0.000000 0.000000
0.618600 0.000000 0.000000
0.629970 0.000000 0.000000
0.640389 0.000000 0.000000
0.649482 0.000000 0.000000
0.658308 0.000000 0.000000
0.667103 0.000000 0.000000
0.674507 0.000000 0.000000
0.682282 0.000000 0.000000
0.690515 0.000000 0.000000
0.698236 0.000000 0.000000
0.706011 0.000000 0.000000
0.001267 0.001244 0.000949
0.001338 0.001302 0.000987
0.001399 0.001331 0.000998
0.003137 0.002750 0.002042
0.007541 0.005687 0.003971
0.013094 0.009272 0.006197
0.021749 0.015421 0.009240
0.038806 0.028630 0.014743
0.061610 0.043841 0.020868
0.082975 0.055273 0.023192
0.110740 0.058875 0.018968
0.142839 0.062348 0.000000
0.185131 0.066038 0.000000
0.235397 0.073847 0.000000
0.293250 0.077782 0.000000
0.362767 0.070762 0.000000
0.428335 0.049475 0.000000
0.481510 0.000000 0.000000
0.525298 0.000000 0.000000
0.556055 0.000000 0.000000
0.583082 0.000000 0.000000
0.602248 0.000000 0.000000
0.620347 0.000000 0.000000
0.633079 0.000000 0.000000
0.645338 0.000000 0.000000
0.655605 0.000000 0.000000
0.664354 0.000000 0.000000
0.673531 0.000000 0.000000
0.683239 0.000000 0.000000
0.691082 0.000000 0.000000
0.698581 0.000000 0.000000
0.706689 0.000000 0.000000
0.714885 0.000000 0.000000
0.002688 0.002958 0.002113
0.002858 0.003156 0.002207
0.003088 0.003423 0.002330
0.003817 0.003753 0.002440
0.009567 0.008446 0.005150
0.016362 0.014332 0.008066
0.025273 0.022117 0.011449
0.037176 0.032152 0.015416
0.056742 0.044852 0.020194
0.074743 0.054389 0.022120
0.097586 0.060647 0.021044
0.123566 0.063992 0.015801
0.159548 0.068717 0.000000
0.201700 0.074187 0.000000
0.253422 0.082887 0.000000
0.315910 0.085359 0.000000
0.384217 0.079278 0.000000
0.451505 0.062428 0.000000
0.501946 0.009835 0.000000
0.546950 0.000000 0.000000
0.580248 0.000000 0.000000
0.605790 0.000000 0.000000
0.625934 0.000000 0.000000
0.642002 0.000000 0.000000
0.654824 0.000000 0.000000
0.666642 0.000000 0.000000
0.676121 0.000000 0.000000
0.685366 0.000000 0.000000
0.694307 0.000000 0.000000
0.702832 0.000000 0.000000
0.711261 0.000000 0.000000
0.719407 0.000000 0.000000
0.728116 0.011480 0.000000
0.005953 0.008929 0.005465
0.006483 0.009628 0.005829
0.007463 0.010283 0.006151
0.009394 0.010503 0.005976
0.010899 0.011064 0.006080
0.017709 0.017570 0.009159
0.026651 0.025817 0.013022
0.039647 0.036789 0.017601
0.059854 0.050396 0.022834
0.079164 0.060349 0.025390
0.102768 0.066241 0.023553
0.129804 0.070444 0.017723
0.166944 0.076396 0.000000
0.210029 0.082809 0.000000
0.262871 0.091562 0.000000
0.324283 0.094518 0.000000
0.393934 0.089941 0.000000
0.461718 0.077375 0.000000
0.515093 0.053476 0.000000
0.559148 0.000000 0.000000
0.593177 0.000000 0.000000
0.619673 0.000000 0.000000
0.639396 0.000000 0.000000
0.656292 0.000000 0.000000
0.669672 0.000000 0.000000
0.681340 0.000000 0.000000
0.690107 0.000000 0.000000
0.699543 0.000000 0.000000
0.709077 0.000000 0.000000
0.718150 0.017306 0.000000
0.726395 0.063754 0.000000
0.735083 0.088454 0.000000
0.743767 0.107456 0.000000
0.008705 0.018083 0.010869
0.009462 0.018722 0.011160
0.011558 0.019329 0.011263
0.015276 0.019013 0.010493
0.017198 0.019692 0.010515
0.019087 0.020948 0.010975
0.028638 0.030014 0.015407
0.043825 0.042155 0.020959
0.066596 0.057575 0.027047
0.086120 0.067315 0.029245
0.112336 0.072824 0.025906
0.141266 0.078678 0.019092
0.180478 0.085702 0.000000
0.225693 0.093489 0.000000
0.281000 0.102961 0.000000
0.346528 0.104856 0.000000
0.415045 0.101074 0.000000
0.483283 0.091151 0.000000
0.534314 0.073880 0.000000
0.578636 0.049520 0.000000
0.611771 0.000000 0.000000
0.637283 0.000000 0.000000
0.657502 0.000000 0.000000
0.673106 0.000000 0.000000
0.686094 0.000000 0.000000
0.698252 0.000000 0.000000
0.707932 0.044149 0.000000
0.717700 0.073668 0.000000
0.727366 0.093684 0.000000
0.735403 0.109792 0.000000
0.744000 0.125506 0.000000
0.752662 0.141172 0.000000
0.762026 0.158113 0.000000
0.009256 0.030593 0.018149
0.011565 0.031313 0.018354
0.016168 0.031903 0.018065
0.022689 0.031417 0.016855
0.025400 0.032184 0.017231
0.027827 0.033279 0.017701
0.030481 0.034330 0.018236
0.048168 0.047970 0.024477
0.074132 0.065871 0.031543
0.097203 0.075704 0.032262
0.123578 0.082464 0.028225
0.157444 0.090113 0.018935
0.197940 0.098556 0.000000
0.247253 0.107438 0.000000
0.305068 0.117001 0.000000
0.374849 0.118989 0.000000
0.443917 0.116248 0.000000
0.511941 0.108935 0.000000
0.559945 0.098654 0.000000
0.601510 0.088501 0.000000
0.635040 0.080604 0.000000
0.658567 0.076868 0.000000
0.678988 0.079147 0.000000
0.693640 0.085793 0.000000
0.705673 0.094109 0.000000
0.717890 0.106215 0.000000
0.727358 0.119628 0.000000
0.736920 0.132882 0.000000
0.747236 0.148366 0.000000
0.756019 0.162944 0.000000
0.765188 0.178116 0.000000
0.773870 0.192071 0.000000
0.782351 0.205620 0.000000
0.000000 0.048248 0.028775
0.000000 0.049299 0.029000
0.019604 0.049336 0.028074
0.030113 0.048777 0.026566
0.034361 0.050706 0.027323
0.038395 0.052642 0.028065
0.043678 0.054861 0.028562
0.053603 0.058642 0.028676
0.083781 0.080702 0.036720
0.108715 0.090089 0.035406
0.136922 0.098630 0.030635
0.175048 0.107745 0.016958
0.217921 0.117914 0.000000
0.273443 0.127264 0.000000
0.336205 0.135772 0.000000
0.406554 0.138903 0.000000
0.477270 0.138096 0.000000
0.540511 0.136039 0.000000
0.588855 0.130112 0.000000
0.627306 0.126979 0.000000
0.660382 0.124677 0.000000
0.682542 0.127349 0.000000
0.701690 0.132234 0.000000
0.715768 0.140786 0.000000
0.728889 0.151171 0.000000
0.740455 0.161752 0.000000
0.750617 0.174469 0.000000
0.760390 0.186749 0.000000
0.770250 0.200107 0.000000
0.779042 0.213302 0.000000
0.787507 0.226676 0.000000
0.795906 0.240756 0.000000
0.805644 0.257703 0.000000
0.000000 0.072964 0.043620
0.000000 0.074289 0.043963
0.023604 0.072979 0.041488
0.037326 0.074394 0.041121
0.043475 0.077487 0.041990
0.050381 0.081074 0.042891
0.060652 0.085721 0.043461
0.076033 0.091771 0.043206
0.093019 0.097728 0.041840
0.121294 0.108062 0.038218
0.151786 0.118301 0.031734
0.195228 0.129799 0.000000
0.245093 0.141615 0.000000
0.304000 0.152075 0.000000
0.371642 0.160258 0.000000
0.443171 0.165998 0.000000
0.512182 0.168751 0.000000
0.570797 0.168893 0.000000
0.618482 0.167769 0.000000
0.655753 0.168648 0.000000
0.688326 0.170150 0.000000
0.708935 0.176832 0.000000
0.728463 0.185191 0.000000
0.742111 0.193751 0.000000
0.754461 0.202373 0.000000
0.766349 0.213965 0.000000
0.775767 0.226125 0.000000
0.785360 0.240081 0.000000
0.794945 0.253852 0.000000
0.803875 0.268742 0.000000
0.812084 0.282161 0.000000
0.821144 0.297217 0.000000
0.829186 0.310502 0.000000
0.000000 0.091291 0.049251
0.000000 0.092258 0.049248
0.000000 0.091203 0.047784
0.016769 0.093337 0.047434
0.030822 0.097699 0.047512
0.042477 0.102471 0.047670
0.059602 0.108113 0.046862
0.079829 0.114819 0.045094
0.102997 0.122761 0.042533
0.134010 0.133330 0.037368
0.170456 0.144758 0.025608
0.219002 0.159086 0.000000
0.274312 0.172038 0.000000
0.336092 0.184503 0.000000
0.406630 0.193171 0.000000
0.478250 0.200215 0.000000
0.548370 0.205229 0.000000
0.603493 0.207651 0.000000
0.651689 0.209720 0.000000
0.685367 0.212789 0.000000
0.716720 0.219344 0.000000
0.737028 0.228951 0.000000
0.756882 0.239792 0.000000
0.769242 0.248682 0.000000
0.781989 0.260413 0.000000
0.793388 0.272874 0.000000
0.802817 0.285480 0.000000
0.811674 0.297879 0.000000
0.821028 0.311508 0.000000
0.829233 0.325573 0.000000
0.837868 0.340750 0.000000
0.846162 0.355652 0.000000
0.854428 0.370480 0.000000
0.000000 0.111527 0.053657
0.000000 0.112662 0.053249
0.000000 0.111379 0.052805
0.000000 0.114402 0.052193
0.000000 0.120143 0.051229
0.000000 0.125843 0.050008
0.052345 0.133728 0.047866
0.080901 0.141601 0.044765
0.112486 0.152306 0.039059
0.147034 0.164726 0.028045
0.191179 0.178780 0.000000
0.243551 0.195581 0.000000
0.303315 0.210164 0.000000
0.369644 0.224610 0.000000
0.444465 0.235864 0.000000
0.519539 0.246271 0.000000
0.588543 0.253630 0.000000
0.639718 0.258611 0.000000
0.685176 0.264696 0.000000
0.719101 0.271677 0.000000
0.747019 0.278774 0.000000
0.766400 0.287897 0.000000
0.784752 0.296910 0.000000
0.797741 0.308054 0.000000
0.810043 0.320332 0.000000
0.821645 0.334844 0.000000
0.830288 0.347599 0.000000
0.839404 0.361736 0.000000
0.849087 0.377508 0.000000
0.856827 0.390720 0.000000
0.864951 0.405450 0.000000
0.872406 0.418501 0.000000
0.879591 0.431481 0.000000
0.000000 0.140551 0.056958
0.000000 0.141225 0.055346
0.000000 0.139470 0.051796
0.000000 0.142888 0.050455
0.000000 0.148555 0.048976
0.000000 0.154400 0.047080
0.015956 0.163231 0.043122
0.076755 0.172421 0.037338
0.119588 0.186700 0.020057
0.160485 0.202146 0.000000
0.212195 0.220221 0.000000
0.267135 0.238494 0.000000
0.334614 0.255902 0.000000
0.407330 0.273682 0.000000
0.484175 0.288240 0.000000
0.559390 0.299645 0.000000
0.628284 0.310655 0.000000
0.677447 0.318201 0.000000
0.719259 0.325801 0.000000
0.751778 0.335416 0.000000
0.778096 0.344760 0.000000
0.798150 0.355602 0.000000
0.815735 0.366409 0.000000
0.828139 0.378616 0.000000
0.839314 0.389238 0.000000
0.849779 0.401886 0.000000
0.858437 0.414657 0.000000
0.867896 0.429680 0.000000
0.876083 0.442823 0.000000
0.884287 0.458278 0.000000
0.890585 0.469968 0.000000
0.897532 0.483348 0.000000
0.904348 0.496616 0.000000
0.000000 0.179246 0.068959
0.000000 0.180834 0.066989
0.000000 0.176067 0.055373
0.000000 0.179710 0.049750
0.000000 0.185194 0.043993
0.000000 0.193669 0.035657
0.000000 0.204982 0.023318
0.054539 0.217437 0.000000
0.116705 0.234548 0.000000
0.168546 0.252050 0.000000
0.229352 0.273899 0.000000
0.294855 0.294797 0.000000
0.367997 0.314152 0.000000
0.445737 0.332907 0.000000
0.523637 0.350322 0.000000
0.600452 0.365030 0.000000
0.664427 0.375890 0.000000
0.713331 0.384907 0.000000
0.753244 0.394241 0.000000
0.785740 0.405464 0.000000
0.810791 0.416277 0.000000
0.829192 0.426470 0.000000
0.846000 0.438303 0.000000
0.857360 0.449819 0.000000
0.868667 0.461490 0.000000
0.878272 0.473145 0.000000
0.886632 0.486272 0.000000
0.895032 0.499248 0.000000
0.902838 0.511959 0.000000
0.909312 0.523744 0.000000
0.915513 0.535334 0.000000
0.920735 0.545694 0.000000
0.926038 0.555961 0.000000
0.000000 0.228157 0.089113
0.000000 0.230195 0.086889
0.000000 0.222239 0.067027
0.000000 0.225433 0.052401
0.000000 0.231420 0.029168
0.000000 0.240879 0.000000
0.000000 0.254284 0.000000
0.000000 0.270608 0.000000
0.107001 0.289408 0.000000
0.176942 0.309968 0.000000
0.249419 0.335270 0.000000
0.323666 0.358612 0.000000
0.403872 0.382064 0.000000
0.485445 0.402615 0.000000
0.565532 0.420215 0.000000
0.639835 0.437070 0.000000
0.701153 0.449725 0.000000
0.748084 0.459632 0.000000
0.786431 0.469973 0.000000
0.819052 0.479755 0.000000
0.842916 0.490811 0.000000
0.859598 0.500987 0.000000
0.874957 0.511335 0.000000
0.885512 0.521615 0.000000
0.895849 0.532521 0.000000
0.904342 0.542887 0.000000
0.911448 0.553013 0.000000
0.918128 0.562792 0.000000
0.924426 0.572317 0.000000
0.929734 0.581414 0.000000
0.934781 0.591386 0.000000
0.939685 0.601234 0.000000
0.943977 0.609554 0.000000
0.000000 0.286914 0.116829
0.000000 0.289840 0.114686
0.000000 0.281424 0.093777
0.000000 0.282857 0.071038
0.000000 0.284838 0.011314
0.000000 0.294366 0.000000
0.000000 0.308625 0.000000
0.000000 0.326776 0.000000
0.083706 0.350103 0.000000
0.187871 0.374688 0.000000
0.271061 0.401074 0.000000
0.355573 0.427474 0.000000
0.436512 0.450975 0.000000
0.525082 0.472164 0.000000
0.605429 0.491690 0.000000
0.680582 0.508774 0.000000
0.734980 0.519699 0.000000
0.781361 0.530375 0.000000
0.818055 0.541024 0.000000
0.849218 0.550635 0.000000
0.869100 0.559075 0.000000
0.884804 0.566960 0.000000
0.898337 0.576023 0.000000
0.907563 0.583850 0.000000
0.917427 0.593202 0.000000
0.925851 0.603258 0.000000
0.931649 0.610890 0.000000
0.937849 0.620037 0.000000
0.942923 0.627297 0.000000
0.947926 0.634902 0.000000
0.951224 0.640633 0.000000
0.955152 0.647694 0.000000
0.958540 0.653461 0.000000
0.000000 0.348215 0.130510
0.000000 0.348086 0.125041
0.000000 0.338492 0.104285
0.000000 0.337679 0.074423
0.000000 0.338904 0.000000
0.000000 0.348983 0.000000
0.000000 0.362451 0.000000
0.000000 0.384440 0.000000
0.068678 0.408742 0.000000
0.204205 0.437628 0.000000
0.294658 0.465592 0.000000
0.384028 0.491187 0.000000
0.473220 0.515830 0.000000
0.561434 0.538049 0.000000
0.643311 0.557602 0.000000
0.717781 0.574635 0.000000
0.767339 0.584798 0.000000
0.814385 0.595817 0.000000
0.844829 0.603961 0.000000
0.873587 0.611746 0.000000
0.891113 0.618883 0.000000
0.905931 0.625621 0.000000
0.918032 0.630861 0.000000
0.927075 0.638871 0.000000
0.935166 0.645073 0.000000
0.942938 0.652501 0.000000
0.947708 0.657666 0.000000
0.952567 0.663881 0.000000
0.956824 0.668859 0.000000
0.961164 0.674913 0.000000
0.964153 0.679393 0.000000
0.967459 0.685106 0.000000
0.970474 0.690673 0.000000
0.000000 0.392599 0.131020
0.000000 0.392255 0.123681
0.000000 0.385469 0.102184
0.000000 0.386259 0.061444
0.000000 0.387176 0.000000
0.000000 0.399255 0.000000
0.000000 0.410856 0.000000
0.000000 0.436508 0.000000
0.084233 0.462808 0.000000
0.227609 0.492931 0.000000
0.325041 0.521211 0.000000
0.418140 0.547560 0.000000
0.509733 0.571550 0.000000
0.600883 0.595683 0.000000
0.679406 0.613183 0.000000
0.749230 0.629291 0.000000
0.794698 0.637208 0.000000
0.837056 0.645891 0.000000
0.866753 0.653901 0.000000
0.894111 0.660274 0.000000
0.909030 0.666081 0.000000
0.923374 0.672970 0.000000
0.934934 0.678119 0.000000
0.942440 0.682716 0.000000
0.950093 0.688325 0.000000
0.956518 0.692575 0.000000
0.960890 0.697653 0.000000
0.964897 0.701431 0.000000
0.968968 0.706395 0.000000
0.972693 0.710257 0.000000
0.975635 0.713750 0.000000
0.977917 0.716952 0.000000
0.980423 0.720978 0.000000
0.000000 0.428192 0.127345
0.000000 0.426536 0.113303
0.000000 0.425200 0.083949
0.000000 0.426984 0.000000
0.000000 0.430915 0.000000
0.000000 0.442988 0.000000
0.000000 0.457923 0.000000
0.000000 0.484787 0.000000
0.115467 0.512169 0.000000
0.255296 0.543116 0.000000
0.360100 0.571145 0.000000
0.453389 0.597043 0.000000
0.545770 0.620668 0.000000
0.636744 0.644235 0.000000
0.711967 0.660658 0.000000
0.774479 0.673747 0.000000
0.819045 0.681712 0.000000
0.857540 0.689525 0.000000
0.886165 0.695867 0.000000
0.910976 0.701525 0.000000
0.924254 0.705557 0.000000
0.937005 0.709364 0.000000
0.946886 0.712618 0.000000
0.953644 0.715988 0.000000
0.959662 0.718315 0.000000
0.965799 0.721520 0.000000
0.970022 0.724633 0.000000
0.973600 0.727557 0.000000
0.977139 0.731243 0.000000
0.980401 0.734072 0.000000
0.983699 0.737639 0.000000
0.985513 0.739871 0.000000
0.987742 0.743014 0.000000
0.000000 0.457207 0.123931
0.000000 0.455298 0.101865
0.000000 0.455248 0.049189
0.000000 0.457071 0.000000
0.000000 0.465937 0.000000
0.000000 0.477244 0.000000
0.000000 0.498807 0.000000
0.000000 0.524634 0.000000
0.158925 0.553201 0.000000
0.293565 0.583040 0.000000
0.394390 0.609928 0.000000
0.492948 0.638258 0.000000
0.583882 0.662307 0.000000
0.668826 0.682365 0.000000
0.743001 0.698136 0.000000
0.795624 0.707682 0.000000
0.840920 0.715947 0.000000
0.874353 0.721297 0.000000
0.901512 0.726444 0.000000
0.923489 0.730634 0.000000
0.935546 0.733352 0.000000
0.947381 0.736718 0.000000
0.957035 0.739764 0.000000
0.962589 0.741094 0.000000
0.968668 0.744113 0.000000
0.974241 0.746265 0.000000
0.978183 0.749092 0.000000
0.981295 0.750983 0.000000
0.984532 0.753653 0.000000
0.987796 0.756352 0.000000
0.990512 0.758868 0.000000
0.992321 0.760346 0.000000
0.994578 0.763491 0.000000
0.000000 0.476524 0.119913
0.000000 0.476494 0.089246
0.000000 0.478067 0.000000
0.000000 0.481160 0.000000
0.000000 0.492588 0.000000
0.000000 0.505512 0.000000
0.000000 0.531409 0.000000
0.000000 0.558920 0.000000
0.209483 0.587068 0.000000
0.331324 0.616366 0.000000
0.434560 0.645173 0.000000
0.528819 0.670420 0.000000
0.623050 0.695729 0.000000
0.699269 0.712292 0.000000
0.767813 0.725828 0.000000
0.815334 0.734129 0.000000
0.856292 0.740498 0.000000
0.886905 0.745593 0.000000
0.913850 0.749959 0.000000
0.933930 0.753767 0.000000
0.945378 0.756244 0.000000
0.957163 0.758734 0.000000
0.965203 0.760387 0.000000
0.970562 0.762060 0.000000
0.975644 0.763093 0.000000
0.980651 0.764694 0.000000
0.984262 0.766238 0.000000
0.987087 0.767671 0.000000
0.989709 0.768990 0.000000
0.992658 0.770961 0.000000
0.994970 0.772241 0.000000
0.997128 0.773958 0.000000
0.998484 0.774924 0.000000
0.000000 0.492423 0.116707
0.000000 0.495000 0.075831
0.000000 0.497771 0.000000
0.000000 0.504253 0.000000
0.000000 0.515339 0.000000
0.000000 0.533993 0.000000
0.000000 0.560009 0.000000
0.073489 0.588054 0.000000
0.260011 0.617662 0.000000
0.372285 0.645648 0.000000
0.471593 0.673353 0.000000
0.568967 0.697273 0.000000
0.656472 0.718826 0.000000
0.727492 0.733698 0.000000
0.789995 0.746130 0.000000
0.832200 0.752016 0.000000
0.872868 0.758733 0.000000
0.899117 0.762184 0.000000
0.923612 0.765894 0.000000
0.940822 0.768542 0.000000
0.952585 0.771029 0.000000
0.963125 0.772666 0.000000
0.970583 0.774113 0.000000
0.975967 0.775128 0.000000
0.980813 0.776513 0.000000
0.985370 0.777335 0.000000
0.988630 0.778156 0.000000
0.991517 0.779598 0.000000
0.993877 0.780845 0.000000
0.996398 0.782171 0.000000
0.998620 0.783397 0.000000
1.000678 0.784563 0.000000
1.002181 0.786047 0.000000
0.000000 0.504510 0.113830
0.000000 0.507044 0.040687
0.000000 0.510152 0.000000
0.000000 0.520787 0.000000
0.000000 0.532652 0.000000
0.000000 0.556600 0.000000
0.000000 0.583581 0.000000
0.174850 0.612794 0.000000
0.309328 0.641524 0.000000
0.416545 0.669406 0.000000
0.514365 0.695875 0.000000
0.605648 0.718299 0.000000
0.686169 0.737607 0.000000
0.754621 0.752408 0.000000
0.809100 0.762908 0.000000
0.850007 0.769374 0.000000
0.884774 0.774256 0.000000
0.909549 0.777184 0.000000
0.932339 0.779799 0.000000
0.947206 0.782036 0.000000
0.958439 0.783871 0.000000
0.968767 0.785474 0.000000
0.976195 0.786871 0.000000
0.980940 0.787037 0.000000
0.985600 0.787791 0.000000
0.990203 0.788970 0.000000
0.993269 0.789700 0.000000
0.995671 0.790491 0.000000
0.998003 0.791741 0.000000
1.000258 0.792487 0.000000
1.002396 0.793670 0.000000
1.004226 0.794752 0.000000
1.005589 0.795746 0.000000
0.000000 0.514565 0.110817
0.000000 0.517921 0.000000
0.000000 0.523606 0.000000
0.000000 0.536148 0.000000
0.000000 0.552285 0.000000
0.000000 0.579468 0.000000
0.000000 0.607221 0.000000
0.245917 0.636252 0.000000
0.360687 0.663183 0.000000
0.463257 0.690869 0.000000
0.553596 0.713617 0.000000
0.641269 0.735800 0.000000
0.714031 0.751493 0.000000
0.779499 0.765241 0.000000
0.824275 0.772887 0.000000
0.863763 0.778917 0.000000
0.894470 0.783399 0.000000
0.918404 0.786576 0.000000
0.940379 0.789458 0.000000
0.952529 0.791082 0.000000
0.963819 0.793083 0.000000
0.973422 0.794684 0.000000
0.979955 0.795570 0.000000
0.984923 0.796256 0.000000
0.989407 0.797001 0.000000
0.993529 0.797570 0.000000
0.996715 0.797818 0.000000
0.998940 0.798517 0.000000
1.001112 0.799521 0.000000
1.002932 0.800022 0.000000
1.004959 0.800972 0.000000
1.006721 0.801564 0.000000
1.007953 0.802257 0.000000
0.000000 0.523139 0.108678
0.000000 0.526315 0.000000
0.000000 0.535296 0.000000
0.000000 0.548909 0.000000
0.000000 0.572955 0.000000
0.000000 0.600311 0.000000
0.161164 0.628521 0.000000
0.302295 0.656821 0.000000
0.409225 0.683604 0.000000
0.502954 0.708624 0.000000
0.591981 0.730763 0.000000
0.673684 0.750665 0.000000
0.740981 0.764174 0.000000
0.799840 0.776142 0.000000
0.839197 0.781907 0.000000
0.877253 0.788043 0.000000
0.904850 0.791577 0.000000
0.926763 0.794345 0.000000
0.947341 0.796981 0.000000
0.958124 0.798428 0.000000
0.967962 0.800008 0.000000
0.977300 0.801482 0.000000
0.983179 0.801871 0.000000
0.988005 0.802671 0.000000
0.992093 0.803013 0.000000
0.996342 0.803712 0.000000
0.999537 0.804267 0.000000
1.001357 0.804419 0.000000
1.002994 0.804849 0.000000
1.005012 0.805452 0.000000
1.006524 0.805848 0.000000
1.008161 0.806580 0.000000
1.009674 0.807068 0.000000
0.000000 0.530104 0.106236
0.000000 0.533310 0.000000
0.000000 0.547335 0.000000
0.000000 0.564209 0.000000
0.000000 0.591638 0.000000
0.000000 0.619282 0.000000
0.240731 0.647447 0.000000
0.354914 0.673712 0.000000
0.452638 0.699449 0.000000
0.541028 0.722634 0.000000
0.626142 0.744295 0.000000
0.700303 0.761536 0.000000
0.764990 0.775103 0.000000
0.815741 0.784820 0.000000
0.853734 0.790567 0.000000
0.889796 0.796043 0.000000
0.913775 0.799054 0.000000
0.934773 0.801343 0.000000
0.952423 0.803498 0.000000
0.962442 0.804731 0.000000
0.971965 0.805878 0.000000
0.980753 0.807246 0.000000
0.986570 0.808021 0.000000
0.990674 0.808011 0.000000
0.995006 0.808776 0.000000
0.998644 0.809005 0.000000
1.001694 0.809529 0.000000
1.003467 0.809607 0.000000
1.005089 0.810008 0.000000
1.006691 0.810410 0.000000
1.008310 0.810788 0.000000
1.009664 0.811149 0.000000
1.011191 0.811578 0.000000
0.000000 0.536384 0.102485
0.000000 0.542540 0.000000
0.000000 0.558303 0.000000
0.000000 0.580782 0.000000
0.000000 0.608671 0.000000
0.142038 0.635938 0.000000
0.296067 0.663695 0.000000
0.400929 0.689585 0.000000
0.492042 0.714191 0.000000
0.578466 0.735853 0.000000
0.657221 0.756094 0.000000
0.726424 0.770677 0.000000
0.787587 0.783178 0.000000
0.830154 0.790720 0.000000
0.867089 0.796720 0.000000
0.898954 0.801626 0.000000
0.921036 0.804399 0.000000
0.943234 0.807369 0.000000
0.957769 0.809175 0.000000
0.967084 0.810459 0.000000
0.976003 0.811452 0.000000
0.984043 0.812615 0.000000
0.988833 0.812833 0.000000
0.993343 0.813332 0.000000
0.997093 0.813636 0.000000
1.000854 0.813996 0.000000
1.003772 0.814180 0.000000
1.005483 0.814497 0.000000
1.007046 0.814786 0.000000
1.008532 0.814858 0.000000
1.009960 0.815159 0.000000
1.011391 0.815430 0.000000
1.012599 0.815754 0.000000
0.000000 0.543155 0.098575
0.000000 0.552344 0.000000
0.000000 0.568577 0.000000
0.000000 0.597073 0.000000
0.000000 0.625204 0.000000
0.225494 0.652920 0.000000
0.345555 0.679134 0.000000
0.444007 0.704442 0.000000
0.529795 0.727196 0.000000
0.611884 0.747648 0.000000
0.686437 0.765902 0.000000
0.749157 0.778694 0.000000
0.805954 0.789824 0.000000
0.844579 0.796258 0.000000
0.880032 0.802029 0.000000
0.907334 0.805898 0.000000
0.928655 0.808510 0.000000
0.949907 0.811107 0.000000
0.961670 0.812700 0.000000
0.970367 0.813667 0.000000
0.978796 0.814800 0.000000
0.986619 0.816031 0.000000
0.991151 0.816435 0.000000
0.995254 0.816982 0.000000
0.999004 0.817420 0.000000
1.002701 0.817908 0.000000
1.005664 0.818256 0.000000
1.007286 0.818385 0.000000
1.008685 0.818609 0.000000
