transforms/JF01_fogged_color_pull_fpe_r709.cube
#  JF_01_FPE_r709.cube
LUT_3D_SIZE 5
0.000000 0.000000 0.000000
0.036475 0.023093 0.013212
0.408718 0.038695 0.000000
0.633598 0.000000 0.000000
0.698286 0.000000 0.000000
0.000000 0.072964 0.043620
0.093019 0.097728 0.041840
0.512182 0.168751 0.000000
0.754461 0.202373 0.000000
0.829186 0.310502 0.000000
0.000000 0.392599 0.131020
0.084233 0.462808 0.000000
0.794698 0.637208 0.000000
0.950093 0.688325 0.000000
0.980423 0.720978 0.000000
0.000000 0.530104 0.106236
0.452638 0.699449 0.000000
0.913775 0.799054 0.000000
0.995006 0.808776 0.000000
1.011191 0.811578 0.000000
0.000000 0.576287 0.114223
0.711858 0.781391 0.000000
0.966576 0.825217 0.000000
1.007659 0.830101 0.000000
1.019977 0.830753 0.000000
0.017194 0.017469 0.029221
0.051587 0.036043 0.053505
0.443863 0.000000 0.073359
0.662495 0.000000 0.154043
0.726006 0.000000 0.356458
0.000000 0.085300 0.101400
0.102802 0.116872 0.122826
0.554314 0.187360 0.138585
0.791529 0.227041 0.190358
0.855861 0.342629 0.319081
0.000000 0.481427 0.319824
0.000000 0.527533 0.242550
0.808076 0.688342 0.229968
0.965216 0.737690 0.297358
0.988738 0.780497 0.398180
0.000000 0.683757 0.614006
0.288825 0.773994 0.459851
0.880234 0.870124 0.449489
0.987411 0.886362 0.477017
1.005035 0.897133 0.531713
0.000000 0.741172 0.771926
0.554490 0.870691 0.641078
0.910588 0.921654 0.625255
0.983585 0.930816 0.636699
0.999921 0.936577 0.666965
0.000000 0.000000 0.230924
0.092357 0.000000 0.358670
0.493398 0.000000 0.473801
0.695021 0.000000 0.561045
0.751951 0.000000 0.658335
0.000000 0.128222 0.422380
0.000000 0.141834 0.467594
0.592631 0.225883 0.577728
0.823938 0.289525 0.658885
0.878653 0.412487 0.747471
0.000000 0.583651 0.694645
0.000000 0.641024 0.707383
0.786322 0.781498 0.768507
0.950089 0.814636 0.791375
0.976065 0.845170 0.820048
0.000000 0.712340 0.805257
0.000000 0.832982 0.804997
0.843471 0.927085 0.830933
0.965178 0.939656 0.834493
0.987176 0.944175 0.848847
0.000000 0.741146 0.841572
0.492377 0.902319 0.861902
0.884437 0.955696 0.871346
0.967177 0.964258 0.874065
0.986285 0.967093 0.881760
0.151844 0.000000 0.498334
0.199976 0.000000 0.528017
0.548125 0.000000 0.628651
0.717408 0.000000 0.671511
0.768327 0.000000 0.727222
0.000000 0.153866 0.581459
0.000000 0.176596 0.650840
0.631833 0.272055 0.772613
0.844556 0.347666 0.826114
0.890666 0.458573 0.869088
0.000000 0.605757 0.777541
0.000000 0.681783 0.838415
0.780621 0.811704 0.914272
0.945514 0.839894 0.927223
0.972186 0.862599 0.934014
0.000000 0.712404 0.834418
0.000000 0.848498 0.892845
0.830781 0.938316 0.930582
0.958353 0.952751 0.936003
0.981976 0.955236 0.939058
0.000000 0.739552 0.854369
0.484536 0.910576 0.920172
0.875774 0.963248 0.939624
0.961861 0.972849 0.943181
0.981970 0.975016 0.944846
0.134199 0.000000 0.533550
0.213698 0.000000 0.573985
0.605937 0.000000 0.668744
0.736637 0.000000 0.705775
0.783651 0.000000 0.755384
0.000000 0.206445 0.623643
0.000000 0.236020 0.709870
0.673165 0.332435 0.826189
0.860295 0.400217 0.867970
0.901108 0.501415 0.900338
0.000000 0.624422 0.797702
0.000000 0.709515 0.870355
0.790706 0.829464 0.947580
0.946161 0.854677 0.961077
0.971332 0.873683 0.965469
0.000000 0.714801 0.841361
0.000000 0.857313 0.917068
0.834624 0.943347 0.961075
0.956540 0.956834 0.967721
0.980155 0.958924 0.967875
0.000000 0.739949 0.858450
0.497816 0.915860 0.941517
0.875206 0.966391 0.963470
0.959069 0.975500 0.967442
0.980335 0.976916 0.968356
