transforms/JF02_cool_color_push_fpe_r709.cube
#  JF_02_FPE_r709.cube
LUT_3D_SIZE 5
0.000000 0.000000 0.000000
0.220012 0.061002 0.000000
0.605100 0.000000 0.000000
0.624104 0.000000 0.000000
0.624104 0.000000 0.000000
0.000000 0.118354 0.052704
0.081400 0.114311 0.038465
0.642405 0.113563 0.000000
0.697737 0.000000 0.000000
0.670973 0.000000 0.000000
0.000000 0.427813 0.128933
0.000000 0.399590 0.120207
0.594421 0.535204 0.000000
0.901007 0.527587 0.000000
0.867649 0.433118 0.000000
0.000000 0.512524 0.120765
0.000000 0.508996 0.120856
0.117990 0.622740 0.000000
0.982769 0.812268 0.000000
0.999274 0.798488 0.000000
0.000000 0.514179 0.120657
0.000000 0.514179 0.120657
0.000000 0.531465 0.000000
0.887869 0.818771 0.000000
1.019642 0.840128 0.000000
0.057938 0.000000 0.329597
0.228679 0.000000 0.343379
0.655876 0.000000 0.317199
0.670882 0.000000 0.244283
0.665450 0.000000 0.165115
0.000000 0.142864 0.208401
0.046294 0.107420 0.151388
0.647778 0.071062 0.065641
0.714307 0.000000 0.000000
0.679951 0.000000 0.000000
0.000000 0.438442 0.174333
0.000000 0.391312 0.145955
0.538014 0.496216 0.000000
0.884705 0.482906 0.000000
0.849199 0.388026 0.000000
0.000000 0.510580 0.120874
0.000000 0.505977 0.120536
0.000000 0.592901 0.000000
0.971282 0.802037 0.000000
0.994491 0.786006 0.000000
0.000000 0.514179 0.120657
0.000000 0.514179 0.120657
0.000000 0.527921 0.000000
0.850332 0.811573 0.000000
1.019642 0.840128 0.000000
0.177861 0.000000 0.492668
0.276385 0.000000 0.566383
0.694053 0.000000 0.659082
0.715220 0.000000 0.654871
0.711072 0.000000 0.639566
0.000000 0.170193 0.588561
0.000000 0.087244 0.579067
0.663924 0.000000 0.675683
0.756636 0.000000 0.637978
0.726213 0.000000 0.568418
0.000000 0.580847 0.711734
0.000000 0.533276 0.664710
0.451795 0.583379 0.645455
0.919893 0.555134 0.595485
0.888869 0.433108 0.472261
0.000000 0.677806 0.636546
0.000000 0.655438 0.566147
0.000000 0.667164 0.388613
0.988783 0.845888 0.105275
1.020590 0.809651 0.000000
0.000000 0.605884 0.395088
0.000000 0.581255 0.323772
0.000000 0.567952 0.207383
0.831185 0.812323 0.000000
1.029188 0.844433 0.000000
0.177861 0.000000 0.492668
0.265383 0.000000 0.561878
0.692039 0.000000 0.671260
0.722965 0.000000 0.679301
0.722965 0.000000 0.679301
0.000000 0.158868 0.605447
0.000000 0.059368 0.606270
0.644481 0.000000 0.740064
0.769519 0.000000 0.738027
0.744120 0.000000 0.705257
0.000000 0.570838 0.778979
0.000000 0.521845 0.758641
0.347994 0.598477 0.879157
0.919412 0.593223 0.923953
0.900600 0.482987 0.890155
0.000000 0.697311 0.829266
0.000000 0.692670 0.823492
0.000000 0.762050 0.861087
0.937683 0.949766 0.942115
0.993504 0.926910 0.917349
0.000000 0.702115 0.813419
0.000000 0.702188 0.801995
0.000000 0.724559 0.799905
0.728453 0.938967 0.831878
1.005670 0.973127 0.801329
0.177861 0.000000 0.492668
0.253647 0.000000 0.553957
0.684663 0.000000 0.669743
0.722965 0.000000 0.679301
0.722965 0.000000 0.679301
0.000000 0.121563 0.595924
0.000000 0.009931 0.590903
0.609366 0.000000 0.723606
0.760217 0.000000 0.725850
0.735232 0.000000 0.694357
0.000000 0.551757 0.771104
0.000000 0.498234 0.748744
0.269182 0.552946 0.861676
0.908999 0.557848 0.919683
0.895216 0.459843 0.896186
0.000000 0.695808 0.832633
0.000000 0.691161 0.830602
0.000000 0.748921 0.869509
0.913858 0.943427 0.985054
0.989107 0.927755 0.989215
0.000000 0.700808 0.834695
0.000000 0.700808 0.834695
0.000000 0.719320 0.846999
0.648894 0.947007 0.970173
0.999947 0.999930 0.999917
