transforms/JF02_cool_color_push_fpe_r709.cube
#  JF_02_FPE_r709.cube
LUT_3D_SIZE 33
0.000000 0.000000 0.000000
0.000533 0.000413 0.000309
0.003086 0.001983 0.001391
0.009831 0.005328 0.003204
0.023331 0.012132 0.005100
0.047037 0.025414 0.000000
0.087977 0.038873 0.000000
0.138981 0.050333 0.000000
0.220012 0.061002 0.000000
0.291570 0.058006 0.000000
0.367814 0.037125 0.000000
0.438332 0.000000 0.000000
0.495314 0.000000 0.000000
0.539122 0.000000 0.000000
0.572438 0.000000 0.000000
0.592568 0.000000 0.000000
0.605100 0.000000 0.000000
0.614110 0.000000 0.000000
0.621920 0.000000 0.000000
0.624104 0.000000 0.000000
0.624104 0.000000 0.000000
0.624104 0.000000 0.000000
0.624104 0.000000 0.000000
0.624104 0.000000 0.000000
0.624104 0.000000 0.000000
0.624104 0.000000 0.000000
0.624104 0.000000 0.000000
0.624104 0.000000 0.000000
0.624104 0.000000 0.000000
0.624104 0.000000 0.000000
0.624104 0.000000 0.000000
0.624104 0.000000 0.000000
0.624104 0.000000 0.000000
0.000396 0.000412 0.000277
0.000381 0.000366 0.000246
0.002056 0.001636 0.001069
0.007221 0.004636 0.002802
0.018508 0.010428 0.005054
0.038487 0.022178 0.005419
0.074459 0.035776 0.000000
0.123545 0.048598 0.000000
0.191783 0.060110 0.000000
0.257549 0.060494 0.000000
0.332957 0.051551 0.000000
0.411117 0.000000 0.000000
0.473327 0.000000 0.000000
0.521334 0.000000 0.000000
0.558328 0.000000 0.000000
0.583537 0.000000 0.000000
0.599603 0.000000 0.000000
0.610444 0.000000 0.000000
0.618582 0.000000 0.000000
0.624104 0.000000 0.000000
0.624104 0.000000 0.000000
0.624104 0.000000 0.000000
0.624104 0.000000 0.000000
0.624104 0.000000 0.000000
0.624104 0.000000 0.000000
0.624104 0.000000 0.000000
0.624104 0.000000 0.000000
0.624104 0.000000 0.000000
0.624104 0.000000 0.000000
0.624104 0.000000 0.000000
0.624104 0.000000 0.000000
0.624104 0.000000 0.000000
0.624104 0.000000 0.000000
0.001748 0.002337 0.001333
0.001646 0.002126 0.001239
0.001808 0.001957 0.001131
0.005358 0.004357 0.002393
0.014451 0.009950 0.004683
0.031957 0.020748 0.006275
0.063272 0.036847 0.000000
0.111722 0.049384 0.000000
0.172248 0.061851 0.000000
0.234949 0.067132 0.000000
0.307434 0.061869 0.000000
0.384052 0.036281 0.000000
0.450757 0.000000 0.000000
0.503909 0.000000 0.000000
0.543919 0.000000 0.000000
0.575212 0.000000 0.000000
0.594325 0.000000 0.000000
0.606933 0.000000 0.000000
0.615430 0.000000 0.000000
0.622948 0.000000 0.000000
0.624104 0.000000 0.000000
0.624104 0.000000 0.000000
0.624104 0.000000 0.000000
0.624104 0.000000 0.000000
0.624104 0.000000 0.000000
0.624104 0.000000 0.000000
0.624104 0.000000 0.000000
0.624104 0.000000 0.000000
0.624104 0.000000 0.000000
0.624104 0.000000 0.000000
0.624104 0.000000 0.000000
0.624104 0.000000 0.000000
0.624104 0.000000 0.000000
0.003749 0.007035 0.003413
0.003647 0.006597 0.003248
0.003977 0.006218 0.003058
0.004952 0.005861 0.002789
0.011429 0.010187 0.004484
0.025165 0.020039 0.007395
0.052811 0.037300 0.006881
0.099301 0.051129 0.000000
0.160718 0.064677 0.000000
0.216542 0.071628 0.000000
0.287561 0.073437 0.000000
0.365430 0.059439 0.000000
0.442024 0.000000 0.000000
0.501657 0.000000 0.000000
0.545880 0.000000 0.000000
0.577610 0.000000 0.000000
0.597760 0.000000 0.000000
0.609499 0.000000 0.000000
0.616860 0.000000 0.000000
0.622095 0.000000 0.000000
0.624104 0.000000 0.000000
0.624104 0.000000 0.000000
0.624104 0.000000 0.000000
0.624104 0.000000 0.000000
0.624104 0.000000 0.000000
0.624104 0.000000 0.000000
0.624104 0.000000 0.000000
0.624104 0.000000 0.000000
0.624104 0.000000 0.000000
0.624104 0.000000 0.000000
0.624104 0.000000 0.000000
0.624104 0.000000 0.000000
0.624104 0.000000 0.000000
0.002965 0.016416 0.007584
0.003847 0.015474 0.007185
0.004599 0.014580 0.006791
0.006823 0.013841 0.006306
0.011100 0.013247 0.005656
0.020343 0.020085 0.007777
0.043144 0.035813 0.010600
0.085331 0.053780 0.000000
0.145604 0.067828 0.000000
0.198017 0.076074 0.000000
0.264029 0.085683 0.000000
0.346413 0.078467 0.000000
0.428010 0.057781 0.000000
0.493908 0.000000 0.000000
0.545131 0.000000 0.000000
0.582015 0.000000 0.000000
0.606388 0.000000 0.000000
0.620924 0.000000 0.000000
0.629488 0.000000 0.000000
0.635072 0.000000 0.000000
0.638971 0.000000 0.000000
0.636434 0.000000 0.000000
0.633888 0.000000 0.000000
0.630989 0.000000 0.000000
0.628452 0.000000 0.000000
0.625916 0.000000 0.000000
0.624104 0.000000 0.000000
0.624104 0.000000 0.000000
0.624104 0.000000 0.000000
0.624104 0.000000 0.000000
0.624104 0.000000 0.000000
0.624104 0.000000 0.000000
0.624104 0.000000 0.000000
0.000000 0.032075 0.015220
0.000000 0.030598 0.014372
0.000000 0.029126 0.013527
0.000000 0.027578 0.012429
0.013559 0.026263 0.011441
0.020609 0.025301 0.010587
0.033959 0.034801 0.013440
0.072043 0.057328 0.016370
0.130391 0.074248 0.000000
0.181270 0.083306 0.000000
0.246559 0.093543 0.000000
0.325487 0.094730 0.000000
0.410973 0.083529 0.000000
0.486230 0.054840 0.000000
0.545337 0.000000 0.000000
0.587271 0.000000 0.000000
0.616818 0.000000 0.000000
0.634388 0.000000 0.000000
0.643179 0.000000 0.000000
0.648936 0.000000 0.000000
0.652899 0.000000 0.000000
0.652299 0.000000 0.000000
0.648978 0.000000 0.000000
0.646220 0.000000 0.000000
0.643682 0.000000 0.000000
0.641146 0.000000 0.000000
0.638609 0.000000 0.000000
0.636073 0.000000 0.000000
0.633164 0.000000 0.000000
0.630627 0.000000 0.000000
0.628091 0.000000 0.000000
0.625192 0.000000 0.000000
0.624104 0.000000 0.000000
0.000000 0.055913 0.028319
0.000000 0.053807 0.027091
0.000000 0.051707 0.025866
0.000000 0.049184 0.024198
0.000000 0.046960 0.022328
0.024640 0.045420 0.020829
0.032573 0.045086 0.019217
0.059385 0.059454 0.021304
0.115358 0.083183 0.017715
0.166079 0.091967 0.000000
0.226432 0.102349 0.000000
0.303715 0.111521 0.000000
0.392311 0.106423 0.000000
0.478364 0.092402 0.000000
0.544017 0.060193 0.000000
0.590545 0.000000 0.000000
0.624101 0.000000 0.000000
0.645713 0.000000 0.000000
0.657418 0.000000 0.000000
0.663393 0.000000 0.000000
0.667382 0.000000 0.000000
0.669313 0.000000 0.000000
0.666410 0.000000 0.000000
0.663505 0.000000 0.000000
0.660602 0.000000 0.000000
0.657696 0.000000 0.000000
0.654790 0.000000 0.000000
0.651469 0.000000 0.000000
0.648562 0.000000 0.000000
0.645857 0.000000 0.000000
0.643320 0.000000 0.000000
0.640421 0.000000 0.000000
0.637884 0.000000 0.000000
0.000000 0.083048 0.040174
0.000000 0.081407 0.039567
0.000000 0.078954 0.038651
0.000000 0.076917 0.037885
0.000000 0.074654 0.036128
0.000000 0.073583 0.034996
0.035812 0.073644 0.033436
0.054168 0.076271 0.030779
0.098159 0.096823 0.030429
0.150270 0.107868 0.007394
0.208362 0.119054 0.000000
0.285021 0.129176 0.000000
0.373217 0.130254 0.000000
0.463355 0.123774 0.000000
0.538355 0.106908 0.000000
0.593095 0.079357 0.000000
0.632187 0.012869 0.000000
0.658762 0.000000 0.000000
0.674296 0.000000 0.000000
0.680797 0.000000 0.000000
0.684884 0.000000 0.000000
0.687573 0.000000 0.000000
0.685108 0.000000 0.000000
0.681832 0.000000 0.000000
0.678557 0.000000 0.000000
0.675280 0.000000 0.000000
0.671802 0.000000 0.000000
0.668899 0.000000 0.000000
0.665995 0.000000 0.000000
0.663091 0.000000 0.000000
0.659771 0.000000 0.000000
0.656866 0.000000 0.000000
0.653960 0.000000 0.000000
0.000000 0.118354 0.052704
0.000000 0.115226 0.052178
0.000000 0.112106 0.051644
0.000000 0.108369 0.050994
0.000000 0.105821 0.049490
0.000000 0.104327 0.047441
0.000000 0.105051 0.046341
0.036206 0.108150 0.043417
0.081400 0.114311 0.038465
0.134366 0.125737 0.026553
0.193327 0.137009 0.000000
0.265653 0.148215 0.000000
0.352861 0.154245 0.000000
0.448297 0.152357 0.000000
0.533778 0.145955 0.000000
0.597611 0.131330 0.000000
0.642405 0.113563 0.000000
0.671996 0.095352 0.000000
0.690451 0.072943 0.000000
0.699190 0.051865 0.000000
0.703591 0.000000 0.000000
0.705978 0.000000 0.000000
0.704914 0.000000 0.000000
0.701473 0.000000 0.000000
0.697737 0.000000 0.000000
0.694467 0.000000 0.000000
0.691195 0.000000 0.000000
0.687914 0.000000 0.000000
0.684640 0.000000 0.000000
0.680897 0.000000 0.000000
0.677620 0.000000 0.000000
0.674343 0.000000 0.000000
0.670973 0.000000 0.000000
0.000000 0.144890 0.056780
0.000000 0.141708 0.056325
0.000000 0.138531 0.055863
0.000000 0.134727 0.055301
0.000000 0.130930 0.054729
0.000000 0.127989 0.051749
0.000000 0.127372 0.049491
0.000000 0.128935 0.047644
0.055196 0.134852 0.043830
0.113247 0.144613 0.035418
0.175611 0.157054 0.000000
0.243355 0.169395 0.000000
0.331146 0.182907 0.000000
0.429542 0.186238 0.000000
0.523269 0.184567 0.000000
0.595047 0.175277 0.000000
0.647570 0.163347 0.000000
0.684351 0.153003 0.000000
0.706487 0.142126 0.000000
0.718403 0.131902 0.000000
0.724435 0.124143 0.000000
0.727507 0.113172 0.000000
0.727327 0.102363 0.000000
0.723515 0.088357 0.000000
0.719688 0.071433 0.000000
0.715865 0.047128 0.000000
0.712037 0.000000 0.000000
0.708203 0.000000 0.000000
0.703818 0.000000 0.000000
0.700539 0.000000 0.000000
0.697270 0.000000 0.000000
0.693531 0.000000 0.000000
0.690261 0.000000 0.000000
0.000000 0.179836 0.069126
0.000000 0.176256 0.067773
0.000000 0.170899 0.065739
0.000000 0.166443 0.064047
0.000000 0.161109 0.062022
0.000000 0.156340 0.057728
0.000000 0.151676 0.050998
0.000000 0.151572 0.046587
0.000000 0.155672 0.043122
0.083079 0.164662 0.034235
0.151673 0.180933 0.000000
0.223834 0.196631 0.000000
0.309500 0.210589 0.000000
0.406932 0.220337 0.000000
0.508470 0.222808 0.000000
0.591801 0.218232 0.000000
0.652863 0.208407 0.000000
0.696422 0.201318 0.000000
0.724463 0.195293 0.000000
0.739755 0.188563 0.000000
0.745744 0.183590 0.000000
0.749477 0.176127 0.000000
0.750506 0.168658 0.000000
0.747511 0.159099 0.000000
0.743130 0.147988 0.000000
0.738743 0.136253 0.000000
0.734392 0.124323 0.000000
0.730590 0.112987 0.000000
0.726783 0.100486 0.000000
0.722971 0.086157 0.000000
0.718596 0.065633 0.000000
0.714772 0.036115 0.000000
0.710942 0.000000 0.000000
0.000000 0.220800 0.086440
0.000000 0.215077 0.083562
0.000000 0.209366 0.080690
0.000000 0.203231 0.077945
0.000000 0.197813 0.075903
0.000000 0.192641 0.073160
0.000000 0.188775 0.065880
0.000000 0.184953 0.049916
0.000000 0.185362 0.037795
0.000000 0.193552 0.021495
0.121528 0.206888 0.000000
0.198356 0.224790 0.000000
0.285098 0.241926 0.000000
0.383156 0.254895 0.000000
0.488193 0.263408 0.000000
0.589680 0.267477 0.000000
0.657710 0.260810 0.000000
0.705925 0.254721 0.000000
0.739457 0.249139 0.000000
0.759033 0.243241 0.000000
0.768320 0.237814 0.000000
0.772189 0.232133 0.000000
0.774304 0.225627 0.000000
0.773616 0.218502 0.000000
0.768665 0.207825 0.000000
0.764325 0.198291 0.000000
0.759977 0.188541 0.000000
0.755627 0.178544 0.000000
0.751260 0.168239 0.000000
0.746261 0.155979 0.000000
0.741877 0.144707 0.000000
0.737648 0.133376 0.000000
0.733306 0.121179 0.000000
0.000000 0.269301 0.110787
0.000000 0.263489 0.107872
0.000000 0.256527 0.104380
0.000000 0.250737 0.101475
0.000000 0.243803 0.097994
0.000000 0.236883 0.094520
0.000000 0.231589 0.086581
0.000000 0.224668 0.067697
0.000000 0.220982 0.038090
0.000000 0.224727 0.000000
0.051681 0.238934 0.000000
0.161265 0.256861 0.000000
0.253993 0.278459 0.000000
0.357843 0.297123 0.000000
0.466950 0.309465 0.000000
0.573460 0.315889 0.000000
0.654692 0.313982 0.000000
0.712150 0.308127 0.000000
0.752415 0.302468 0.000000
0.778609 0.297140 0.000000
0.791533 0.292565 0.000000
0.796397 0.288588 0.000000
0.799235 0.282746 0.000000
0.799985 0.276641 0.000000
0.795743 0.266940 0.000000
0.791128 0.256888 0.000000
0.786502 0.246725 0.000000
0.781204 0.234949 0.000000
0.776706 0.225075 0.000000
0.772380 0.215853 0.000000
0.767426 0.205120 0.000000
0.763084 0.195529 0.000000
0.758733 0.185710 0.000000
0.000000 0.320210 0.125969
0.000000 0.313900 0.124435
0.000000 0.307560 0.122889
0.000000 0.299965 0.121029
0.000000 0.292386 0.119163
0.000000 0.284822 0.117294
0.000000 0.278384 0.112609
0.000000 0.273462 0.098870
0.000000 0.264848 0.067981
0.000000 0.261122 0.000000
0.000000 0.273392 0.000000
0.106309 0.293586 0.000000
0.220588 0.316131 0.000000
0.328115 0.337758 0.000000
0.442070 0.355120 0.000000
0.552697 0.367262 0.000000
0.651558 0.371432 0.000000
0.721250 0.368896 0.000000
0.766677 0.364803 0.000000
0.798415 0.360506 0.000000
0.814457 0.355626 0.000000
0.821437 0.350274 0.000000
0.824498 0.343806 0.000000
0.825794 0.336299 0.000000
0.822651 0.325026 0.000000
0.817986 0.314608 0.000000
0.813428 0.304917 0.000000
0.808859 0.295169 0.000000
0.804280 0.285356 0.000000
0.799033 0.274061 0.000000
0.794426 0.264078 0.000000
0.789808 0.253997 0.000000
0.784517 0.242331 0.000000
0.000000 0.367416 0.134467
0.000000 0.363384 0.134797
0.000000 0.359357 0.135113
0.000000 0.352346 0.133697
0.000000 0.344908 0.131920
0.000000 0.337484 0.130138
0.000000 0.330072 0.128355
0.000000 0.323674 0.118798
0.000000 0.315670 0.096880
0.000000 0.306360 0.043898
0.000000 0.310353 0.000000
0.000000 0.328325 0.000000
0.170374 0.353002 0.000000
0.290231 0.380265 0.000000
0.409455 0.403212 0.000000
0.530047 0.419880 0.000000
0.640630 0.429537 0.000000
0.720559 0.430566 0.000000
0.774935 0.427511 0.000000
0.811534 0.423157 0.000000
0.834495 0.418783 0.000000
0.845497 0.413700 0.000000
0.850021 0.408096 0.000000
0.851548 0.401348 0.000000
0.851217 0.392823 0.000000
0.846501 0.381624 0.000000
0.841769 0.370382 0.000000
0.836333 0.357502 0.000000
0.831558 0.346185 0.000000
0.826769 0.334818 0.000000
0.821963 0.323390 0.000000
0.816685 0.311845 0.000000
0.812124 0.302139 0.000000
0.000000 0.400595 0.131101
0.000000 0.396538 0.131576
0.000000 0.392483 0.132032
0.000000 0.387621 0.132555
0.000000 0.382764 0.133053
0.000000 0.377912 0.133526
0.000000 0.373064 0.133974
0.000000 0.369351 0.129726
0.000000 0.364324 0.117122
0.000000 0.356658 0.086747
0.000000 0.348190 0.000000
0.000000 0.360998 0.000000
0.060101 0.388087 0.000000
0.244772 0.418581 0.000000
0.372846 0.445256 0.000000
0.500489 0.469183 0.000000
0.620529 0.485348 0.000000
0.715635 0.492793 0.000000
0.782013 0.493301 0.000000
0.825932 0.490177 0.000000
0.853778 0.486076 0.000000
0.868640 0.481922 0.000000
0.874963 0.476219 0.000000
0.876882 0.469118 0.000000
0.876432 0.459159 0.000000
0.873187 0.448122 0.000000
0.868882 0.436455 0.000000
0.864559 0.424766 0.000000
0.859935 0.413547 0.000000
0.854577 0.400804 0.000000
0.849872 0.389626 0.000000
0.845151 0.378418 0.000000
0.839732 0.365559 0.000000
0.000000 0.427813 0.128933
0.000000 0.425401 0.129080
0.000000 0.421783 0.129289
0.000000 0.418772 0.129456
0.000000 0.415160 0.129645
0.000000 0.411550 0.129824
0.000000 0.406282 0.130403
0.000000 0.401780 0.129755
0.000000 0.399590 0.120207
0.000000 0.393784 0.097338
0.000000 0.387759 0.000000
0.000000 0.393929 0.000000
0.000000 0.417192 0.000000
0.182215 0.451472 0.000000
0.328242 0.484002 0.000000
0.463115 0.512283 0.000000
0.594421 0.535204 0.000000
0.707624 0.549966 0.000000
0.785048 0.553479 0.000000
0.834801 0.552639 0.000000
0.867179 0.549735 0.000000
0.886540 0.545961 0.000000
0.895849 0.540965 0.000000
0.900041 0.534811 0.000000
0.901007 0.527587 0.000000
0.898606 0.517838 0.000000
0.894423 0.506243 0.000000
0.889620 0.492981 0.000000
0.885398 0.481366 0.000000
0.881131 0.469745 0.000000
0.876250 0.456444 0.000000
0.871959 0.444790 0.000000
0.867649 0.433118 0.000000
0.000000 0.452071 0.126928
0.000000 0.449845 0.127284
0.000000 0.447139 0.127570
0.000000 0.443511 0.127852
0.000000 0.439885 0.128121
0.000000 0.436260 0.128378
0.000000 0.432639 0.128625
0.000000 0.429019 0.128859
0.000000 0.426984 0.120656
0.000000 0.425741 0.099824
0.000000 0.422689 0.043657
0.000000 0.425218 0.000000
0.000000 0.441973 0.000000
0.027342 0.476550 0.000000
0.273337 0.513011 0.000000
0.419784 0.547390 0.000000
0.560127 0.576208 0.000000
0.683858 0.596757 0.000000
0.774494 0.606359 0.000000
0.836563 0.609529 0.000000
0.876906 0.609942 0.000000
0.902266 0.608790 0.000000
0.914975 0.603843 0.000000
0.919436 0.596092 0.000000
0.922022 0.589574 0.000000
0.921865 0.582050 0.000000
0.918020 0.571332 0.000000
0.914094 0.560471 0.000000
0.909587 0.548056 0.000000
0.905627 0.537190 0.000000
0.901581 0.526117 0.000000
0.897412 0.514526 0.000000
0.892625 0.501271 0.000000
0.000000 0.470360 0.123741
0.000000 0.468573 0.124075
0.000000 0.465895 0.124562
0.000000 0.463663 0.124961
0.000000 0.460986 0.125433
0.000000 0.458310 0.125893
0.000000 0.455190 0.126418
0.000000 0.452517 0.126856
0.000000 0.450865 0.122781
0.000000 0.450218 0.105671
0.000000 0.449865 0.065494
0.000000 0.447021 0.000000
0.000000 0.459295 0.000000
0.000000 0.493487 0.000000
0.205284 0.533081 0.000000
0.371624 0.572524 0.000000
0.518047 0.607836 0.000000
0.653256 0.636094 0.000000
0.760109 0.652444 0.000000
0.833587 0.657444 0.000000
0.882601 0.658196 0.000000
0.913377 0.657716 0.000000
0.928948 0.655085 0.000000
0.936292 0.650114 0.000000
0.939784 0.645319 0.000000
0.941364 0.640048 0.000000
0.939426 0.631576 0.000000
0.936307 0.622645 0.000000
0.932584 0.612119 0.000000
0.928846 0.601594 0.000000
0.924556 0.589567 0.000000
0.920786 0.579042 0.000000
0.916900 0.568230 0.000000
0.000000 0.484027 0.120840
0.000000 0.482774 0.121140
0.000000 0.481520 0.121435
0.000000 0.480016 0.121788
0.000000 0.478514 0.122135
0.000000 0.476617 0.122540
0.000000 0.473935 0.123063
0.000000 0.470807 0.123658
0.000000 0.468127 0.124157
0.000000 0.467904 0.109737
0.000000 0.469065 0.075978
0.000000 0.469452 0.000000
0.000000 0.478402 0.000000
0.000000 0.504859 0.000000
0.074041 0.545731 0.000000
0.313004 0.589241 0.000000
0.472426 0.629021 0.000000
0.617755 0.662406 0.000000
0.740071 0.684711 0.000000
0.822547 0.693897 0.000000
0.879260 0.698532 0.000000
0.916915 0.699526 0.000000
0.938600 0.699824 0.000000
0.949801 0.697901 0.000000
0.955283 0.693702 0.000000
0.957023 0.688051 0.000000
0.956612 0.681371 0.000000
0.953370 0.671882 0.000000
0.950524 0.663580 0.000000
0.947654 0.655273 0.000000
0.944783 0.646978 0.000000
0.941490 0.637500 0.000000
0.938600 0.629208 0.000000
0.000000 0.493990 0.118543
0.000000 0.493057 0.118594
0.000000 0.491802 0.118916
0.000000 0.490296 0.119298
0.000000 0.488792 0.119674
0.000000 0.487287 0.120048
0.000000 0.485782 0.120416
0.000000 0.484278 0.120779
0.000000 0.482523 0.121198
0.000000 0.482742 0.112109
0.000000 0.484504 0.084853
0.000000 0.487382 0.000000
0.000000 0.491910 0.000000
0.000000 0.510265 0.000000
0.000000 0.549659 0.000000
0.243783 0.595632 0.000000
0.420471 0.640118 0.000000
0.572631 0.678580 0.000000
0.705253 0.707122 0.000000
0.803829 0.722861 0.000000
0.871432 0.730997 0.000000
0.917130 0.734766 0.000000
0.945333 0.734586 0.000000
0.959487 0.733305 0.000000
0.966142 0.729658 0.000000
0.969654 0.725571 0.000000
0.970383 0.720834 0.000000
0.968527 0.715310 0.000000
0.966447 0.709645 0.000000
0.964067 0.703172 0.000000
0.961452 0.695610 0.000000
0.958632 0.687303 0.000000
0.955398 0.677811 0.000000
0.000000 0.499873 0.119652
0.000000 0.499298 0.119543
0.000000 0.498436 0.119378
0.000000 0.497719 0.119243
0.000000 0.496858 0.119081
0.000000 0.495997 0.118920
0.000000 0.494993 0.118733
0.000000 0.494132 0.118572
0.000000 0.493057 0.118594
0.000000 0.491840 0.116318
0.000000 0.493519 0.097837
0.000000 0.496456 0.027362
0.000000 0.500818 0.000000
0.000000 0.517494 0.000000
0.000000 0.551427 0.000000
0.152500 0.596593 0.000000
0.361419 0.643962 0.000000
0.523256 0.688000 0.000000
0.666378 0.722326 0.000000
0.782136 0.744141 0.000000
0.861848 0.753745 0.000000
0.913679 0.758943 0.000000
0.947443 0.760981 0.000000
0.965209 0.761103 0.000000
0.974207 0.760813 0.000000
0.979499 0.758496 0.000000
0.981555 0.754080 0.000000
0.980629 0.748541 0.000000
0.978573 0.742867 0.000000
0.976515 0.737195 0.000000
0.974157 0.730712 0.000000
0.972083 0.725025 0.000000
0.970010 0.719357 0.000000
0.000000 0.505116 0.120447
0.000000 0.504578 0.120391
0.000000 0.504039 0.120333
0.000000 0.503394 0.120266
0.000000 0.502747 0.120198
0.000000 0.501885 0.120033
0.000000 0.501023 0.119870
0.000000 0.500017 0.119680
0.000000 0.499155 0.119515
0.000000 0.498292 0.119350
0.000000 0.500071 0.105150
0.000000 0.503735 0.058248
0.000000 0.508921 0.000000
0.000000 0.521515 0.000000
0.000000 0.549529 0.000000
0.000000 0.591768 0.000000
0.295698 0.640103 0.000000
0.470170 0.687452 0.000000
0.622010 0.726690 0.000000
0.749659 0.754990 0.000000
0.841111 0.770446 0.000000
0.902080 0.778030 0.000000
0.943367 0.782356 0.000000
0.968259 0.784697 0.000000
0.979986 0.783898 0.000000
0.985761 0.782163 0.000000
0.989603 0.778920 0.000000
0.990472 0.775134 0.000000
0.988690 0.770314 0.000000
0.987119 0.766091 0.000000
0.985546 0.761868 0.000000
0.983746 0.757042 0.000000
0.982094 0.752595 0.000000
0.000000 0.509535 0.120913
0.000000 0.508996 0.120856
0.000000 0.508457 0.120799
0.000000 0.507810 0.120730
0.000000 0.507163 0.120662
0.000000 0.506516 0.120593
0.000000 0.505870 0.120526
0.000000 0.505224 0.120458
0.000000 0.504470 0.120379
0.000000 0.503824 0.120312
0.000000 0.504727 0.112551
0.000000 0.508605 0.081572
0.000000 0.513466 0.000000
0.000000 0.519381 0.000000
0.000000 0.543094 0.000000
0.000000 0.584357 0.000000
0.223654 0.632682 0.000000
0.413094 0.680875 0.000000
0.570970 0.724120 0.000000
0.711116 0.758824 0.000000
0.815719 0.780386 0.000000
0.887940 0.790686 0.000000
0.936599 0.795766 0.000000
0.967493 0.799137 0.000000
0.983280 0.799697 0.000000
0.990418 0.799163 0.000000
0.995266 0.798077 0.000000
0.997978 0.796530 0.000000
0.997565 0.794189 0.000000
0.996273 0.790840 0.000000
0.994713 0.786611 0.000000
0.993153 0.782382 0.000000
0.991367 0.777550 0.000000
0.000000 0.512524 0.120765
0.000000 0.512236 0.120784
0.000000 0.511805 0.120809
0.000000 0.511444 0.120829
0.000000 0.511012 0.120851
0.000000 0.510580 0.120874
0.000000 0.510076 0.120900
0.000000 0.509643 0.120923
0.000000 0.508996 0.120856
0.000000 0.508242 0.120775
0.000000 0.507666 0.120317
0.000000 0.511026 0.097163
0.000000 0.516681 0.000000
0.000000 0.522220 0.000000
0.000000 0.541523 0.000000
0.000000 0.577125 0.000000
0.117990 0.622740 0.000000
0.353009 0.671672 0.000000
0.521380 0.718000 0.000000
0.668097 0.756443 0.000000
0.789125 0.782945 0.000000
0.872036 0.797510 0.000000
0.926568 0.804612 0.000000
0.962315 0.809362 0.000000
0.982769 0.812268 0.000000
0.993184 0.812495 0.000000
0.998962 0.811937 0.000000
1.002503 0.810866 0.000000
1.003392 0.808883 0.000000
1.002401 0.806373 0.000000
1.001265 0.803504 0.000000
1.000270 0.800996 0.000000
0.999274 0.798488 0.000000
0.000000 0.514179 0.120657
0.000000 0.514179 0.120657
0.000000 0.514179 0.120657
0.000000 0.514179 0.120657
0.000000 0.513964 0.120670
0.000000 0.513532 0.120700
0.000000 0.513100 0.120727
0.000000 0.512596 0.120760
0.000000 0.512164 0.120789
0.000000 0.511660 0.120818
0.000000 0.511229 0.120840
0.000000 0.513324 0.105361
0.000000 0.518500 0.041961
0.000000 0.524986 0.000000
0.000000 0.537061 0.000000
0.000000 0.568042 0.000000
0.000000 0.612244 0.000000
0.293531 0.661529 0.000000
0.468373 0.708506 0.000000
0.619211 0.749743 0.000000
0.751623 0.780917 0.000000
0.845025 0.799414 0.000000
0.911372 0.810246 0.000000
0.954452 0.815987 0.000000
0.980573 0.819328 0.000000
0.994436 0.820677 0.000000
1.001245 0.820097 0.000000
1.005407 0.819920 0.000000
1.007952 0.819496 0.000000
1.007324 0.818178 0.000000
1.006697 0.816861 0.000000
1.005979 0.815356 0.000000
1.005092 0.813186 0.000000
0.000000 0.514179 0.120657
0.000000 0.514179 0.120657
0.000000 0.514179 0.120657
0.000000 0.514179 0.120657
0.000000 0.514179 0.120657
0.000000 0.514179 0.120657
0.000000 0.514179 0.120657
0.000000 0.514179 0.120657
0.000000 0.514179 0.120657
0.000000 0.514179 0.120657
0.000000 0.514179 0.120657
0.000000 0.514829 0.114037
0.000000 0.518733 0.078190
0.000000 0.524809 0.000000
0.000000 0.531326 0.000000
0.000000 0.560451 0.000000
0.000000 0.601500 0.000000
0.224854 0.649027 0.000000
0.413370 0.696922 0.000000
0.568643 0.740506 0.000000
0.708482 0.776414 0.000000
0.817662 0.799669 0.000000
0.893383 0.813167 0.000000
0.945237 0.820533 0.000000
0.977740 0.824735 0.000000
0.994872 0.827034 0.000000
1.002954 0.827292 0.000000
1.007589 0.826972 0.000000
1.010673 0.826891 0.000000
