transforms/JF02_cool_color_push_fpe_r709.cube
#  JF_02_FPE_r709.cube
LUT_3D_SIZE 9
0.000000 0.000000 0.000000
0.023331 0.012132 0.005100
0.220012 0.061002 0.000000
0.495314 0.000000 0.000000
0.605100 0.000000 0.000000
0.624104 0.000000 0.000000
0.624104 0.000000 0.000000
0.624104 0.000000 0.000000
0.624104 0.000000 0.000000
0.002965 0.016416 0.007584
0.011100 0.013247 0.005656
0.145604 0.067828 0.000000
0.428010 0.057781 0.000000
0.606388 0.000000 0.000000
0.638971 0.000000 0.000000
0.628452 0.000000 0.000000
0.624104 0.000000 0.000000
0.624104 0.000000 0.000000
0.000000 0.118354 0.052704
0.000000 0.105821 0.049490
0.081400 0.114311 0.038465
0.352861 0.154245 0.000000
0.642405 0.113563 0.000000
0.703591 0.000000 0.000000
0.697737 0.000000 0.000000
0.684640 0.000000 0.000000
0.670973 0.000000 0.000000
0.000000 0.269301 0.110787
0.000000 0.243803 0.097994
0.000000 0.220982 0.038090
0.253993 0.278459 0.000000
0.654692 0.313982 0.000000
0.791533 0.292565 0.000000
0.795743 0.266940 0.000000
0.776706 0.225075 0.000000
0.758733 0.185710 0.000000
0.000000 0.427813 0.128933
0.000000 0.415160 0.129645
0.000000 0.399590 0.120207
0.000000 0.417192 0.000000
0.594421 0.535204 0.000000
0.867179 0.549735 0.000000
0.901007 0.527587 0.000000
0.885398 0.481366 0.000000
0.867649 0.433118 0.000000
0.000000 0.493990 0.118543
0.000000 0.488792 0.119674
0.000000 0.482523 0.121198
0.000000 0.491910 0.000000
0.420471 0.640118 0.000000
0.871432 0.730997 0.000000
0.966142 0.729658 0.000000
0.966447 0.709645 0.000000
0.955398 0.677811 0.000000
0.000000 0.512524 0.120765
0.000000 0.511012 0.120851
0.000000 0.508996 0.120856
0.000000 0.516681 0.000000
0.117990 0.622740 0.000000
0.789125 0.782945 0.000000
0.982769 0.812268 0.000000
1.003392 0.808883 0.000000
0.999274 0.798488 0.000000
0.000000 0.514179 0.120657
0.000000 0.514179 0.120657
0.000000 0.514179 0.120657
0.000000 0.516272 0.107382
0.000000 0.573907 0.000000
0.616708 0.756842 0.000000
0.956961 0.828721 0.000000
1.013726 0.835947 0.000000
1.015898 0.834234 0.000000
0.000000 0.514179 0.120657
0.000000 0.514179 0.120657
0.000000 0.514179 0.120657
0.000000 0.514179 0.120657
0.000000 0.531465 0.000000
0.383566 0.692087 0.000000
0.887869 0.818771 0.000000
1.007266 0.838229 0.000000
1.019642 0.840128 0.000000
0.009038 0.009652 0.047366
0.027884 0.014523 0.042156
0.226641 0.062099 0.080398
0.516060 0.000000 0.000000
0.630060 0.000000 0.000000
0.645448 0.000000 0.000000
0.641177 0.000000 0.000000
0.636919 0.000000 0.000000
0.632651 0.000000 0.000000
0.000000 0.017742 0.021451
0.010352 0.013698 0.015910
0.133975 0.063978 0.043114
0.419804 0.050745 0.000000
0.609172 0.000000 0.000000
0.639660 0.000000 0.000000
0.627575 0.000000 0.000000
0.624104 0.000000 0.000000
0.624104 0.000000 0.000000
0.000000 0.113860 0.059742
0.000000 0.101401 0.054765
0.073713 0.103201 0.043668
0.324027 0.142906 0.000000
0.621915 0.099006 0.000000
0.693148 0.000000 0.000000
0.691195 0.000000 0.000000
0.677620 0.000000 0.000000
0.665165 0.000000 0.000000
0.000000 0.252133 0.102174
0.000000 0.226534 0.089322
0.000000 0.204189 0.043598
0.229002 0.255528 0.000000
0.627720 0.291476 0.000000
0.779224 0.272160 0.000000
0.785841 0.245262 0.000000
0.767426 0.205120 0.000000
0.749387 0.163707 0.000000
0.000000 0.419374 0.129422
0.000000 0.404656 0.130606
0.000000 0.386546 0.124494
0.000000 0.394826 0.000000
0.555403 0.506769 0.000000
0.850952 0.525436 0.000000
0.890683 0.501979 0.000000
0.876250 0.456444 0.000000
0.857929 0.408772 0.000000
0.000000 0.490547 0.119235
0.000000 0.485280 0.120538
0.000000 0.479015 0.122019
0.000000 0.480547 0.000000
0.376308 0.618889 0.000000
0.853878 0.715688 0.000000
0.959690 0.716683 0.000000
0.961452 0.695610 0.000000
0.949698 0.661200 0.000000
0.000000 0.511516 0.120825
0.000000 0.509932 0.120909
0.000000 0.507379 0.120685
0.000000 0.513282 0.045615
0.000000 0.607001 0.000000
0.757832 0.773156 0.000000
0.976624 0.807707 0.000000
1.001265 0.803504 0.000000
0.997137 0.793114 0.000000
0.000000 0.514179 0.120657
0.000000 0.514179 0.120657
0.000000 0.514179 0.120657
0.000000 0.515189 0.114458
0.000000 0.564750 0.000000
0.579656 0.746686 0.000000
0.948325 0.826605 0.000000
1.012123 0.834786 0.000000
1.014710 0.832267 0.000000
0.000000 0.514179 0.120657
0.000000 0.514179 0.120657
0.000000 0.514179 0.120657
0.000000 0.514179 0.120657
0.000000 0.529571 0.000000
0.339858 0.680566 0.000000
0.867262 0.814835 0.000000
1.005386 0.838291 0.000000
1.019642 0.840128 0.000000
0.057938 0.000000 0.329597
0.074681 0.000000 0.327220
0.228679 0.000000 0.343379
0.531895 0.000000 0.340314
0.655876 0.000000 0.317199
0.674266 0.000000 0.285253
0.670882 0.000000 0.244283
0.668230 0.000000 0.206273
0.665450 0.000000 0.165115
0.000000 0.024854 0.260656
0.000000 0.013084 0.236926
0.130079 0.041076 0.231169
0.426653 0.000000 0.217113
0.632817 0.000000 0.182403
0.666581 0.000000 0.152713
0.661268 0.000000 0.116654
0.658050 0.000000 0.068602
0.654734 0.000000 0.000000
0.000000 0.142864 0.208401
0.000000 0.121122 0.179095
0.046294 0.107420 0.151388
0.331696 0.143630 0.134587
0.647778 0.071062 0.065641
0.720358 0.000000 0.000000
0.714307 0.000000 0.000000
0.696295 0.000000 0.000000
0.679951 0.000000 0.000000
0.000000 0.292755 0.194671
0.000000 0.257036 0.167844
0.000000 0.219720 0.120779
0.227929 0.252473 0.050017
0.637875 0.286279 0.000000
0.790330 0.259097 0.000000
0.795855 0.234028 0.000000
0.773076 0.192402 0.000000
0.749606 0.146179 0.000000
0.000000 0.438442 0.174333
0.000000 0.416533 0.162863
0.000000 0.391312 0.145955
0.000000 0.384780 0.000000
0.538014 0.496216 0.000000
0.846998 0.509466 0.000000
0.884705 0.482906 0.000000
0.868882 0.436455 0.000000
0.849199 0.388026 0.000000
0.000000 0.496699 0.140003
0.000000 0.488349 0.132697
0.000000 0.478087 0.128789
0.000000 0.474621 0.000000
0.337273 0.601286 0.000000
0.837502 0.702429 0.000000
0.953638 0.704607 0.000000
0.956208 0.680184 0.000000
0.944372 0.645793 0.000000
0.000000 0.510580 0.120874
0.000000 0.508672 0.120821
0.000000 0.505977 0.120536
0.000000 0.510425 0.070809
0.000000 0.592901 0.000000
0.731060 0.764742 0.000000
0.971282 0.802037 0.000000
0.999559 0.799204 0.000000
0.994491 0.786006 0.000000
0.000000 0.514179 0.120657
0.000000 0.514179 0.120657
0.000000 0.514179 0.120657
0.000000 0.514251 0.120224
0.000000 0.557686 0.000000
0.545280 0.736678 0.000000
0.938997 0.824498 0.000000
1.010446 0.833466 0.000000
1.013680 0.830563 0.000000
0.000000 0.514179 0.120657
0.000000 0.514179 0.120657
0.000000 0.514179 0.120657
0.000000 0.514179 0.120657
0.000000 0.527921 0.000000
0.298380 0.669706 0.000000
0.850332 0.811573 0.000000
1.003758 0.838363 0.000000
1.019642 0.840128 0.000000
0.151156 0.000000 0.459222
0.167781 0.000000 0.469424
0.271367 0.000000 0.523757
0.549376 0.000000 0.573040
0.679506 0.000000 0.575211
0.700479 0.000000 0.566947
0.698048 0.000000 0.546806
0.695564 0.000000 0.521198
0.692951 0.000000 0.493755
0.061796 0.000000 0.461530
0.087374 0.000000 0.447853
0.171861 0.000000 0.472221
0.433247 0.000000 0.509494
0.649918 0.000000 0.504490
0.689195 0.000000 0.480457
0.688865 0.000000 0.448492
0.685581 0.000000 0.412597
0.682033 0.000000 0.374453
0.000000 0.169979 0.478437
0.000000 0.148367 0.450853
0.000000 0.107680 0.439167
0.320465 0.130497 0.466645
0.658430 0.000000 0.451197
0.741521 0.000000 0.417453
0.736881 0.000000 0.370304
0.720040 0.000000 0.314309
0.703928 0.000000 0.261064
0.000000 0.371983 0.501013
0.000000 0.336241 0.460137
0.000000 0.300399 0.421634
0.155441 0.280500 0.374896
0.635219 0.310382 0.351853
0.807961 0.272848 0.309497
0.819776 0.243907 0.271094
0.799101 0.191186 0.213575
0.778313 0.134929 0.164901
0.000000 0.544897 0.473831
0.000000 0.515259 0.431933
0.000000 0.482871 0.387557
0.000000 0.433133 0.271627
0.529112 0.522580 0.185725
0.872698 0.527662 0.000000
0.915400 0.495031 0.000000
0.899125 0.447075 0.000000
0.876466 0.391791 0.000000
0.000000 0.579205 0.373751
0.000000 0.561880 0.337410
0.000000 0.539424 0.298831
0.000000 0.525607 0.208556
0.318154 0.622418 0.000000
0.851588 0.711851 0.000000
0.979961 0.712122 0.000000
0.977404 0.680951 0.000000
0.960249 0.642358 0.000000
0.000000 0.564993 0.283916
0.000000 0.552480 0.252117
0.000000 0.538081 0.215959
0.000000 0.533260 0.174324
0.000000 0.598851 0.000000
0.723015 0.765455 0.000000
0.981022 0.803915 0.000000
1.006456 0.798423 0.000000
0.996438 0.781343 0.000000
0.000000 0.538608 0.199310
0.000000 0.532280 0.179740
0.000000 0.527860 0.165661
0.000000 0.523656 0.151658
0.000000 0.555865 0.000000
0.518332 0.729682 0.000000
0.927523 0.821979 0.000000
1.008523 0.831792 0.000000
1.012806 0.829120 0.000000
0.000000 0.521555 0.144322
0.000000 0.519023 0.136373
0.000000 0.516330 0.127840
0.000000 0.514179 0.120657
0.000000 0.526527 0.000000
0.259090 0.659535 0.000000
0.833381 0.808302 0.000000
1.002380 0.838424 0.000000
1.019642 0.840128 0.000000
0.177861 0.000000 0.492668
0.193212 0.000000 0.505018
0.276385 0.000000 0.566383
0.550218 0.000000 0.639184
0.694053 0.000000 0.659082
0.717233 0.000000 0.660835
0.715220 0.000000 0.654871
0.713137 0.000000 0.648699
0.711072 0.000000 0.639566
0.112207 0.000000 0.523243
0.141241 0.000000 0.515055
0.209311 0.000000 0.544813
0.433392 0.000000 0.617357
0.658831 0.000000 0.639197
0.706740 0.000000 0.634422
0.708303 0.000000 0.626009
0.706745 0.000000 0.612904
0.705246 0.000000 0.599461
0.000000 0.170193 0.588561
0.000000 0.141652 0.571053
0.000000 0.087244 0.579067
0.307179 0.070388 0.648586
0.663924 0.000000 0.675683
0.759469 0.000000 0.667833
0.756636 0.000000 0.637978
0.741765 0.000000 0.605320
0.726213 0.000000 0.568418
0.000000 0.377462 0.654494
0.000000 0.346545 0.632858
0.000000 0.313884 0.617181
0.000000 0.305880 0.653264
0.620370 0.338099 0.700360
0.821948 0.298762 0.687454
0.839166 0.268674 0.658873
0.819763 0.204292 0.607852
0.799905 0.129551 0.553350
0.000000 0.580847 0.711734
0.000000 0.559155 0.691652
0.000000 0.533276 0.664710
0.000000 0.532343 0.655447
0.451795 0.583379 0.645455
0.864022 0.588571 0.630354
0.919893 0.555134 0.595485
0.908012 0.496381 0.534275
0.888869 0.433108 0.472261
0.000000 0.672814 0.703828
0.000000 0.662265 0.678152
0.000000 0.646652 0.647452
0.000000 0.651345 0.619190
0.000000 0.690024 0.518920
0.819018 0.779749 0.476660
0.977034 0.770894 0.421224
0.984096 0.732795 0.361620
0.973565 0.686221 0.285879
0.000000 0.677806 0.636546
0.000000 0.668552 0.606625
0.000000 0.655438 0.566147
0.000000 0.646666 0.521061
0.000000 0.667164 0.388613
0.678354 0.810058 0.274757
0.988783 0.845888 0.105275
1.024253 0.836435 0.000000
1.020590 0.809651 0.000000
0.000000 0.651123 0.530927
0.000000 0.640431 0.497031
0.000000 0.626842 0.456754
0.000000 0.612724 0.414717
0.000000 0.622106 0.298421
0.471187 0.757831 0.000000
0.938622 0.844022 0.000000
1.028572 0.849440 0.000000
1.029875 0.841487 0.000000
0.000000 0.605884 0.395088
0.000000 0.594351 0.361891
0.000000 0.581255 0.323772
0.000000 0.569179 0.289129
0.000000 0.567952 0.207383
0.210529 0.672801 0.000000
0.831185 0.812323 0.000000
1.017013 0.842171 0.000000
1.029188 0.844433 0.000000
0.177861 0.000000 0.492668
0.191985 0.000000 0.504892
0.270972 0.000000 0.565652
0.540416 0.000000 0.644438
0.695558 0.000000 0.671982
0.722965 0.000000 0.679301
0.722965 0.000000 0.679301
0.722965 0.000000 0.679301
0.722965 0.000000 0.679301
0.105300 0.000000 0.529208
0.141687 0.000000 0.522889
0.209054 0.000000 0.553529
0.423232 0.000000 0.634696
0.656713 0.000000 0.668304
0.717499 0.000000 0.677093
0.722384 0.000000 0.677752
0.721370 0.000000 0.675043
0.720090 0.000000 0.671086
0.000000 0.172069 0.610978
0.000000 0.142348 0.600037
0.000000 0.083592 0.613722
0.287918 0.081551 0.695756
0.661064 0.000000 0.742179
0.766988 0.000000 0.742003
0.768493 0.000000 0.726018
0.753992 0.000000 0.703755
0.738723 0.000000 0.679931
0.000000 0.381221 0.697329
0.000000 0.350117 0.683260
0.000000 0.319884 0.674252
0.000000 0.312403 0.736738
0.597355 0.347646 0.813353
0.825147 0.310516 0.824863
0.847879 0.277236 0.810508
0.831412 0.209358 0.781564
0.814055 0.100952 0.750262
0.000000 0.577030 0.772958
0.000000 0.557199 0.761805
0.000000 0.529592 0.746708
0.000000 0.536256 0.766845
0.391494 0.603006 0.839564
0.848604 0.613347 0.867096
0.920139 0.585207 0.856877
0.912745 0.530318 0.827410
0.898017 0.469196 0.793399
0.000000 0.674099 0.801954
0.000000 0.665926 0.793949
0.000000 0.655238 0.782946
0.000000 0.668814 0.786539
0.000000 0.731776 0.806187
0.775813 0.832391 0.841333
0.960996 0.827218 0.833009
0.975004 0.797805 0.804749
0.966471 0.749930 0.764137
0.000000 0.698350 0.794361
0.000000 0.696701 0.786017
0.000000 0.694352 0.774530
0.000000 0.698413 0.767150
0.000000 0.754540 0.762481
0.588774 0.880265 0.758554
0.957463 0.924320 0.742369
1.004724 0.915291 0.708404
1.005295 0.890459 0.650521
0.000000 0.701211 0.769348
0.000000 0.701277 0.758348
0.000000 0.701340 0.745248
0.000000 0.698782 0.725086
0.000000 0.735098 0.707886
0.270914 0.833207 0.645002
0.898662 0.924354 0.613675
1.013535 0.930478 0.567641
1.016730 0.916797 0.497299
0.000000 0.696922 0.713956
0.000000 0.693812 0.695397
0.000000 0.688126 0.669047
0.000000 0.680308 0.636994
0.000000 0.688971 0.603638
0.000000 0.741796 0.489907
0.788024 0.880120 0.437399
1.007464 0.904562 0.367409
1.019547 0.901504 0.308674
0.177861 0.000000 0.492668
0.190435 0.000000 0.503578
0.265383 0.000000 0.561878
0.529298 0.000000 0.642445
0.692039 0.000000 0.671260
0.722965 0.000000 0.679301
0.722965 0.000000 0.679301
0.722965 0.000000 0.679301
0.722965 0.000000 0.679301
0.121251 0.000000 0.524608
0.151678 0.000000 0.518144
0.207038 0.000000 0.546140
0.406693 0.000000 0.625721
0.647561 0.000000 0.663510
0.716247 0.000000 0.676725
0.722965 0.000000 0.679301
0.722965 0.000000 0.679301
0.722965 0.000000 0.679301
0.000000 0.158868 0.605447
0.000000 0.119269 0.595465
0.000000 0.059368 0.606270
0.269293 0.052154 0.687685
0.644481 0.000000 0.740064
0.763738 0.000000 0.746389
0.769519 0.000000 0.738027
0.756680 0.000000 0.721212
0.744120 0.000000 0.705257
0.000000 0.369296 0.694242
0.000000 0.339776 0.681821
0.000000 0.313090 0.676306
0.000000 0.310292 0.740801
0.576861 0.347984 0.827682
0.822942 0.319453 0.848025
0.850603 0.284683 0.843966
0.836809 0.218227 0.825629
0.821315 0.120695 0.802772
0.000000 0.570838 0.778979
0.000000 0.550850 0.770729
0.000000 0.521845 0.758641
0.000000 0.529352 0.784026
0.347994 0.598477 0.879157
0.831210 0.617490 0.922934
0.919412 0.593223 0.923953
0.914544 0.542783 0.909193
0.900600 0.482987 0.890155
0.000000 0.672066 0.822614
0.000000 0.663112 0.818323
0.000000 0.652613 0.812371
0.000000 0.659740 0.820922
0.000000 0.730823 0.875759
0.745572 0.838017 0.945481
0.954782 0.839607 0.954787
0.970561 0.813977 0.947234
0.962778 0.769158 0.931593
0.000000 0.697311 0.829266
0.000000 0.695303 0.826732
0.000000 0.692670 0.823492
0.000000 0.695690 0.823951
0.000000 0.762050 0.861087
0.520845 0.896815 0.919462
0.937683 0.949766 0.942115
0.992925 0.944846 0.937063
0.993504 0.926910 0.917349
0.000000 0.702034 0.825701
0.000000 0.702046 0.823917
0.000000 0.702069 0.820492
0.000000 0.702027 0.815702
0.000000 0.748636 0.838558
0.000000 0.861783 0.868893
0.863502 0.964320 0.903651
0.994870 0.977827 0.895062
1.004373 0.971798 0.874302
0.000000 0.702115 0.813419
0.000000 0.702146 0.808542
0.000000 0.702188 0.801995
0.000000 0.702230 0.795184
0.000000 0.724559 0.799905
0.000000 0.798773 0.804760
0.728453 0.938967 0.831878
0.981941 0.972738 0.823640
1.005670 0.973127 0.801329
0.177861 0.000000 0.492668
0.188772 0.000000 0.502171
0.259233 0.000000 0.557727
0.517089 0.000000 0.640250
0.688522 0.000000 0.670537
0.722965 0.000000 0.679301
0.722965 0.000000 0.679301
0.722965 0.000000 0.679301
0.722965 0.000000 0.679301
0.133545 0.000000 0.520446
0.162863 0.000000 0.512933
0.205592 0.000000 0.538552
0.389319 0.000000 0.616842
0.641845 0.000000 0.662623
0.714614 0.000000 0.676323
0.722965 0.000000 0.679301
0.722965 0.000000 0.679301
0.722965 0.000000 0.679301
0.000000 0.144672 0.600491
0.000000 0.094278 0.590383
0.000000 0.032649 0.598134
0.251783 0.000000 0.676035
0.627549 0.000000 0.731940
0.756835 0.000000 0.739564
0.765094 0.000000 0.732224
0.752259 0.000000 0.715419
0.739460 0.000000 0.699535
0.000000 0.355867 0.688602
0.000000 0.326395 0.676159
0.000000 0.299517 0.669308
0.000000 0.294009 0.728595
0.554309 0.327262 0.818380
0.811859 0.296591 0.839976
0.844576 0.262239 0.837278
0.831776 0.190624 0.818694
0.816760 0.073314 0.798495
0.000000 0.561746 0.775231
0.000000 0.539222 0.765898
0.000000 0.510153 0.753751
0.000000 0.513013 0.775365
0.309499 0.574910 0.870256
0.815586 0.597673 0.919540
0.914377 0.577809 0.924474
0.912600 0.532613 0.915331
0.899759 0.478570 0.901556
0.000000 0.667615 0.820648
0.000000 0.658709 0.816715
0.000000 0.648611 0.812245
0.000000 0.652568 0.819910
0.000000 0.718365 0.877313
0.722951 0.827335 0.956369
0.948248 0.832214 0.972896
0.969716 0.810707 0.972044
0.961436 0.767523 0.964727
0.000000 0.696547 0.832793
0.000000 0.694996 0.832458
0.000000 0.692267 0.831142
0.000000 0.694133 0.832727
0.000000 0.756027 0.873255
0.461002 0.890108 0.948324
0.922413 0.950063 0.986519
0.989525 0.947264 0.990147
0.989638 0.932804 0.985732
0.000000 0.700808 0.834695
0.000000 0.700808 0.834695
0.000000 0.700808 0.834695
0.000000 0.700569 0.834447
0.000000 0.744538 0.862225
0.000000 0.858856 0.920707
0.840611 0.970876 0.976860
0.987671 0.989000 0.984853
0.999255 0.984914 0.979293
0.000000 0.700810 0.834433
0.000000 0.700815 0.833980
0.000000 0.700816 0.833475
0.000000 0.701246 0.831547
0.000000 0.721919 0.842013
0.000000 0.805183 0.885610
0.678576 0.950083 0.950383
0.968889 0.991391 0.967510
1.000901 0.994951 0.962388
0.177861 0.000000 0.492668
0.187744 0.000000 0.501234
0.253647 0.000000 0.553957
0.504037 0.000000 0.637581
0.684663 0.000000 0.669743
0.722965 0.000000 0.679301
0.722965 0.000000 0.679301
0.722965 0.000000 0.679301
0.722965 0.000000 0.679301
0.145840 0.000000 0.516263
0.165574 0.000000 0.509388
0.205434 0.000000 0.532548
0.374283 0.000000 0.608333
0.634667 0.000000 0.661428
0.713130 0.000000 0.675957
0.722965 0.000000 0.679301
0.722965 0.000000 0.679301
0.722965 0.000000 0.679301
0.000000 0.121563 0.595924
0.000000 0.071306 0.585707
0.000000 0.009931 0.590903
0.239945 0.000000 0.664221
0.609366 0.000000 0.723606
0.750363 0.000000 0.733401
0.760217 0.000000 0.725850
0.747935 0.000000 0.709941
0.735232 0.000000 0.694357
0.000000 0.342457 0.682952
0.000000 0.313057 0.670488
0.000000 0.286039 0.662694
0.000000 0.276525 0.716502
0.530477 0.308834 0.808914
0.800751 0.275574 0.832577
0.838585 0.238426 0.830472
0.826673 0.160061 0.811738
0.811443 0.000000 0.791491
0.000000 0.551757 0.771104
0.000000 0.527633 0.761062
0.000000 0.498234 0.748744
0.000000 0.494347 0.765941
0.269182 0.552946 0.861676
0.802504 0.578298 0.914272
0.908999 0.557848 0.919683
0.908233 0.514027 0.911020
0.895216 0.459843 0.896186
0.000000 0.663570 0.818860
0.000000 0.654668 0.814928
0.000000 0.642960 0.809749
0.000000 0.644223 0.815490
0.000000 0.705616 0.871450
0.701123 0.813293 0.952664
0.942319 0.819068 0.970457
0.967008 0.796402 0.969635
0.958512 0.752774 0.962199
0.000000 0.695808 0.832633
0.000000 0.693926 0.831955
0.000000 0.691161 0.830602
0.000000 0.691563 0.831262
0.000000 0.748921 0.869509
0.416168 0.881276 0.944684
0.913858 0.943427 0.985054
0.988102 0.941971 0.991602
0.989107 0.927755 0.989215
0.000000 0.700808 0.834695
0.000000 0.700808 0.834695
0.000000 0.700808 0.834695
0.000000 0.700385 0.834256
0.000000 0.740225 0.860983
0.000000 0.849125 0.919829
0.824108 0.967752 0.982354
0.984524 0.987712 0.995850
0.997465 0.986408 0.997504
0.000000 0.700808 0.834695
0.000000 0.700808 0.834695
0.000000 0.700808 0.834695
0.000000 0.700808 0.834695
0.000000 0.719320 0.846999
0.000000 0.801073 0.895646
0.648894 0.947007 0.970173
0.962346 0.994825 0.996357
0.999947 0.999930 0.999917
