transforms/JF03_silver_color_pull_fpe_r709.cube
#  JF_03_FPE_r709.cube
LUT_3D_SIZE 9
0.000000 0.000000 0.000000
0.006649 0.005684 0.004588
0.034227 0.027469 0.018676
0.075892 0.053919 0.031807
0.136639 0.068001 0.033777
0.219506 0.082563 0.017776
0.292725 0.095464 0.000000
0.357109 0.099251 0.000000
0.389836 0.100059 0.000000
0.004881 0.006067 0.004872
0.009201 0.009444 0.007260
0.047036 0.044920 0.030901
0.115681 0.075842 0.045620
0.214744 0.104026 0.040810
0.341944 0.130089 0.000000
0.452850 0.139866 0.000000
0.534264 0.143593 0.000000
0.567996 0.146116 0.000000
0.013781 0.028311 0.021855
0.032899 0.042893 0.031916
0.072556 0.073654 0.049126
0.175209 0.125397 0.053137
0.338386 0.176688 0.000000
0.518211 0.210666 0.000000
0.635358 0.234535 0.000000
0.703351 0.256348 0.000000
0.730155 0.268938 0.000000
0.000000 0.056727 0.043235
0.040012 0.087102 0.059648
0.109259 0.135020 0.063204
0.271124 0.218073 0.028270
0.510036 0.303583 0.000000
0.702817 0.364785 0.000000
0.796467 0.406685 0.000000
0.848197 0.447163 0.000000
0.866560 0.464717 0.000000
0.000000 0.094326 0.063024
0.000000 0.129649 0.065416
0.141531 0.211240 0.060005
0.380712 0.342852 0.000000
0.667906 0.467949 0.000000
0.837764 0.546448 0.000000
0.909034 0.595648 0.000000
0.940229 0.629813 0.000000
0.952195 0.644763 0.000000
0.000000 0.129697 0.074563
0.000000 0.171696 0.071872
0.152546 0.292971 0.040360
0.465970 0.467930 0.000000
0.766477 0.598200 0.000000
0.914318 0.670120 0.000000
0.966818 0.712339 0.000000
0.985589 0.732968 0.000000
0.992600 0.744166 0.000000
0.000000 0.159485 0.089759
0.000000 0.216416 0.077831
0.162166 0.367589 0.000000
0.527701 0.553319 0.000000
0.820742 0.674709 0.000000
0.947778 0.734374 0.000000
0.988497 0.762586 0.000000
1.004420 0.782610 0.000000
1.010399 0.790275 0.000000
0.000000 0.185281 0.105732
0.000000 0.243803 0.086399
0.165277 0.404590 0.000000
0.551572 0.593949 0.000000
0.844458 0.709877 0.000000
0.964056 0.765414 0.000000
0.999616 0.788639 0.000000
1.012282 0.802760 0.000000
1.017905 0.810619 0.000000
0.000000 0.200157 0.115862
0.000000 0.261410 0.096945
0.140984 0.419250 0.000000
0.549650 0.610695 0.000000
0.852836 0.727549 0.000000
0.970958 0.781241 0.000000
1.005774 0.803819 0.000000
1.016838 0.816523 0.000000
1.021334 0.825481 0.000000
0.005394 0.005523 0.006258
0.008214 0.007579 0.008143
0.035853 0.031036 0.029318
0.083268 0.058621 0.051929
0.154381 0.073196 0.055115
0.243562 0.089371 0.051031
0.326972 0.101383 0.038975
0.394593 0.103183 0.000000
0.431151 0.101490 0.000000
0.006136 0.009202 0.009863
0.011213 0.012673 0.013377
0.049997 0.049622 0.046395
0.130347 0.083289 0.066339
0.242380 0.118030 0.068334
0.380245 0.142312 0.063421
0.499844 0.152005 0.050612
0.579604 0.158227 0.043816
0.611339 0.165114 0.051277
0.000000 0.035281 0.035565
0.032963 0.051780 0.048886
0.078117 0.088460 0.071271
0.196029 0.146327 0.091281
0.379665 0.202800 0.094030
0.570669 0.243552 0.081497
0.683772 0.270376 0.071642
0.745168 0.296514 0.077679
0.773989 0.312049 0.092524
0.000000 0.074383 0.066329
0.000000 0.101646 0.079427
0.108110 0.159387 0.100954
0.300691 0.256537 0.118646
0.563647 0.359809 0.105272
0.752473 0.427991 0.090633
0.843847 0.477161 0.074912
0.886505 0.521007 0.085989
0.903971 0.544862 0.119678
0.000000 0.120775 0.092924
0.000000 0.152688 0.101229
0.120111 0.253507 0.123400
0.410702 0.409118 0.128147
0.713786 0.543346 0.083832
0.877110 0.625442 0.058385
0.941518 0.674355 0.104399
0.965145 0.704786 0.143989
0.974135 0.721494 0.182527
0.000000 0.168379 0.127161
0.000000 0.212708 0.129218
0.102042 0.348016 0.137068
0.490459 0.540043 0.124164
0.800774 0.671824 0.078345
0.939557 0.742266 0.104404
0.982240 0.780059 0.180528
0.997761 0.801502 0.221836
1.005377 0.817816 0.260089
0.000000 0.224253 0.159587
0.000000 0.275138 0.157756
0.000000 0.422327 0.151041
0.541880 0.623050 0.138575
0.846130 0.743081 0.128918
0.966479 0.803932 0.179277
0.998979 0.827791 0.232274
1.010421 0.843275 0.277163
1.013817 0.852222 0.306146
0.000000 0.259000 0.184217
0.000000 0.313963 0.183423
0.000000 0.458032 0.166780
0.558518 0.663298 0.163381
0.864794 0.777107 0.180981
0.976339 0.827661 0.237586
1.005091 0.852309 0.291906
1.014475 0.865727 0.332546
1.016580 0.873585 0.365510
0.000000 0.283416 0.205641
0.000000 0.339155 0.203752
0.000000 0.475949 0.183505
0.557907 0.679399 0.195812
0.869323 0.794712 0.233692
0.980043 0.845230 0.298637
1.006472 0.867261 0.348254
1.014900 0.878147 0.380876
1.017121 0.884711 0.404785
0.015959 0.019221 0.029443
0.025092 0.025551 0.038919
0.041392 0.038773 0.051105
0.088648 0.062814 0.079394
0.168426 0.078953 0.089794
0.268170 0.096639 0.097307
0.359659 0.107016 0.101263
0.426746 0.108080 0.107726
0.467238 0.104892 0.115454
0.012824 0.032695 0.045680
0.029099 0.043305 0.061020
0.058693 0.062578 0.084781
0.135858 0.096545 0.111178
0.266105 0.132534 0.139184
0.417895 0.157841 0.155527
0.538463 0.171522 0.167224
0.611793 0.181043 0.184974
0.649114 0.191121 0.196917
0.000000 0.054024 0.070911
0.000000 0.071449 0.090326
0.075658 0.106426 0.127899
0.206325 0.168766 0.168688
0.410852 0.234428 0.204758
0.611420 0.287241 0.236990
0.723764 0.318766 0.261715
0.777400 0.347899 0.285815
0.807433 0.373782 0.308113
0.000000 0.101795 0.119309
0.000000 0.119833 0.132351
0.062032 0.186227 0.177985
0.304344 0.304822 0.244526
0.595534 0.429478 0.299541
0.787161 0.504823 0.336830
0.872685 0.561514 0.370471
0.912832 0.608124 0.395727
0.924666 0.630798 0.423563
0.000000 0.166417 0.175566
0.000000 0.192446 0.184821
0.000000 0.297442 0.233549
0.403697 0.481272 0.310930
0.740154 0.632134 0.375736
0.895897 0.712336 0.428907
0.953232 0.760354 0.467878
0.975291 0.793820 0.500049
0.982039 0.810501 0.526245
0.000000 0.247965 0.237635
0.000000 0.292576 0.253218
0.000000 0.409275 0.283971
0.477587 0.621534 0.367625
0.811248 0.758734 0.435531
0.945005 0.823550 0.495963
0.984172 0.858634 0.540056
0.996497 0.875286 0.571179
1.001207 0.886252 0.596529
0.000000 0.321924 0.294400
0.000000 0.372475 0.315158
0.000000 0.485565 0.328236
0.511746 0.699887 0.416332
0.847269 0.822318 0.493320
0.965260 0.872486 0.546331
0.995720 0.895156 0.582454
1.004364 0.909039 0.615902
1.006632 0.915891 0.638385
0.000000 0.367288 0.332761
0.000000 0.409901 0.346645
0.000000 0.519055 0.352896
0.520057 0.732945 0.448191
0.860265 0.847728 0.525791
0.972999 0.894852 0.578470
0.998791 0.913543 0.620600
1.005959 0.924031 0.649276
1.008672 0.931311 0.671968
0.000000 0.396678 0.361598
0.000000 0.428625 0.363911
0.000000 0.537725 0.378248
0.509708 0.749169 0.474915
0.862316 0.862415 0.555894
0.973673 0.905784 0.613557
0.998821 0.924971 0.656679
1.006081 0.933950 0.679149
1.008769 0.939802 0.698845
0.017724 0.027742 0.055168
0.029084 0.036808 0.071681
0.053534 0.053262 0.095505
0.094399 0.065704 0.121867
0.179895 0.083846 0.149212
0.283937 0.101213 0.170014
0.383261 0.109615 0.186248
0.458605 0.109008 0.203877
0.498657 0.104778 0.216724
0.000000 0.049570 0.088660
0.009838 0.057150 0.109245
0.059325 0.071358 0.147067
0.140532 0.106462 0.189121
0.284460 0.148447 0.241432
0.446071 0.175648 0.277000
0.571210 0.194548 0.304737
0.645760 0.210107 0.333510
0.681704 0.222583 0.353824
0.000000 0.073685 0.131126
0.000000 0.085840 0.154089
0.000000 0.125484 0.212507
0.209387 0.197487 0.285972
0.435383 0.279651 0.362057
0.646298 0.337401 0.411584
0.753044 0.375054 0.449367
0.811148 0.419033 0.484224
0.836197 0.446310 0.510586
0.000000 0.135251 0.199395
0.000000 0.158953 0.230111
0.000000 0.222868 0.298714
0.296243 0.367444 0.408633
0.613969 0.508936 0.502577
0.810138 0.599920 0.560619
0.892624 0.653040 0.600566
0.926127 0.692063 0.627329
0.938422 0.715521 0.649463
0.000000 0.232414 0.291669
0.000000 0.276921 0.334794
0.000000 0.365498 0.397953
0.369488 0.559005 0.506959
0.745191 0.715151 0.603538
0.905550 0.790550 0.662026
0.957313 0.833679 0.699676
0.975743 0.856593 0.723372
0.981882 0.870548 0.741570
0.000000 0.338511 0.383928
0.000000 0.389469 0.423971
0.000000 0.490593 0.476706
0.430866 0.693001 0.577722
0.804455 0.824328 0.667743
0.942760 0.884286 0.722318
0.981433 0.909018 0.757767
0.992163 0.923752 0.780672
0.995813 0.931019 0.793011
0.000000 0.415440 0.450452
0.000000 0.465228 0.484368
0.000000 0.564717 0.528574
0.454637 0.760441 0.627632
0.837798 0.875771 0.710435
0.959700 0.923023 0.761090
0.989095 0.939474 0.791213
0.997839 0.948460 0.811177
0.999976 0.952784 0.821651
0.000000 0.452888 0.483274
0.000000 0.497430 0.511491
0.000000 0.597150 0.557128
0.455196 0.789154 0.650072
0.849531 0.898350 0.737104
0.965588 0.936293 0.781389
0.991824 0.951524 0.809709
0.999400 0.958444 0.826889
1.001461 0.962666 0.839589
0.000000 0.472963 0.502960
0.000000 0.516811 0.531317
0.000000 0.617139 0.583314
0.439233 0.798718 0.667374
0.849379 0.909008 0.758062
0.966059 0.944506 0.802075
0.992048 0.958098 0.828267
0.999167 0.963381 0.842334
1.001354 0.967282 0.853871
0.013025 0.036280 0.088022
0.026871 0.040020 0.104700
0.051367 0.053156 0.136132
0.096896 0.066223 0.177132
0.188712 0.083998 0.215809
0.300736 0.104440 0.251131
0.408847 0.109990 0.279865
0.487829 0.106279 0.302235
0.527154 0.107164 0.318235
0.000000 0.054998 0.132963
0.000000 0.059467 0.155095
0.044588 0.076492 0.209664
0.141601 0.115699 0.277602
0.298443 0.162564 0.344979
0.470875 0.198333 0.397896
0.600586 0.219502 0.434161
0.671923 0.235201 0.466199
0.710507 0.254334 0.492230
0.000000 0.087044 0.188821
0.000000 0.101630 0.224813
0.000000 0.142942 0.301793
0.199766 0.225393 0.403214
0.449373 0.319365 0.496783
0.669463 0.386563 0.560098
0.775987 0.431360 0.600441
0.833115 0.475752 0.637289
0.856285 0.508261 0.662339
0.000000 0.169780 0.282802
0.000000 0.201506 0.334218
0.000000 0.266144 0.417775
0.263115 0.412295 0.542024
0.621303 0.567153 0.643652
0.821265 0.654985 0.709332
0.900287 0.707105 0.742688
0.934807 0.749678 0.768585
0.945937 0.771230 0.785827
0.000000 0.287734 0.403452
0.000000 0.331124 0.448895
0.000000 0.427736 0.535410
0.307219 0.612684 0.649219
0.740987 0.766429 0.745348
0.908459 0.840527 0.797678
0.956860 0.873046 0.828035
0.975347 0.895797 0.846197
0.982004 0.906690 0.856254
0.000000 0.392034 0.491838
0.000000 0.447553 0.539510
0.000000 0.552393 0.616308
0.364163 0.740766 0.715377
0.797657 0.865592 0.800045
0.940823 0.916383 0.844427
0.979078 0.937490 0.867692
0.989644 0.948820 0.882095
0.993194 0.953745 0.892244
0.000000 0.466508 0.553036
0.000000 0.515519 0.591551
0.000000 0.616932 0.662525
0.383359 0.793346 0.749526
0.827055 0.907765 0.831523
0.955777 0.945761 0.868033
0.985257 0.960023 0.888422
0.994926 0.967267 0.902005
0.997303 0.969988 0.909213
0.000000 0.501070 0.580305
0.000000 0.544033 0.614890
0.000000 0.645210 0.685544
0.379614 0.814713 0.767163
0.836133 0.924224 0.846147
0.961736 0.956894 0.880739
0.987790 0.969362 0.901489
0.996075 0.973818 0.912849
0.998737 0.976246 0.917934
0.000000 0.518938 0.596764
0.000000 0.557801 0.629288
0.000000 0.656860 0.699127
0.357476 0.819871 0.775916
0.835823 0.929528 0.854761
0.962367 0.962961 0.892303
0.988308 0.973002 0.910993
0.996555 0.977398 0.919255
0.999240 0.979753 0.923585
0.000000 0.037424 0.115639
0.015475 0.040243 0.134649
0.049577 0.049162 0.178023
0.100971 0.063330 0.229653
0.200386 0.082851 0.281868
0.318814 0.106252 0.327270
0.430407 0.113219 0.362485
0.513394 0.109143 0.387750
0.556517 0.109441 0.404276
0.000000 0.056316 0.166952
0.000000 0.061620 0.198621
0.000000 0.081462 0.264390
0.141022 0.125376 0.352572
0.313799 0.178525 0.429653
0.495210 0.219546 0.491105
0.623891 0.242039 0.531946
0.695412 0.263010 0.563638
0.733926 0.288217 0.588227
0.000000 0.101934 0.239843
0.000000 0.122182 0.289977
0.000000 0.161979 0.375568
0.184839 0.254870 0.492505
0.467305 0.357200 0.592909
0.688560 0.432207 0.661152
0.792316 0.477803 0.696715
0.848231 0.523963 0.728626
0.871569 0.556805 0.750383
0.000000 0.199637 0.355901
0.000000 0.231837 0.409838
0.000000 0.303946 0.503855
0.222081 0.453431 0.630666
0.625932 0.615437 0.733883
0.829815 0.701076 0.795364
0.907217 0.747701 0.821995
0.940934 0.788222 0.843581
0.951742 0.804725 0.855621
0.000000 0.315654 0.467400
0.000000 0.364918 0.520929
0.000000 0.470588 0.617442
0.256015 0.650491 0.729842
0.739416 0.800931 0.821962
0.910877 0.865528 0.866838
0.958458 0.896256 0.890046
0.976749 0.917889 0.903558
0.983124 0.925363 0.910569
0.000000 0.422960 0.555726
0.000000 0.475182 0.604725
0.000000 0.581211 0.686137
0.294120 0.759859 0.785708
0.788303 0.887885 0.865426
0.939126 0.932780 0.902153
0.978722 0.952511 0.918934
0.989098 0.960160 0.930540
0.992803 0.964727 0.936423
0.000000 0.490240 0.608099
0.000000 0.541801 0.652772
0.000000 0.636132 0.722035
0.308458 0.808469 0.812129
0.818691 0.923659 0.886998
0.953797 0.957147 0.918276
0.984038 0.970274 0.933430
0.994001 0.975944 0.942635
0.996504 0.978058 0.946553
0.000000 0.526449 0.636701
0.000000 0.566239 0.671598
0.000000 0.656463 0.736907
0.300344 0.824562 0.823553
0.826036 0.934858 0.897025
0.959250 0.967521 0.927589
0.986905 0.977527 0.943166
0.995187 0.981817 0.949047
0.998052 0.983751 0.951767
0.000000 0.541626 0.649601
0.000000 0.579445 0.681477
0.000000 0.665172 0.745870
0.272393 0.828827 0.828214
0.822649 0.938556 0.901305
0.959880 0.970824 0.933224
0.987742 0.980632 0.947518
0.995782 0.984735 0.952330
0.998421 0.986407 0.955012
0.000000 0.038009 0.137140
0.000000 0.035233 0.163076
0.047005 0.044837 0.207979
0.103494 0.056474 0.269807
0.210256 0.082600 0.332821
0.335246 0.108157 0.384842
0.450768 0.115569 0.421130
0.533056 0.114324 0.449302
0.579652 0.114459 0.466948
0.000000 0.057524 0.193291
0.000000 0.065931 0.233646
0.000000 0.084484 0.308826
0.135792 0.132669 0.401312
0.326979 0.194723 0.491347
0.516811 0.240014 0.554201
0.644440 0.266628 0.595842
0.716957 0.291077 0.628156
0.752938 0.319356 0.652548
0.000000 0.116550 0.281374
0.000000 0.139272 0.337669
0.000000 0.177704 0.427383
0.169188 0.276199 0.547538
0.478853 0.389324 0.652464
0.705123 0.470780 0.719098
0.806849 0.516355 0.755410
0.860762 0.562863 0.783785
0.883291 0.592822 0.801155
0.000000 0.216894 0.398408
0.000000 0.250125 0.455041
0.000000 0.327850 0.551873
0.188331 0.485295 0.682123
0.629455 0.648092 0.785715
0.835727 0.731186 0.838766
0.914569 0.777915 0.867484
0.944888 0.811096 0.883518
0.956517 0.829269 0.892566
0.000000 0.334086 0.506447
0.000000 0.384566 0.561608
0.000000 0.491981 0.657145
0.183327 0.670623 0.770917
0.735556 0.821759 0.862461
0.911265 0.881296 0.900269
0.959863 0.911874 0.920178
0.977699 0.928303 0.932469
0.984071 0.935944 0.937895
0.000000 0.437690 0.588075
0.000000 0.489904 0.636595
0.000000 0.590480 0.718357
0.206077 0.767225 0.817454
0.782856 0.896595 0.895577
0.938389 0.943071 0.929875
0.978692 0.959414 0.943996
0.989673 0.966746 0.951962
0.992978 0.970509 0.955838
0.000000 0.505745 0.639652
0.000000 0.552650 0.680463
0.000000 0.641171 0.748458
0.251312 0.814286 0.841470
0.809202 0.928758 0.912712
0.950121 0.962765 0.942049
0.983586 0.975424 0.954505
0.993674 0.980287 0.960720
0.996411 0.982186 0.963414
0.000000 0.538076 0.661943
0.000000 0.577220 0.697958
0.000000 0.656454 0.759038
0.210808 0.826441 0.848424
0.816629 0.939062 0.921399
0.956848 0.971869 0.948768
0.986360 0.980980 0.959803
0.995064 0.985169 0.965112
0.997858 0.987144 0.967822
0.000000 0.551594 0.672548
0.000000 0.591433 0.708462
0.000000 0.667138 0.766371
0.165716 0.830224 0.851392
0.815200 0.943068 0.924435
0.957605 0.974738 0.952016
0.987025 0.983495 0.962960
0.995527 0.987466 0.967945
0.998032 0.988662 0.970206
0.000000 0.037507 0.152994
0.000000 0.032237 0.182104
0.043069 0.038163 0.233105
0.102411 0.053178 0.301788
0.216897 0.084982 0.369984
0.353045 0.113328 0.427105
0.469042 0.122508 0.464999
0.550867 0.118750 0.490931
0.598509 0.125293 0.512031
0.000000 0.060373 0.214165
0.000000 0.070784 0.260322
0.000000 0.086144 0.337639
0.127950 0.141000 0.438744
0.332515 0.210347 0.530177
0.530434 0.256219 0.595032
0.661592 0.288972 0.637064
0.730679 0.312912 0.666329
0.768060 0.344431 0.692623
0.000000 0.128583 0.310889
0.000000 0.147752 0.365325
0.000000 0.189469 0.458995
0.153768 0.293980 0.583750
0.479524 0.410155 0.686514
0.709893 0.491993 0.752838
0.815380 0.542227 0.788149
0.868064 0.586670 0.814326
0.892815 0.623041 0.833704
0.000000 0.225457 0.422332
0.000000 0.258423 0.478579
0.000000 0.340249 0.576636
0.132313 0.497516 0.709259
0.626288 0.665141 0.812169
0.838566 0.748651 0.863099
0.915711 0.790870 0.886884
0.947128 0.825707 0.904434
0.959638 0.843540 0.914123
0.000000 0.343182 0.527017
0.000000 0.392001 0.581240
0.000000 0.495825 0.674782
0.000000 0.675742 0.790234
0.727434 0.830372 0.880056
0.910466 0.891186 0.918988
0.960335 0.918998 0.935405
0.977997 0.934179 0.945378
0.984442 0.941341 0.950664
0.000000 0.443674 0.604819
0.000000 0.495504 0.651650
0.000000 0.589514 0.728070
0.000000 0.767105 0.832261
0.774813 0.901474 0.912859
0.936743 0.947639 0.942799
0.978625 0.963532 0.957570
0.989701 0.970872 0.963865
0.993138 0.974628 0.966643
0.000000 0.508184 0.651729
0.000000 0.556601 0.695007
0.000000 0.635904 0.755811
0.000000 0.807484 0.851613
0.799046 0.930404 0.925523
0.949304 0.966429 0.954073
0.983898 0.977928 0.966495
0.993426 0.982470 0.970033
0.996417 0.984440 0.972174
0.000000 0.541194 0.674120
0.000000 0.581695 0.710388
0.000000 0.652667 0.766493
0.000000 0.821795 0.858860
0.806695 0.940473 0.931919
0.953762 0.973999 0.959695
0.985966 0.983091 0.969450
0.994616 0.987239 0.973162
0.997625 0.988898 0.975177
0.000000 0.554622 0.684532
0.000000 0.594789 0.718736
0.000000 0.662653 0.772894
0.000000 0.826898 0.862254
0.806991 0.944562 0.934451
0.955270 0.976921 0.962524
0.986563 0.985495 0.971147
0.995157 0.989067 0.974898
0.997830 0.990140 0.976683
0.000000 0.036764 0.163234
0.000000 0.032103 0.194555
0.037854 0.034772 0.251947
0.102195 0.053741 0.323658
0.219104 0.087810 0.393200
0.364497 0.118832 0.456174
0.485026 0.128347 0.494407
0.573290 0.129487 0.522305
0.614191 0.140093 0.543752
0.000000 0.063078 0.229008
0.000000 0.076549 0.278357
0.000000 0.090465 0.357814
0.122185 0.147143 0.457721
0.333874 0.221416 0.554537
0.541147 0.273100 0.621360
0.673576 0.307647 0.666214
0.742706 0.334129 0.694266
0.779324 0.365174 0.719977
0.000000 0.136827 0.329433
0.000000 0.156222 0.384519
0.000000 0.199090 0.474976
0.121463 0.302640 0.600541
0.479984 0.427332 0.708425
0.714485 0.512509 0.772207
0.823978 0.563973 0.808742
0.877256 0.612699 0.835845
0.899452 0.643921 0.850304
0.000000 0.235340 0.442201
0.000000 0.270091 0.497118
0.000000 0.349131 0.590624
0.000000 0.505527 0.721543
0.621031 0.675150 0.827463
0.838849 0.763318 0.876313
0.918983 0.807146 0.902117
0.950128 0.839894 0.918162
0.961529 0.855775 0.925076
0.000000 0.351798 0.543332
0.000000 0.401557 0.595298
0.000000 0.498747 0.683520
0.000000 0.674747 0.798881
0.721507 0.835549 0.889996
0.910384 0.896881 0.927277
0.961060 0.924438 0.943967
0.978438 0.938437 0.953752
0.984774 0.945878 0.958613
0.000000 0.447328 0.613717
0.000000 0.498125 0.661142
0.000000 0.584817 0.731509
0.000000 0.760904 0.836094
0.767032 0.902398 0.918767
0.935864 0.950092 0.950105
0.978348 0.965419 0.963855
0.989632 0.972471 0.968339
0.993029 0.975778 0.970662
0.000000 0.512819 0.660890
0.000000 0.558996 0.701218
0.000000 0.627328 0.756878
0.000000 0.804188 0.857323
0.787644 0.930567 0.931711
0.945992 0.967872 0.961072
0.982780 0.979017 0.970599
0.993054 0.983609 0.974332
0.996328 0.985773 0.976539
0.000000 0.542936 0.681914
0.000000 0.584062 0.716594
0.000000 0.640602 0.765143
0.000000 0.815184 0.863148
0.795419 0.940311 0.937095
0.951244 0.974654 0.964651
0.985175 0.984093 0.973220
0.994417 0.988382 0.977440
0.997491 0.989825 0.979041
0.000000 0.556230 0.690998
0.000000 0.597016 0.724452
0.000000 0.653792 0.773469
0.000000 0.820843 0.865842
0.793810 0.943762 0.939434
0.952289 0.977251 0.966336
0.985535 0.986126 0.974376
0.994786 0.989823 0.978518
0.997714 0.991000 0.980218
