transforms/JF03_silver_color_pull_fpe_r709.cube
#  JF_03_FPE_r709.cube
LUT_3D_SIZE 5
0.000000 0.000000 0.000000
0.034227 0.027469 0.018676
0.136639 0.068001 0.033777
0.292725 0.095464 0.000000
0.389836 0.100059 0.000000
0.013781 0.028311 0.021855
0.072556 0.073654 0.049126
0.338386 0.176688 0.000000
0.635358 0.234535 0.000000
0.730155 0.268938 0.000000
0.000000 0.094326 0.063024
0.141531 0.211240 0.060005
0.667906 0.467949 0.000000
0.909034 0.595648 0.000000
0.952195 0.644763 0.000000
0.000000 0.159485 0.089759
0.162166 0.367589 0.000000
0.820742 0.674709 0.000000
0.988497 0.762586 0.000000
1.010399 0.790275 0.000000
0.000000 0.200157 0.115862
0.140984 0.419250 0.000000
0.852836 0.727549 0.000000
1.005774 0.803819 0.000000
1.021334 0.825481 0.000000
0.015959 0.019221 0.029443
0.041392 0.038773 0.051105
0.168426 0.078953 0.089794
0.359659 0.107016 0.101263
0.467238 0.104892 0.115454
0.000000 0.054024 0.070911
0.075658 0.106426 0.127899
0.410852 0.234428 0.204758
0.723764 0.318766 0.261715
0.807433 0.373782 0.308113
0.000000 0.166417 0.175566
0.000000 0.297442 0.233549
0.740154 0.632134 0.375736
0.953232 0.760354 0.467878
0.982039 0.810501 0.526245
0.000000 0.321924 0.294400
0.000000 0.485565 0.328236
0.847269 0.822318 0.493320
0.995720 0.895156 0.582454
1.006632 0.915891 0.638385
0.000000 0.396678 0.361598
0.000000 0.537725 0.378248
0.862316 0.862415 0.555894
0.998821 0.924971 0.656679
1.008769 0.939802 0.698845
0.013025 0.036280 0.088022
0.051367 0.053156 0.136132
0.188712 0.083998 0.215809
0.408847 0.109990 0.279865
0.527154 0.107164 0.318235
0.000000 0.087044 0.188821
0.000000 0.142942 0.301793
0.449373 0.319365 0.496783
0.775987 0.431360 0.600441
0.856285 0.508261 0.662339
0.000000 0.287734 0.403452
0.000000 0.427736 0.535410
0.740987 0.766429 0.745348
0.956860 0.873046 0.828035
0.982004 0.906690 0.856254
0.000000 0.466508 0.553036
0.000000 0.616932 0.662525
0.827055 0.907765 0.831523
0.985257 0.960023 0.888422
0.997303 0.969988 0.909213
0.000000 0.518938 0.596764
0.000000 0.656860 0.699127
0.835823 0.929528 0.854761
0.988308 0.973002 0.910993
0.999240 0.979753 0.923585
0.000000 0.038009 0.137140
0.047005 0.044837 0.207979
0.210256 0.082600 0.332821
0.450768 0.115569 0.421130
0.579652 0.114459 0.466948
0.000000 0.116550 0.281374
0.000000 0.177704 0.427383
0.478853 0.389324 0.652464
0.806849 0.516355 0.755410
0.883291 0.592822 0.801155
0.000000 0.334086 0.506447
0.000000 0.491981 0.657145
0.735556 0.821759 0.862461
0.959863 0.911874 0.920178
0.984071 0.935944 0.937895
0.000000 0.505745 0.639652
0.000000 0.641171 0.748458
0.809202 0.928758 0.912712
0.983586 0.975424 0.954505
0.996411 0.982186 0.963414
0.000000 0.551594 0.672548
0.000000 0.667138 0.766371
0.815200 0.943068 0.924435
0.987025 0.983495 0.962960
0.998032 0.988662 0.970206
0.000000 0.036764 0.163234
0.037854 0.034772 0.251947
0.219104 0.087810 0.393200
0.485026 0.128347 0.494407
0.614191 0.140093 0.543752
0.000000 0.136827 0.329433
0.000000 0.199090 0.474976
0.479984 0.427332 0.708425
0.823978 0.563973 0.808742
0.899452 0.643921 0.850304
0.000000 0.351798 0.543332
0.000000 0.498747 0.683520
0.721507 0.835549 0.889996
0.961060 0.924438 0.943967
0.984774 0.945878 0.958613
0.000000 0.512819 0.660890
0.000000 0.627328 0.756878
0.787644 0.930567 0.931711
0.982780 0.979017 0.970599
0.996328 0.985773 0.976539
0.000000 0.556230 0.690998
0.000000 0.653792 0.773469
0.793810 0.943762 0.939434
0.985535 0.986126 0.974376
0.997714 0.991000 0.980218
