transforms/JF03_silver_color_pull_fpe_r709.cube
#  JF_03_FPE_r709.cube
LUT_3D_SIZE 33
0.000000 0.000000 0.000000
0.000750 0.000718 0.000598
0.001778 0.001636 0.001372
0.003731 0.003288 0.002685
0.006649 0.005684 0.004588
0.010707 0.008836 0.007006
0.016314 0.013106 0.010124
0.024212 0.019490 0.014183
0.034227 0.027469 0.018676
0.041044 0.033115 0.021409
0.050759 0.039538 0.024600
0.062307 0.046872 0.028011
0.075892 0.053919 0.031807
0.090680 0.059914 0.034463
0.105698 0.062413 0.034467
0.120856 0.064893 0.034159
0.136639 0.068001 0.033777
0.158792 0.071943 0.031723
0.177915 0.075434 0.029411
0.198111 0.078633 0.025825
0.219506 0.082563 0.017776
0.240880 0.086553 0.000000
0.258277 0.089510 0.000000
0.276694 0.092793 0.000000
0.292725 0.095464 0.000000
0.311004 0.096686 0.000000
0.326470 0.097621 0.000000
0.341830 0.098483 0.000000
0.357109 0.099251 0.000000
0.365773 0.099599 0.000000
0.374067 0.099473 0.000000
0.382759 0.099764 0.000000
0.389836 0.100059 0.000000
0.000749 0.000746 0.000628
0.000803 0.000812 0.000682
0.001942 0.001898 0.001571
0.004062 0.003788 0.003069
0.007136 0.006381 0.005097
0.011514 0.009970 0.007823
0.017563 0.014906 0.011256
0.025980 0.022008 0.015572
0.036857 0.031536 0.021072
0.044468 0.037641 0.024062
0.056316 0.044612 0.027853
0.069271 0.052021 0.031612
0.084566 0.059787 0.035993
0.100799 0.063816 0.036839
0.117298 0.067601 0.037134
0.133892 0.071184 0.037093
0.154931 0.075440 0.036103
0.178408 0.079675 0.033675
0.199134 0.083619 0.031768
0.220138 0.087610 0.026795
0.246464 0.092693 0.013573
0.269315 0.097204 0.000000
0.287940 0.100612 0.000000
0.307326 0.102934 0.000000
0.329632 0.104523 0.000000
0.348087 0.105110 0.000000
0.365940 0.106387 0.000000
0.381805 0.107126 0.000000
0.399272 0.107798 0.000000
0.407866 0.108109 0.000000
0.416629 0.107836 0.000000
0.425414 0.107147 0.000000
0.432850 0.107135 0.000000
0.001743 0.001878 0.001563
0.001911 0.002089 0.001723
0.002291 0.002372 0.001921
0.004331 0.004244 0.003392
0.007746 0.007198 0.005717
0.012334 0.011119 0.008657
0.019007 0.017162 0.012654
0.027787 0.024954 0.017345
0.039459 0.035681 0.023547
0.049175 0.042490 0.027164
0.061946 0.049769 0.031434
0.077416 0.057771 0.036284
0.093934 0.064558 0.039298
0.111254 0.068726 0.039895
0.129207 0.073320 0.039857
0.149249 0.077758 0.039434
0.173413 0.083084 0.038288
0.197797 0.088214 0.036535
0.221183 0.092745 0.032798
0.246880 0.097828 0.024709
0.273016 0.103245 0.000000
0.299536 0.108242 0.000000
0.320474 0.110380 0.000000
0.344522 0.111597 0.000000
0.367157 0.113040 0.000000
0.388190 0.113858 0.000000
0.406488 0.115507 0.000000
0.424468 0.116252 0.000000
0.442635 0.116431 0.000000
0.451397 0.116075 0.000000
0.460314 0.115668 0.000000
0.469099 0.115229 0.000000
0.478515 0.115640 0.000000
0.003108 0.003569 0.002922
0.003452 0.003974 0.003219
0.004072 0.004423 0.003532
0.004823 0.004968 0.003926
0.008274 0.008087 0.006334
0.013240 0.012482 0.009578
0.020465 0.019382 0.014031
0.030054 0.028423 0.019565
0.042450 0.040161 0.026576
0.054997 0.047602 0.031200
0.069212 0.055457 0.036208
0.085797 0.064095 0.041227
0.104332 0.069556 0.042540
0.123483 0.075039 0.042617
0.142757 0.080481 0.042387
0.168170 0.086116 0.041871
0.193858 0.091931 0.040511
0.220433 0.097880 0.038197
0.246691 0.103170 0.031879
0.275135 0.109280 0.019144
0.303611 0.115111 0.000000
0.334213 0.119363 0.000000
0.358909 0.121660 0.000000
0.383587 0.123286 0.000000
0.407260 0.125466 0.000000
0.429075 0.127303 0.000000
0.448850 0.127160 0.000000
0.469106 0.127521 0.000000
0.487360 0.127744 0.000000
0.496090 0.127623 0.000000
0.505489 0.128237 0.000000
0.515891 0.127870 0.000000
0.523742 0.128781 0.000000
0.004881 0.006067 0.004872
0.005416 0.006651 0.005318
0.006489 0.007555 0.005954
0.007710 0.008477 0.006635
0.009201 0.009444 0.007260
0.014430 0.014461 0.010783
0.022110 0.022193 0.015901
0.032569 0.032391 0.022794
0.047036 0.044920 0.030901
0.060978 0.053188 0.036134
0.077777 0.062089 0.041865
0.096567 0.070268 0.045162
0.115681 0.075842 0.045620
0.136679 0.082780 0.045667
0.160756 0.089203 0.045288
0.188169 0.096722 0.043560
0.214744 0.104026 0.040810
0.248303 0.112336 0.033790
0.278602 0.119120 0.020044
0.308207 0.125161 0.000000
0.341944 0.130089 0.000000
0.376101 0.133716 0.000000
0.401402 0.135712 0.000000
0.427193 0.138317 0.000000
0.452850 0.139866 0.000000
0.474969 0.140586 0.000000
0.495377 0.141339 0.000000
0.515596 0.142486 0.000000
0.534264 0.143593 0.000000
0.545445 0.144239 0.000000
0.554318 0.145037 0.000000
0.562046 0.145027 0.000000
0.567996 0.146116 0.000000
0.006934 0.009479 0.007534
0.007759 0.010390 0.008207
0.009290 0.011446 0.008975
0.011168 0.012821 0.009884
0.013459 0.014661 0.011135
0.015848 0.017030 0.012638
0.023792 0.025258 0.018153
0.035085 0.036424 0.025776
0.053063 0.050356 0.035513
0.068172 0.059126 0.041191
0.086829 0.068886 0.047370
0.106920 0.076224 0.048895
0.128696 0.084785 0.048513
0.151751 0.093802 0.047451
0.179738 0.102204 0.046060
0.208381 0.110746 0.043018
0.241196 0.119517 0.037587
0.278662 0.128114 0.024306
0.311639 0.134517 0.000000
0.346110 0.140472 0.000000
0.384570 0.145276 0.000000
0.419718 0.148701 0.000000
0.446245 0.152171 0.000000
0.471696 0.152837 0.000000
0.497483 0.153887 0.000000
0.519753 0.155811 0.000000
0.542626 0.159148 0.000000
0.563093 0.161394 0.000000
0.577703 0.165000 0.000000
0.586194 0.166688 0.000000
0.594028 0.167167 0.000000
0.603061 0.169886 0.000000
0.608555 0.170599 0.000000
0.009293 0.013721 0.010840
0.010423 0.014854 0.011594
0.012520 0.016676 0.012870
0.015473 0.019188 0.014565
0.018576 0.021487 0.016153
0.021705 0.024597 0.018036
0.025618 0.028256 0.020568
0.037293 0.040055 0.028915
0.058656 0.055664 0.039954
0.075340 0.065198 0.046131
0.096064 0.077117 0.051518
0.118819 0.086673 0.051078
0.141002 0.096259 0.050314
0.169011 0.106420 0.048960
0.201216 0.116624 0.046164
0.232119 0.125902 0.041549
0.271526 0.134449 0.030041
0.310415 0.143122 0.000000
0.347596 0.149639 0.000000
0.387046 0.156095 0.000000
0.427139 0.162691 0.000000
0.464904 0.167847 0.000000
0.491292 0.170664 0.000000
0.519182 0.173107 0.000000
0.545025 0.175975 0.000000
0.569824 0.179645 0.000000
0.586676 0.183279 0.000000
0.602435 0.186951 0.000000
0.617882 0.189690 0.000000
0.626640 0.191787 0.000000
0.636004 0.194943 0.000000
0.644903 0.196996 0.000000
0.651778 0.197890 0.000000
0.011715 0.019738 0.015392
0.013491 0.021557 0.016667
0.016430 0.023924 0.018354
0.020469 0.027274 0.020624
0.025061 0.030733 0.022986
0.029369 0.035146 0.025896
0.033768 0.039001 0.028718
0.041933 0.044921 0.032667
0.064341 0.063185 0.044362
0.085430 0.076873 0.051312
0.107002 0.087877 0.054201
0.131179 0.099169 0.053731
0.155187 0.109979 0.052135
0.189093 0.121196 0.049552
0.224193 0.132694 0.044966
0.261717 0.142456 0.036192
0.303406 0.153946 0.010668
0.347192 0.164682 0.000000
0.389084 0.171926 0.000000
0.429451 0.178954 0.000000
0.471896 0.185706 0.000000
0.510214 0.191135 0.000000
0.538593 0.194730 0.000000
0.567177 0.199167 0.000000
0.592728 0.202432 0.000000
0.611196 0.206451 0.000000
0.627303 0.210411 0.000000
0.644629 0.214571 0.000000
0.661033 0.218855 0.000000
0.670025 0.221556 0.000000
0.679024 0.224259 0.000000
0.685843 0.226988 0.000000
0.691714 0.229443 0.000000
0.013781 0.028311 0.021855
0.016678 0.030520 0.023544
0.021011 0.033928 0.025815
0.027189 0.038112 0.028801
0.032899 0.042893 0.031916
0.038125 0.047972 0.035357
0.043691 0.054573 0.039287
0.054479 0.061718 0.043019
0.072556 0.073654 0.049126
0.094652 0.088940 0.056396
0.118002 0.100296 0.056441
0.143523 0.112565 0.055447
0.175209 0.125397 0.053137
0.212847 0.139698 0.048839
0.250424 0.152872 0.041450
0.294069 0.165009 0.023137
0.338386 0.176688 0.000000
0.387542 0.188043 0.000000
0.430765 0.196511 0.000000
0.475704 0.204035 0.000000
0.518211 0.210666 0.000000
0.558744 0.217064 0.000000
0.587830 0.223235 0.000000
0.613803 0.229148 0.000000
0.635358 0.234535 0.000000
0.654594 0.240083 0.000000
0.672507 0.245683 0.000000
0.689096 0.251108 0.000000
0.703351 0.256348 0.000000
0.710185 0.259090 0.000000
0.716862 0.261763 0.000000
0.725219 0.266085 0.000000
0.730155 0.268938 0.000000
0.012908 0.033852 0.026259
0.017790 0.036988 0.028306
0.023024 0.040765 0.030854
0.030508 0.045438 0.033864
0.036210 0.051315 0.037553
0.041365 0.057739 0.041735
0.048059 0.065432 0.045994
0.062649 0.074800 0.050068
0.081623 0.086360 0.054435
0.105598 0.100625 0.058904
0.130338 0.114113 0.058258
0.157793 0.128851 0.056763
0.197139 0.143836 0.052427
0.236433 0.159787 0.045782
0.280814 0.174512 0.032127
0.327758 0.187945 0.000000
0.375307 0.200757 0.000000
0.429232 0.213138 0.000000
0.475684 0.223889 0.000000
0.521880 0.234073 0.000000
0.565203 0.242644 0.000000
0.608665 0.252366 0.000000
0.634511 0.258438 0.000000
0.656233 0.264234 0.000000
0.679498 0.270331 0.000000
0.700659 0.277445 0.000000
0.714065 0.281969 0.000000
0.727429 0.289274 0.000000
0.740503 0.294997 0.000000
0.747169 0.298153 0.000000
0.753566 0.301325 0.000000
0.760139 0.304590 0.000000
0.765721 0.307704 0.000000
0.010502 0.040175 0.030897
0.017416 0.043828 0.033376
0.025039 0.048046 0.036123
0.032742 0.054208 0.040071
0.038664 0.060800 0.044005
0.044927 0.068739 0.048603
0.053299 0.078328 0.053364
0.072193 0.089819 0.057814
0.091473 0.101318 0.060693
0.115405 0.115065 0.060456
0.142302 0.130098 0.059290
0.176565 0.145753 0.056479
0.219102 0.163674 0.050516
0.263867 0.181306 0.039491
0.313980 0.198089 0.000000
0.363300 0.214470 0.000000
0.417402 0.229121 0.000000
0.473375 0.244610 0.000000
0.522294 0.255970 0.000000
0.568806 0.266445 0.000000
0.614476 0.276691 0.000000
0.651717 0.286288 0.000000
0.675501 0.293633 0.000000
0.700329 0.300124 0.000000
0.724006 0.308707 0.000000
0.738507 0.316232 0.000000
0.751354 0.323586 0.000000
0.765170 0.332766 0.000000
0.777628 0.338841 0.000000
0.785068 0.344350 0.000000
0.791629 0.348135 0.000000
0.796817 0.351969 0.000000
0.801975 0.357575 0.000000
0.000000 0.047682 0.036452
0.012813 0.052152 0.039257
0.023486 0.057335 0.042603
0.034029 0.064358 0.046991
0.040765 0.073235 0.051679
0.048506 0.083705 0.057010
0.060412 0.094636 0.060576
0.078341 0.105478 0.061548
0.098696 0.117605 0.062225
0.127329 0.133442 0.061093
0.157438 0.148283 0.060006
0.198015 0.166261 0.055171
0.244013 0.188153 0.044425
0.296727 0.210642 0.011269
0.350894 0.230232 0.000000
0.404647 0.248087 0.000000
0.462771 0.263904 0.000000
0.522850 0.282296 0.000000
0.573541 0.293323 0.000000
0.620034 0.305956 0.000000
0.660427 0.318111 0.000000
0.694095 0.329558 0.000000
0.719669 0.339015 0.000000
0.742399 0.348305 0.000000
0.759914 0.356490 0.000000
0.775730 0.366143 0.000000
0.789906 0.374145 0.000000
0.803863 0.383595 0.000000
0.815033 0.391549 0.000000
0.819840 0.395480 0.000000
0.824647 0.399412 0.000000
0.829467 0.403344 0.000000
0.834576 0.408985 0.000000
0.000000 0.056727 0.043235
0.000000 0.061200 0.046030
0.020145 0.067302 0.049309
0.033381 0.076285 0.054434
0.040012 0.087102 0.059648
0.045164 0.098003 0.061076
0.060684 0.108985 0.062164
0.082977 0.121832 0.063196
0.109259 0.135020 0.063204
0.140650 0.151560 0.061885
0.176119 0.171171 0.058315
0.222502 0.193878 0.048879
0.271124 0.218073 0.028270
0.328468 0.240681 0.000000
0.387839 0.263178 0.000000
0.449042 0.282418 0.000000
0.510036 0.303583 0.000000
0.572340 0.324821 0.000000
0.623850 0.339944 0.000000
0.667790 0.353029 0.000000
0.702817 0.364785 0.000000
0.736678 0.376446 0.000000
0.760242 0.386259 0.000000
0.778835 0.396525 0.000000
0.796467 0.406685 0.000000
0.814375 0.417688 0.000000
0.827288 0.426518 0.000000
0.838019 0.437012 0.000000
0.848197 0.447163 0.000000
0.852976 0.451466 0.000000
0.857626 0.455878 0.000000
0.862295 0.460261 0.000000
0.866560 0.464717 0.000000
0.000000 0.066506 0.050220
0.000000 0.072295 0.053685
0.000000 0.078127 0.056593
0.024008 0.087695 0.059677
0.025111 0.098734 0.061324
0.035509 0.111034 0.062641
0.061387 0.124660 0.064145
0.087050 0.137751 0.064713
0.118760 0.155003 0.063979
0.154150 0.175257 0.061006
0.196891 0.198335 0.053432
0.247026 0.223508 0.037296
0.302467 0.248056 0.000000
0.365326 0.276418 0.000000
0.430279 0.302658 0.000000
0.494060 0.325950 0.000000
0.560622 0.349981 0.000000
0.622716 0.371476 0.000000
0.676998 0.389633 0.000000
0.710240 0.399922 0.000000
0.745363 0.412692 0.000000
0.777131 0.425823 0.000000
0.795996 0.437380 0.000000
0.815028 0.448969 0.000000
0.834262 0.460664 0.000000
0.849090 0.471865 0.000000
0.859084 0.482392 0.000000
0.869571 0.493075 0.000000
0.880259 0.503859 0.000000
0.884888 0.508266 0.000000
0.888985 0.512568 0.000000
0.892715 0.515181 0.000000
0.895423 0.519538 0.000000
0.000000 0.076626 0.057433
0.000000 0.082058 0.060109
0.000000 0.087955 0.060325
0.000000 0.097394 0.061496
0.000000 0.110156 0.063140
0.021509 0.124001 0.063954
0.059705 0.138663 0.065335
0.090045 0.155204 0.065928
0.126868 0.175248 0.063304
0.167093 0.197396 0.058422
0.216709 0.224005 0.046305
0.267907 0.251876 0.000000
0.330956 0.281962 0.000000
0.397374 0.311231 0.000000
0.466914 0.340816 0.000000
0.534872 0.366112 0.000000
0.600589 0.389850 0.000000
0.664975 0.415766 0.000000
0.712549 0.434315 0.000000
0.746059 0.445759 0.000000
0.782399 0.460927 0.000000
0.809490 0.475357 0.000000
0.830075 0.487593 0.000000
0.848819 0.499611 0.000000
0.865090 0.511426 0.000000
0.876476 0.522371 0.000000
0.886834 0.533150 0.000000
0.896385 0.542726 0.000000
0.906060 0.552437 0.000000
0.909319 0.556449 0.000000
0.911443 0.558709 0.000000
0.914411 0.562610 0.000000
0.916805 0.566292 0.000000
0.000000 0.085556 0.061038
0.000000 0.090283 0.061710
0.000000 0.096286 0.061939
0.000000 0.106117 0.063020
0.000000 0.119543 0.063994
0.000000 0.134803 0.064732
0.054168 0.151630 0.066106
0.092926 0.169924 0.065535
0.134242 0.192413 0.062010
0.179092 0.217403 0.054310
0.230138 0.248506 0.034001
0.286083 0.279982 0.000000
0.355185 0.311455 0.000000
0.425092 0.344665 0.000000
0.500420 0.374701 0.000000
0.569597 0.403934 0.000000
0.635146 0.430238 0.000000
0.698585 0.455134 0.000000
0.741496 0.473028 0.000000
0.778224 0.488676 0.000000
0.811830 0.505065 0.000000
0.839520 0.521942 0.000000
0.859663 0.533380 0.000000
0.875863 0.544412 0.000000
0.887529 0.554606 0.000000
0.898809 0.564728 0.000000
0.907610 0.572879 0.000000
0.917117 0.582421 0.000000
0.923523 0.591676 0.000000
0.926725 0.595610 0.000000
0.929670 0.599399 0.000000
0.932639 0.603157 0.000000
0.935239 0.606930 0.000000
0.000000 0.094326 0.063024
0.000000 0.098545 0.063241
0.000000 0.104705 0.063485
0.000000 0.114569 0.064452
0.000000 0.129649 0.065416
0.000000 0.145838 0.065913
0.049541 0.164296 0.066359
0.094538 0.184687 0.065424
0.141531 0.211240 0.060005
0.188645 0.241775 0.047892
0.246008 0.276111 0.000000
0.307545 0.309925 0.000000
0.380712 0.342852 0.000000
0.455614 0.379208 0.000000
0.532602 0.413448 0.000000
0.601256 0.442324 0.000000
0.667906 0.467949 0.000000
0.727844 0.493726 0.000000
0.771263 0.513653 0.000000
0.809784 0.530406 0.000000
0.837764 0.546448 0.000000
0.866192 0.563877 0.000000
0.885024 0.575345 0.000000
0.896927 0.585503 0.000000
0.909034 0.595648 0.000000
0.920465 0.605507 0.000000
0.928260 0.613312 0.000000
0.933959 0.620819 0.000000
0.940229 0.629813 0.000000
0.943783 0.633807 0.000000
0.946678 0.637696 0.000000
0.949455 0.641276 0.000000
0.952195 0.644763 0.000000
0.000000 0.103240 0.065094
0.000000 0.106975 0.064900
0.000000 0.113158 0.065044
0.000000 0.124005 0.066191
0.000000 0.140796 0.066822
0.000000 0.157659 0.066923
0.039808 0.177651 0.066649
0.096794 0.201762 0.064221
0.145221 0.232660 0.056142
0.198540 0.266563 0.036415
0.261247 0.304024 0.000000
0.331055 0.340137 0.000000
0.405822 0.379711 0.000000
0.484158 0.415424 0.000000
0.563207 0.452697 0.000000
0.632758 0.481291 0.000000
0.701057 0.507034 0.000000
0.753202 0.530575 0.000000
0.798049 0.550007 0.000000
0.833382 0.567366 0.000000
0.862137 0.584605 0.000000
0.890919 0.601748 0.000000
0.905171 0.615179 0.000000
0.917479 0.625555 0.000000
0.929636 0.635265 0.000000
0.939168 0.642385 0.000000
0.944128 0.648622 0.000000
0.949409 0.654959 0.000000
0.954382 0.661115 0.000000
0.957604 0.664551 0.000000
0.960536 0.667887 0.000000
0.963676 0.672587 0.000000
0.966070 0.675804 0.000000
0.000000 0.111069 0.066866
0.000000 0.114539 0.066407
0.000000 0.122160 0.067230
0.000000 0.134373 0.068335
0.000000 0.150490 0.068571
0.000000 0.168399 0.068218
0.010522 0.191354 0.067019
0.093270 0.219627 0.063160
0.147709 0.252031 0.052708
0.207327 0.289038 0.000000
0.274488 0.329471 0.000000
0.348832 0.369594 0.000000
0.424584 0.408338 0.000000
0.507525 0.446836 0.000000
0.589521 0.485364 0.000000
0.657495 0.511796 0.000000
0.725964 0.538698 0.000000
0.775184 0.561621 0.000000
0.820860 0.582464 0.000000
0.851912 0.599667 0.000000
0.880714 0.616705 0.000000
0.905428 0.632024 0.000000
0.919589 0.642638 0.000000
0.931461 0.651418 0.000000
0.944007 0.660444 0.000000
0.950893 0.668554 0.000000
0.955846 0.674745 0.000000
0.960681 0.679764 0.000000
0.965564 0.685896 0.000000
0.969173 0.690527 0.000000
0.972013 0.694048 0.000000
0.973826 0.697146 0.000000
0.975694 0.700462 0.000000
0.000000 0.119848 0.070067
0.000000 0.124354 0.070438
0.000000 0.132606 0.070485
0.000000 0.144025 0.070488
0.000000 0.160929 0.070330
0.000000 0.180938 0.069183
0.000000 0.207014 0.067093
0.091045 0.237090 0.061710
0.150764 0.271821 0.047486
0.215913 0.311906 0.000000
0.286653 0.356301 0.000000
0.363998 0.396998 0.000000
0.446572 0.439649 0.000000
0.530626 0.478045 0.000000
0.611908 0.515838 0.000000
0.682027 0.543273 0.000000
0.746415 0.568011 0.000000
0.795804 0.592225 0.000000
0.841501 0.613385 0.000000
0.869307 0.628251 0.000000
0.897580 0.643117 0.000000
0.919184 0.658512 0.000000
0.933443 0.667862 0.000000
0.945338 0.676785 0.000000
0.955384 0.686441 0.000000
0.962512 0.694621 0.000000
0.967395 0.700722 0.000000
0.972133 0.705671 0.000000
0.976993 0.711796 0.000000
0.979907 0.716317 0.000000
0.981928 0.719714 0.000000
0.983791 0.723034 0.000000
0.985338 0.725458 0.000000
0.000000 0.129697 0.074563
0.000000 0.135053 0.074436
0.000000 0.142457 0.073354
0.000000 0.153845 0.072634
0.000000 0.171696 0.071872
0.000000 0.195335 0.069886
0.000000 0.222017 0.067095
0.086116 0.255620 0.059421
0.152546 0.292971 0.040360
0.223126 0.336242 0.000000
0.299096 0.382035 0.000000
0.382003 0.425650 0.000000
0.465970 0.467930 0.000000
0.550668 0.506983 0.000000
0.635896 0.545256 0.000000
0.706098 0.572758 0.000000
0.766477 0.598200 0.000000
0.815093 0.619082 0.000000
0.857765 0.638841 0.000000
0.885972 0.654058 0.000000
0.914318 0.670120 0.000000
0.933019 0.683791 0.000000
0.947494 0.694256 0.000000
0.959049 0.702946 0.000000
0.966818 0.712339 0.000000
0.973629 0.719670 0.000000
0.977947 0.724311 0.000000
0.982343 0.728441 0.000000
0.985589 0.732968 0.000000
0.987451 0.735560 0.000000
0.989320 0.739058 0.000000
0.991079 0.741780 0.000000
0.992600 0.744166 0.000000
0.000000 0.138813 0.079085
0.000000 0.144378 0.078431
0.000000 0.151650 0.076344
0.000000 0.162240 0.074167
0.000000 0.184723 0.073766
0.000000 0.208453 0.070719
0.000000 0.236929 0.066756
0.080171 0.271324 0.057189
0.155055 0.313571 0.025267
0.232888 0.358529 0.000000
0.312900 0.406512 0.000000
0.399571 0.451153 0.000000
0.484051 0.492365 0.000000
0.569869 0.531843 0.000000
0.654496 0.569321 0.000000
0.725151 0.598267 0.000000
0.781703 0.620398 0.000000
0.831567 0.641039 0.000000
0.870772 0.659487 0.000000
0.899552 0.675639 0.000000
0.924754 0.690244 0.000000
0.942853 0.703676 0.000000
0.957069 0.713589 0.000000
0.966215 0.720137 0.000000
0.973174 0.727396 0.000000
0.979824 0.733620 0.000000
0.984422 0.738281 0.000000
0.987977 0.742237 0.000000
0.990733 0.746005 0.000000
0.992913 0.749686 0.000000
0.994456 0.752118 0.000000
0.996162 0.754836 0.000000
0.997648 0.757226 0.000000
0.000000 0.145881 0.082277
0.000000 0.150848 0.081010
0.000000 0.159433 0.078541
0.000000 0.173788 0.077573
0.000000 0.195099 0.075953
0.000000 0.219881 0.071522
0.000000 0.249817 0.066554
0.072269 0.287969 0.053975
0.156969 0.331175 0.000000
0.238719 0.378573 0.000000
0.324017 0.427371 0.000000
0.411394 0.471869 0.000000
0.499636 0.514884 0.000000
0.588969 0.555231 0.000000
0.672535 0.591128 0.000000
0.743178 0.618131 0.000000
0.796143 0.639394 0.000000
0.845776 0.660145 0.000000
0.882604 0.679865 0.000000
0.911378 0.694985 0.000000
0.933553 0.708610 0.000000
0.950611 0.718062 0.000000
0.964382 0.727094 0.000000
0.971812 0.733143 0.000000
0.978750 0.740333 0.000000
0.985393 0.746468 0.000000
0.990025 0.751305 0.000000
0.992866 0.755066 0.000000
0.995986 0.760229 0.000000
0.997998 0.762938 0.000000
0.999484 0.765313 0.000000
1.001020 0.767935 0.000000
1.002535 0.770387 0.000000
0.000000 0.152393 0.085706
0.000000 0.158005 0.083922
0.000000 0.170026 0.083409
0.000000 0.184649 0.081917
0.000000 0.206485 0.077496
0.000000 0.232534 0.071922
0.000000 0.264386 0.065993
0.054438 0.305335 0.049390
0.159173 0.350663 0.000000
0.246817 0.399165 0.000000
0.337151 0.448147 0.000000
0.425583 0.492975 0.000000
0.514868 0.534376 0.000000
0.605051 0.575932 0.000000
0.687745 0.608948 0.000000
0.758917 0.636239 0.000000
0.809012 0.658234 0.000000
0.858236 0.679103 0.000000
0.894514 0.700516 0.000000
0.922539 0.711872 0.000000
0.941252 0.722513 0.000000
0.957544 0.731611 0.000000
0.970532 0.739384 0.000000
0.977443 0.746414 0.000000
0.984067 0.752485 0.000000
0.990637 0.758304 0.000000
0.994737 0.763162 0.000000
0.997639 0.768031 0.000000
1.000645 0.772439 0.000000
1.002913 0.776156 0.000000
1.004397 0.778534 0.000000
1.005911 0.780987 0.000000
1.007432 0.783460 0.000000
0.000000 0.159485 0.089759
0.000000 0.168489 0.089529
0.000000 0.181021 0.088607
0.000000 0.194593 0.085666
0.000000 0.216416 0.077831
0.000000 0.244594 0.072060
0.000000 0.278164 0.065253
0.025431 0.320497 0.044796
0.162166 0.367589 0.000000
0.253431 0.415984 0.000000
0.345031 0.466281 0.000000
0.440262 0.513985 0.000000
0.527701 0.553319 0.000000
0.617880 0.591545 0.000000
0.700660 0.625504 0.000000
0.771286 0.653841 0.000000
0.820742 0.674709 0.000000
0.867862 0.695522 0.000000
0.903223 0.712981 0.000000
0.931357 0.724244 0.000000
0.947778 0.734374 0.000000
0.963881 0.743532 0.000000
0.975357 0.750929 0.000000
0.981925 0.756813 0.000000
0.988497 0.762586 0.000000
0.995111 0.768561 0.000000
0.998546 0.773463 0.000000
1.001651 0.778670 0.000000
1.004420 0.782610 0.000000
1.006230 0.784788 0.000000
1.007711 0.786638 0.000000
1.009054 0.788456 0.000000
1.010399 0.790275 0.000000
0.000000 0.165464 0.093313
0.000000 0.176422 0.094002
0.000000 0.188941 0.093155
0.000000 0.202105 0.088585
0.000000 0.223745 0.080332
0.000000 0.251713 0.073102
0.000000 0.286848 0.064664
0.000000 0.330771 0.040542
0.164353 0.378273 0.000000
0.259792 0.428580 0.000000
0.352881 0.479334 0.000000
0.446735 0.526645 0.000000
0.536990 0.566268 0.000000
0.627707 0.605033 0.000000
0.710443 0.637997 0.000000
0.778759 0.664705 0.000000
0.828542 0.686866 0.000000
0.873448 0.704646 0.000000
0.909648 0.721222 0.000000
0.936876 0.733431 0.000000
0.952439 0.742530 0.000000
0.968534 0.752330 0.000000
0.979020 0.759610 0.000000
0.985578 0.765405 0.000000
0.992153 0.771163 0.000000
0.998486 0.777040 0.000000
1.001289 0.780765 0.000000
1.004023 0.784761 0.000000
1.006684 0.788245 0.000000
1.008663 0.790397 0.000000
1.010006 0.792217 0.000000
1.011549 0.794351 0.000000
1.012603 0.795953 0.000000
0.000000 0.173288 0.097866
0.000000 0.183262 0.098002
0.000000 0.195668 0.096884
0.000000 0.209689 0.091782
0.000000 0.230112 0.082198
0.000000 0.259997 0.074096
0.000000 0.293941 0.064212
0.000000 0.340933 0.032842
0.167613 0.389841 0.000000
0.266127 0.441171 0.000000
0.358481 0.491515 0.000000
0.455599 0.540780 0.000000
0.546298 0.578822 0.000000
0.634638 0.615856 0.000000
0.719800 0.649453 0.000000
0.788084 0.677229 0.000000
0.835177 0.695733 0.000000
0.879931 0.713679 0.000000
0.915069 0.729272 0.000000
0.940904 0.741260 0.000000
0.957230 0.751290 0.000000
0.972597 0.760828 0.000000
0.982910 0.768113 0.000000
0.989230 0.774019 0.000000
0.995414 0.778532 0.000000
1.000585 0.782796 0.000000
1.003571 0.786557 0.000000
1.006309 0.790560 0.000000
1.008787 0.793348 0.000000
