transforms/JF04_color_push_d65_r709.cube
#  JF_04_D65_r709.cube
LUT_3D_SIZE 9
0.000000 0.000000 0.000000
0.033789 0.000000 0.000000
0.285329 0.000000 0.000000
0.587053 0.000000 0.000000
0.877086 0.000000 0.000000
1.059209 0.000000 0.000000
1.088126 0.000000 0.000000
1.088126 0.000000 0.000000
1.088126 0.000000 0.000000
0.000000 0.019177 0.000000
0.011743 0.016110 0.000000
0.194014 0.000000 0.000000
0.472767 0.000000 0.000000
0.780371 0.000000 0.000000
1.010464 0.000000 0.000000
1.088125 0.000000 0.000000
1.088126 0.000000 0.000000
1.088126 0.000000 0.000000
0.000000 0.185102 0.000000
0.000000 0.170856 0.000000
0.109213 0.154546 0.000000
0.378369 0.118595 0.000000
0.690547 0.000000 0.000000
0.954522 0.000000 0.000000
1.082639 0.000000 0.000000
1.087865 0.000000 0.000000
1.087933 0.000000 0.000000
0.000000 0.404371 0.000000
0.000000 0.385719 0.000000
0.000000 0.365725 0.000000
0.258013 0.342664 0.000000
0.591508 0.305362 0.000000
0.883974 0.241947 0.000000
1.060409 0.152416 0.000000
1.084641 0.065978 0.000000
1.085169 0.000000 0.000000
0.000000 0.651202 0.000000
0.000000 0.631192 0.000000
0.000000 0.610661 0.000000
0.000000 0.589348 0.000000
0.452967 0.563044 0.000000
0.792491 0.527574 0.000000
1.013831 0.488104 0.000000
1.072475 0.455933 0.000000
1.074037 0.431007 0.000000
0.000000 0.862550 0.000000
0.000000 0.847067 0.000000
0.000000 0.831028 0.000000
0.000000 0.814549 0.000000
0.152145 0.794792 0.000000
0.666775 0.768669 0.000000
0.942163 0.739732 0.000000
1.047550 0.714995 0.000000
1.050647 0.693675 0.000000
0.000000 0.991902 0.000000
0.000000 0.984518 0.000000
0.000000 0.977137 0.000000
0.000000 0.968152 0.000000
0.000000 0.956861 0.000000
0.500985 0.942201 0.000000
0.849579 0.923230 0.000000
1.009697 0.905304 0.000000
1.021244 0.891545 0.000000
0.000000 1.017231 0.000000
0.000000 1.017231 0.000000
0.000000 1.017231 0.000000
0.000000 1.017205 0.000000
0.000000 1.016533 0.000000
0.305487 1.012192 0.000000
0.757929 1.004580 0.000000
0.970401 0.996036 0.000000
1.001735 0.991445 0.000000
0.000000 1.017231 0.000000
0.000000 1.017231 0.000000
0.000000 1.017231 0.000000
0.000000 1.017224 0.000000
0.000000 1.016850 0.000000
0.000000 1.014426 0.000000
0.675648 1.008587 0.000000
0.935151 1.002039 0.000000
0.999919 0.999919 0.000000
0.000000 0.000000 0.039213
0.032368 0.000000 0.033841
0.279438 0.000000 0.042477
0.580234 0.000000 0.000000
0.871596 0.000000 0.000000
1.056778 0.000000 0.000000
1.088126 0.000000 0.000000
1.088126 0.000000 0.000000
1.088126 0.000000 0.000000
0.000000 0.016531 0.020308
0.011275 0.013339 0.016246
0.188989 0.000000 0.000000
0.464319 0.000000 0.000000
0.772413 0.000000 0.000000
1.006770 0.000000 0.000000
1.088126 0.000000 0.000000
1.088126 0.000000 0.000000
1.088126 0.000000 0.000000
0.000000 0.172041 0.000000
0.000000 0.158153 0.000000
0.107741 0.143702 0.000000
0.370820 0.104354 0.000000
0.682527 0.000000 0.000000
0.949815 0.000000 0.000000
1.081649 0.000000 0.000000
1.087918 0.000000 0.000000
1.087976 0.000000 0.000000
0.000000 0.388823 0.000000
0.000000 0.368892 0.000000
0.000000 0.349093 0.000000
0.255546 0.327548 0.000000
0.585813 0.289916 0.000000
0.879342 0.222329 0.000000
1.059119 0.113430 0.000000
1.085091 0.000000 0.000000
1.085571 0.000000 0.000000
0.000000 0.634308 0.000000
0.000000 0.613830 0.000000
0.000000 0.593344 0.000000
0.000000 0.571904 0.000000
0.449805 0.545402 0.000000
0.788341 0.509427 0.000000
1.012214 0.468004 0.000000
1.073685 0.436793 0.000000
1.075247 0.410151 0.000000
0.000000 0.849537 0.000000
0.000000 0.833495 0.000000
0.000000 0.817476 0.000000
0.000000 0.799896 0.000000
0.155066 0.780178 0.000000
0.661199 0.754751 0.000000
0.940353 0.723726 0.000000
1.049236 0.698447 0.000000
1.052516 0.677925 0.000000
0.000000 0.986222 0.000000
0.000000 0.978840 0.000000
0.000000 0.969675 0.000000
0.000000 0.960244 0.000000
0.000000 0.949434 0.000000
0.495882 0.932760 0.000000
0.846398 0.913709 0.000000
1.010425 0.895056 0.000000
1.023246 0.880213 0.000000
0.000000 1.017231 0.000000
0.000000 1.017231 0.000000
0.000000 1.017231 0.000000
0.000000 1.017208 0.000000
0.000000 1.015738 0.000000
0.288897 1.011385 0.000000
0.752009 1.002884 0.000000
0.968271 0.993337 0.000000
1.002309 0.988738 0.000000
0.000000 1.017231 0.000000
0.000000 1.017231 0.000000
0.000000 1.017231 0.000000
0.000000 1.017225 0.000000
0.000000 1.016877 0.000000
0.000000 1.014515 0.000000
0.667715 1.008742 0.000000
0.931619 1.002149 0.000000
0.999919 0.999919 0.000000
0.000000 0.000000 0.338471
0.066335 0.000000 0.319072
0.275024 0.000000 0.295249
0.575125 0.000000 0.264385
0.868741 0.000000 0.218516
1.054956 0.000000 0.160662
1.088126 0.000000 0.108193
1.088126 0.000000 0.000000
1.088126 0.000000 0.000000
0.000000 0.030589 0.258537
0.023190 0.024799 0.237995
0.185218 0.000000 0.215929
0.460944 0.000000 0.187264
0.769233 0.000000 0.129480
1.004001 0.000000 0.000000
1.088126 0.000000 0.000000
1.088126 0.000000 0.000000
1.088126 0.000000 0.000000
0.000000 0.162590 0.193791
0.000000 0.149491 0.174543
0.107013 0.133969 0.155409
0.366326 0.093881 0.128347
0.679373 0.000000 0.014404
0.946291 0.000000 0.000000
1.081169 0.000000 0.000000
1.087960 0.000000 0.000000
1.088008 0.000000 0.000000
0.000000 0.374960 0.087846
0.000000 0.356778 0.058021
0.000000 0.337035 0.000000
0.254159 0.314358 0.000000
0.581696 0.275863 0.000000
0.875933 0.203883 0.000000
1.057680 0.051672 0.000000
1.085395 0.000000 0.000000
1.085830 0.000000 0.000000
0.000000 0.621717 0.000000
0.000000 0.601226 0.000000
0.000000 0.580744 0.000000
0.000000 0.559130 0.000000
0.447352 0.532596 0.000000
0.785201 0.495664 0.000000
1.011711 0.453225 0.000000
1.074709 0.419613 0.000000
1.076081 0.394865 0.000000
0.000000 0.839663 0.000000
0.000000 0.823635 0.000000
0.000000 0.806804 0.000000
0.000000 0.789249 0.000000
0.156765 0.769384 0.000000
0.658995 0.741913 0.000000
0.938672 0.712106 0.000000
1.050567 0.685867 0.000000
1.054145 0.663730 0.000000
0.000000 0.981110 0.000000
0.000000 0.973275 0.000000
0.000000 0.963917 0.000000
0.000000 0.954495 0.000000
0.000000 0.941684 0.000000
0.491944 0.925901 0.000000
0.844118 0.906094 0.000000
1.011519 0.885815 0.000000
1.024676 0.871971 0.000000
0.000000 1.017231 0.000000
0.000000 1.017231 0.000000
0.000000 1.017231 0.000000
0.000000 1.016796 0.000000
0.000000 1.015016 0.000000
0.275935 1.010633 0.000000
0.747572 1.000740 0.000000
0.966659 0.991378 0.000000
1.003108 0.984954 0.000000
0.000000 1.017231 0.000000
0.000000 1.017231 0.000000
0.000000 1.017231 0.000000
0.000000 1.017226 0.000000
0.000000 1.016888 0.000000
0.000000 1.014580 0.000000
0.661737 1.008856 0.000000
0.928968 1.002231 0.000000
0.999919 0.999919 0.000000
0.000000 0.000000 0.667188
0.064837 0.000000 0.645146
0.272086 0.000000 0.620400
0.571720 0.000000 0.591623
0.864461 0.000000 0.560273
1.053740 0.000000 0.526523
1.088126 0.000000 0.496518
1.088126 0.000000 0.467829
1.088126 0.000000 0.439895
0.000000 0.026894 0.575619
0.022832 0.021779 0.551171
0.181447 0.000000 0.524161
0.455913 0.000000 0.494754
0.764462 0.000000 0.461016
1.002154 0.000000 0.423741
1.088126 0.000000 0.388956
1.088126 0.000000 0.360575
1.088126 0.000000 0.330418
0.000000 0.153819 0.498214
0.000000 0.140867 0.472035
0.105516 0.126450 0.446099
0.363420 0.083000 0.418681
0.674517 0.000000 0.383998
0.943948 0.000000 0.344253
1.080414 0.000000 0.303654
1.087992 0.000000 0.272157
1.088030 0.000000 0.242073
0.000000 0.364346 0.418370
0.000000 0.344696 0.393323
0.000000 0.325185 0.368558
0.252235 0.302677 0.341202
0.577417 0.263369 0.309448
0.873750 0.186787 0.264801
1.056788 0.000000 0.213876
1.085670 0.000000 0.173710
1.086072 0.000000 0.132691
0.000000 0.609101 0.320111
0.000000 0.588642 0.292538
0.000000 0.567947 0.267510
0.000000 0.546380 0.239339
0.446901 0.519548 0.202915
0.782023 0.481893 0.137718
1.010383 0.438441 0.000000
1.075564 0.404440 0.000000
1.076879 0.379376 0.000000
0.000000 0.829797 0.133576
0.000000 0.813474 0.000000
0.000000 0.796142 0.000000
0.000000 0.778609 0.000000
0.159391 0.758058 0.000000
0.658228 0.730476 0.000000
0.938159 0.700030 0.000000
1.051765 0.673279 0.000000
1.055552 0.651093 0.000000
0.000000 0.977137 0.000000
0.000000 0.967515 0.000000
0.000000 0.958162 0.000000
0.000000 0.948021 0.000000
0.000000 0.935655 0.000000
0.490530 0.919011 0.000000
0.843304 0.898021 0.000000
1.012116 0.877616 0.000000
1.026263 0.862680 0.000000
0.000000 1.017231 0.000000
0.000000 1.017231 0.000000
0.000000 1.017231 0.000000
0.000000 1.016133 0.000000
0.000000 1.014451 0.000000
0.268891 1.008693 0.000000
0.744605 0.999061 0.000000
0.965884 0.988730 0.000000
1.003814 0.981590 0.000000
0.000000 1.017231 0.000000
0.000000 1.017231 0.000000
0.000000 1.017231 0.000000
0.000000 1.017226 0.000000
0.000000 1.016903 0.000000
0.000000 1.014645 0.000000
0.655732 1.008970 0.000000
0.927201 1.002286 0.000000
0.999919 0.999919 0.000000
0.000000 0.000000 0.932999
0.063343 0.000000 0.917693
0.269149 0.000000 0.900798
0.568318 0.000000 0.880735
0.861609 0.000000 0.857526
1.052525 0.000000 0.833456
1.088126 0.000000 0.811072
1.088126 0.000000 0.788870
1.088126 0.000000 0.764265
0.000000 0.023894 0.868336
0.021979 0.018364 0.849420
0.178934 0.000000 0.828611
0.452571 0.000000 0.804248
0.761283 0.000000 0.778395
1.000307 0.000000 0.750230
1.088126 0.000000 0.722291
1.088126 0.000000 0.697370
1.088126 0.000000 0.670383
0.000000 0.146254 0.807901
0.000000 0.133355 0.784401
0.105232 0.118551 0.761239
0.360452 0.072812 0.736947
0.671232 0.000000 0.707919
0.940390 0.000000 0.676048
1.079915 0.000000 0.646214
1.088014 0.000000 0.618017
1.088048 0.000000 0.589627
0.000000 0.352244 0.741793
0.000000 0.332646 0.716282
0.000000 0.314995 0.692225
0.251565 0.292448 0.665203
0.574711 0.252593 0.635778
0.871488 0.170939 0.602309
1.055838 0.000000 0.568306
1.085892 0.000000 0.538341
1.086298 0.000000 0.508977
0.000000 0.598078 0.665418
0.000000 0.577555 0.639128
0.000000 0.556768 0.612348
0.000000 0.535233 0.585081
0.444029 0.507919 0.555344
0.780382 0.468003 0.521350
1.009783 0.423826 0.483729
1.076284 0.391013 0.450524
1.077550 0.365630 0.421073
0.000000 0.821172 0.575699
0.000000 0.804138 0.547586
0.000000 0.786823 0.519051
0.000000 0.768953 0.489886
0.167864 0.746719 0.458135
0.656988 0.720491 0.421009
0.937427 0.689271 0.378892
1.053018 0.660670 0.337602
1.056802 0.639560 0.304155
0.000000 0.971834 0.476662
0.000000 0.962477 0.443356
0.000000 0.953128 0.408861
0.000000 0.941112 0.374994
0.000000 0.928765 0.337819
0.489161 0.912028 0.288568
0.842474 0.889951 0.223896
1.012850 0.870173 0.134376
1.027822 0.853388 0.000000
0.000000 1.017231 0.380281
0.000000 1.017231 0.339975
0.000000 1.016650 0.296466
0.000000 1.015471 0.244554
0.000000 1.013316 0.181309
0.261306 1.007002 0.000000
0.741718 0.997131 0.000000
0.965256 0.985418 0.000000
1.004428 0.978646 0.000000
0.000000 1.017231 0.285264
0.000000 1.017231 0.233846
0.000000 1.017231 0.163469
0.000000 1.017227 0.000000
0.000000 1.016912 0.000000
0.000000 1.014687 0.000000
0.651714 1.009045 0.000000
0.925432 1.002340 0.000000
0.999919 0.999919 0.000000
0.000000 0.000000 1.039068
0.061850 0.000000 1.037790
0.266216 0.000000 1.035081
0.564773 0.000000 1.029667
0.860182 0.000000 1.021575
1.051311 0.000000 1.012001
1.088126 0.000000 1.002851
1.088126 0.000000 0.993457
1.088126 0.000000 0.982060
0.000000 0.020923 1.027752
0.021468 0.015378 1.021046
0.176418 0.000000 1.013754
0.449231 0.000000 1.003594
0.758103 0.000000 0.990607
0.998461 0.000000 0.975453
1.088126 0.000000 0.960472
1.088126 0.000000 0.945274
1.088126 0.000000 0.929095
0.000000 0.138719 1.004876
0.000000 0.125975 0.995334
0.104560 0.111760 0.982834
0.357503 0.059481 0.969226
0.667930 0.000000 0.953015
0.939232 0.000000 0.933766
1.079412 0.000000 0.913697
1.088033 0.000000 0.895045
1.088063 0.000000 0.875267
0.000000 0.341680 0.972480
0.000000 0.322394 0.958042
0.000000 0.304831 0.943268
0.250807 0.282240 0.926837
0.571969 0.241881 0.907871
0.869097 0.153851 0.884929
1.054863 0.000000 0.861637
1.086130 0.000000 0.839335
1.086481 0.000000 0.815766
0.000000 0.585499 0.927483
0.000000 0.566360 0.910645
0.000000 0.545606 0.892572
0.000000 0.523834 0.873424
0.443518 0.494565 0.851792
0.778516 0.455862 0.827325
1.009026 0.411074 0.799048
1.076977 0.377423 0.774353
1.078279 0.349819 0.749654
0.000000 0.812140 0.870342
0.000000 0.794812 0.851093
0.000000 0.776182 0.830132
0.000000 0.757613 0.807249
0.173193 0.736815 0.783474
0.655756 0.710050 0.756726
0.936882 0.676956 0.727386
1.054068 0.649559 0.697406
1.058019 0.628008 0.671257
0.000000 0.966795 0.806457
0.000000 0.957442 0.781948
0.000000 0.946360 0.758288
0.000000 0.935071 0.733320
0.000000 0.922605 0.707259
0.488297 0.904043 0.676096
0.841394 0.882904 0.643382
1.013302 0.862091 0.608511
1.029165 0.845257 0.579368
0.000000 1.017231 0.744631
0.000000 1.017148 0.716097
0.000000 1.016070 0.688871
0.000000 1.014893 0.658568
0.000000 1.011595 0.629038
0.253859 1.005062 0.594300
0.739017 0.994628 0.556711
0.964534 0.982526 0.515543
1.005039 0.975703 0.479937
0.000000 1.017231 0.681971
0.000000 1.017231 0.651459
0.000000 1.017231 0.621677
0.000000 1.017227 0.589263
0.000000 1.016922 0.557192
0.000000 1.014729 0.520143
0.647683 1.009119 0.476563
0.923663 1.002394 0.430215
0.999919 0.999919 0.382691
0.000000 0.000000 1.039747
0.060362 0.000000 1.039739
0.263284 0.000000 1.039489
0.561229 0.000000 1.038164
0.857331 0.000000 1.035362
1.050703 0.000000 1.032590
1.088126 0.000000 1.031959
1.088126 0.000000 1.031959
1.088126 0.000000 1.031959
0.000000 0.018402 1.039745
0.020792 0.013244 1.039745
0.173904 0.000000 1.039651
0.445893 0.000000 1.038835
0.754926 0.000000 1.036518
0.996615 0.000000 1.033446
1.088126 0.000000 1.031959
1.088126 0.000000 1.031959
1.088126 0.000000 1.031359
0.000000 0.131215 1.039519
0.000000 0.119225 1.039566
0.103799 0.104989 1.039574
0.354494 0.045829 1.039113
0.664623 0.000000 1.037287
0.936868 0.000000 1.033831
1.079168 0.000000 1.030186
1.088050 0.000000 1.027227
1.088076 0.000000 1.022884
0.000000 0.331142 1.037645
0.000000 0.312210 1.037923
0.000000 0.294692 1.038148
0.249877 0.272402 1.036736
0.569201 0.231091 1.033749
0.866579 0.134924 1.026724
1.053874 0.000000 1.019123
1.086325 0.000000 1.011090
1.086642 0.000000 1.002858
0.000000 0.575955 1.031098
0.000000 0.555183 1.030320
0.000000 0.534461 1.027632
0.000000 0.512252 1.023773
0.442506 0.482909 1.016873
0.776577 0.444093 1.007603
1.008243 0.398227 0.994710
1.077643 0.363668 0.983839
1.078890 0.335728 0.971609
0.000000 0.802805 1.014595
0.000000 0.785492 1.010603
0.000000 0.767758 1.004239
0.000000 0.747704 0.996483
0.178113 0.726921 0.986591
0.654511 0.699540 0.973836
0.936094 0.666193 0.957833
1.055131 0.638039 0.942210
1.059206 0.616437 0.926711
0.000000 0.961758 0.989636
0.000000 0.952409 0.980446
0.000000 0.940314 0.971057
0.000000 0.929032 0.959314
0.000000 0.915626 0.945944
0.486906 0.897068 0.929297
0.840392 0.875470 0.909635
1.013934 0.852850 0.889667
1.030487 0.837126 0.870263
0.000000 1.017231 0.961791
0.000000 1.016567 0.948711
0.000000 1.015490 0.934104
0.000000 1.013653 0.918439
0.000000 1.009866 0.900478
0.245332 1.003373 0.880739
0.736426 0.991796 0.856530
0.963810 0.979635 0.832438
1.005881 0.971623 0.808096
0.000000 1.017231 0.931165
0.000000 1.017231 0.914415
0.000000 1.017231 0.896951
0.000000 1.017227 0.877496
0.000000 1.016931 0.855768
0.000000 1.014771 0.833649
0.645663 1.009157 0.805656
0.921892 1.002448 0.776080
0.999919 0.999919 0.747262
0.000000 0.000000 1.039747
0.059617 0.000000 1.039739
0.261819 0.000000 1.039493
0.559458 0.000000 1.038176
0.854479 0.000000 1.035397
1.049488 0.000000 1.032610
1.088126 0.000000 1.031959
1.088126 0.000000 1.031959
1.088126 0.000000 1.031959
0.000000 0.015609 1.039745
0.020057 0.011423 1.039745
0.171487 0.000000 1.039654
0.442555 0.000000 1.038852
0.753338 0.000000 1.036534
0.994769 0.000000 1.033474
1.088038 0.000000 1.031961
1.088126 0.000000 1.031959
1.088126 0.000000 1.031959
0.000000 0.125010 1.039544
0.000000 0.112503 1.039589
0.102954 0.098239 1.039595
0.351472 0.031314 1.039137
0.661311 0.000000 1.037328
0.934500 0.000000 1.034301
1.078657 0.000000 1.032086
1.088065 0.000000 1.031936
1.088086 0.000000 1.031944
0.000000 0.320938 1.037798
0.000000 0.303502 1.038042
0.000000 0.284581 1.038276
0.248854 0.262641 1.038215
0.568137 0.219978 1.037007
0.864026 0.114227 1.034343
1.052871 0.000000 1.031769
1.086481 0.000000 1.031340
1.086794 0.000000 1.031458
0.000000 0.564763 1.032152
0.000000 0.544023 1.032807
0.000000 0.522998 1.033434
0.000000 0.500690 1.033901
0.442978 0.472888 1.033472
0.776175 0.432182 1.031482
1.008216 0.385171 1.028941
1.078279 0.349819 1.028266
1.079395 0.323429 1.028683
0.000000 0.793480 1.022457
0.000000 0.776183 1.023358
0.000000 0.757833 1.024282
0.000000 0.739218 1.025114
0.183462 0.716502 1.025387
0.653234 0.689039 1.024085
0.936211 0.656856 1.021770
1.056254 0.626495 1.020853
1.060363 0.604846 1.021620
0.000000 0.956724 1.012474
0.000000 0.946360 1.013191
0.000000 0.935134 1.013954
0.000000 0.922723 1.014754
0.000000 0.908651 1.015167
0.484999 0.891103 1.014218
0.839495 0.867522 1.011624
1.014630 0.845908 1.008486
1.031885 0.828393 1.006152
0.000000 1.017148 1.008061
0.000000 1.015988 1.008149
0.000000 1.014910 1.008231
0.000000 1.011918 1.008450
0.000000 1.008145 1.007552
0.238061 1.000704 1.004905
0.733836 0.988965 0.998384
0.963807 0.976558 0.991097
1.006717 0.967543 0.983037
0.000000 1.017231 1.008054
0.000000 1.017231 1.008054
0.000000 1.017231 1.006815
0.000000 1.017228 1.005045
0.000000 1.016940 1.000407
0.000000 1.014792 0.993912
0.641613 1.009231 0.983307
0.919942 1.002508 0.971326
0.999919 0.999919 0.958977
0.000000 0.000000 1.039747
0.058133 0.000000 1.039740
0.258891 0.000000 1.039500
0.555919 0.000000 1.038199
0.853055 0.000000 1.035415
1.048882 0.000000 1.032620
1.088126 0.000000 1.031959
1.088126 0.000000 1.031959
1.088126 0.000000 1.031959
0.000000 0.013830 1.039746
0.019787 0.009231 1.039746
0.170331 0.000000 1.039656
0.440887 0.000000 1.038860
0.750161 0.000000 1.036567
0.993846 0.000000 1.033488
1.087948 0.000000 1.031962
1.088126 0.000000 1.031959
1.088126 0.000000 1.031959
0.000000 0.118263 1.039569
0.000000 0.105812 1.039611
0.101800 0.092701 1.039612
0.348517 0.000000 1.039161
0.659683 0.000000 1.037354
0.933325 0.000000 1.034325
1.078409 0.000000 1.032097
1.088077 0.000000 1.031941
1.088094 0.000000 1.031947
0.000000 0.312210 1.037923
0.000000 0.293366 1.038176
0.000000 0.274899 1.038393
0.247756 0.252898 1.038328
0.565307 0.209043 1.037126
0.862893 0.087016 1.034442
1.052465 0.000000 1.031853
1.086642 0.000000 1.031401
1.086916 0.000000 1.031504
0.000000 0.553588 1.032509
0.000000 0.532881 1.033145
0.000000 0.511421 1.033766
0.000000 0.489147 1.034217
0.441756 0.461626 1.033774
0.774013 0.422095 1.031742
1.007278 0.374016 1.029178
1.078890 0.335728 1.028494
1.079961 0.308781 1.028895
0.000000 0.784161 1.022946
0.000000 0.766340 1.023858
0.000000 0.747920 1.024768
0.000000 0.729323 1.025584
0.191224 0.707561 1.025800
0.653797 0.678484 1.024556
0.935430 0.645637 1.022257
1.057088 0.616592 1.021230
1.061504 0.593080 1.022040
0.000000 0.952409 1.012774
0.000000 0.940314 1.013603
0.000000 0.929093 1.014359
0.000000 0.916732 1.015149
0.000000 0.901680 1.015626
0.486255 0.883716 1.014697
0.839940 0.859531 1.012566
1.015030 0.837828 1.011004
1.033297 0.819418 1.011763
0.000000 1.016567 1.008105
0.000000 1.015490 1.008187
0.000000 1.013669 1.008326
0.000000 1.010432 1.008563
0.000000 1.006424 1.008574
0.230141 0.998285 1.007594
0.733016 0.986095 1.005095
0.963201 0.973114 1.002676
1.007548 0.963463 1.002595
0.000000 1.017231 1.008054
0.000000 1.017231 1.008054
0.000000 1.017231 1.008054
0.000000 1.017228 1.008053
0.000000 1.016944 1.007919
0.000000 1.014833 1.006921
0.637551 1.009304 1.004317
0.917810 1.002573 1.001159
0.999919 0.999919 0.999919
