transforms/JF04_color_push_d65_r709.cube
#  JF_04_D65_r709.cube
LUT_3D_SIZE 33
0.000000 0.000000 0.000000
0.000467 0.000000 0.000000
0.003719 0.000000 0.000000
0.013567 0.000000 0.000000
0.033789 0.000000 0.000000
0.068025 0.000000 0.000000
0.118785 0.000000 0.000000
0.190523 0.000000 0.000000
0.285329 0.000000 0.000000
0.355830 0.000000 0.000000
0.430889 0.000000 0.000000
0.506756 0.000000 0.000000
0.587053 0.000000 0.000000
0.665047 0.000000 0.000000
0.740638 0.000000 0.000000
0.810650 0.000000 0.000000
0.877086 0.000000 0.000000
0.935857 0.000000 0.000000
0.987095 0.000000 0.000000
1.028017 0.000000 0.000000
1.059209 0.000000 0.000000
1.078749 0.000000 0.000000
1.087240 0.000000 0.000000
1.088126 0.000000 0.000000
1.088126 0.000000 0.000000
1.088126 0.000000 0.000000
1.088126 0.000000 0.000000
1.088126 0.000000 0.000000
1.088126 0.000000 0.000000
1.088126 0.000000 0.000000
1.088126 0.000000 0.000000
1.088126 0.000000 0.000000
1.088126 0.000000 0.000000
0.000000 0.000109 0.000000
0.000162 0.000093 0.000000
0.002460 0.000000 0.000000
0.010101 0.000000 0.000000
0.027085 0.000000 0.000000
0.057073 0.000000 0.000000
0.102776 0.000000 0.000000
0.169131 0.000000 0.000000
0.257429 0.000000 0.000000
0.324655 0.000000 0.000000
0.397847 0.000000 0.000000
0.474492 0.000000 0.000000
0.554149 0.000000 0.000000
0.631348 0.000000 0.000000
0.708107 0.000000 0.000000
0.781890 0.000000 0.000000
0.850206 0.000000 0.000000
0.911387 0.000000 0.000000
0.965738 0.000000 0.000000
1.011392 0.000000 0.000000
1.047060 0.000000 0.000000
1.071628 0.000000 0.000000
1.085555 0.000000 0.000000
1.088126 0.000000 0.000000
1.088126 0.000000 0.000000
1.088126 0.000000 0.000000
1.088126 0.000000 0.000000
1.088126 0.000000 0.000000
1.088126 0.000000 0.000000
1.088126 0.000000 0.000000
1.088126 0.000000 0.000000
1.088126 0.000000 0.000000
1.088126 0.000000 0.000000
0.000000 0.001603 0.000000
0.000000 0.001478 0.000000
0.001343 0.001343 0.000000
0.007553 0.000755 0.000000
0.021645 0.000000 0.000000
0.048007 0.000000 0.000000
0.090371 0.000000 0.000000
0.150496 0.000000 0.000000
0.233921 0.000000 0.000000
0.300101 0.000000 0.000000
0.370333 0.000000 0.000000
0.445894 0.000000 0.000000
0.524131 0.000000 0.000000
0.602415 0.000000 0.000000
0.680156 0.000000 0.000000
0.754926 0.000000 0.000000
0.825820 0.000000 0.000000
0.888948 0.000000 0.000000
0.946662 0.000000 0.000000
0.995692 0.000000 0.000000
1.034945 0.000000 0.000000
1.064171 0.000000 0.000000
1.081135 0.000000 0.000000
1.088038 0.000000 0.000000
1.088126 0.000000 0.000000
1.088126 0.000000 0.000000
1.088126 0.000000 0.000000
1.088126 0.000000 0.000000
1.088126 0.000000 0.000000
1.088126 0.000000 0.000000
1.088126 0.000000 0.000000
1.088126 0.000000 0.000000
1.088126 0.000000 0.000000
0.000000 0.007230 0.000000
0.000000 0.006794 0.000000
0.000000 0.006357 0.000000
0.004785 0.005857 0.000000
0.017191 0.006629 0.000000
0.040669 0.000000 0.000000
0.078353 0.000000 0.000000
0.135344 0.000000 0.000000
0.213308 0.000000 0.000000
0.276483 0.000000 0.000000
0.346413 0.000000 0.000000
0.420902 0.000000 0.000000
0.496546 0.000000 0.000000
0.576826 0.000000 0.000000
0.654923 0.000000 0.000000
0.729538 0.000000 0.000000
0.801559 0.000000 0.000000
0.868741 0.000000 0.000000
0.928659 0.000000 0.000000
0.980684 0.000000 0.000000
1.022632 0.000000 0.000000
1.054956 0.000000 0.000000
1.077158 0.000000 0.000000
1.086707 0.000000 0.000000
1.088126 0.000000 0.000000
1.088126 0.000000 0.000000
1.088126 0.000000 0.000000
1.088126 0.000000 0.000000
1.088126 0.000000 0.000000
1.088126 0.000000 0.000000
1.088126 0.000000 0.000000
1.088126 0.000000 0.000000
1.088126 0.000000 0.000000
0.000000 0.019177 0.000000
0.000000 0.018646 0.000000
0.000000 0.017850 0.000000
0.000000 0.017043 0.000000
0.011743 0.016110 0.000000
0.033207 0.018626 0.000000
0.068444 0.017260 0.000000
0.121198 0.000000 0.000000
0.194014 0.000000 0.000000
0.255938 0.000000 0.000000
0.323038 0.000000 0.000000
0.396180 0.000000 0.000000
0.472767 0.000000 0.000000
0.550589 0.000000 0.000000
0.629653 0.000000 0.000000
0.706450 0.000000 0.000000
0.780371 0.000000 0.000000
0.847350 0.000000 0.000000
0.910061 0.000000 0.000000
0.964666 0.000000 0.000000
1.010464 0.000000 0.000000
1.046450 0.000000 0.000000
1.070749 0.000000 0.000000
1.085376 0.000000 0.000000
1.088125 0.000000 0.000000
1.088125 0.000000 0.000000
1.088125 0.000000 0.000000
1.088126 0.000000 0.000000
1.088126 0.000000 0.000000
1.088126 0.000000 0.000000
1.088126 0.000000 0.000000
1.088126 0.000000 0.000000
1.088126 0.000000 0.000000
0.000000 0.040649 0.000000
0.000000 0.039379 0.000000
0.000000 0.038112 0.000000
0.000000 0.036846 0.000000
0.000000 0.035537 0.000000
0.023761 0.034021 0.000000
0.057647 0.038775 0.000000
0.106431 0.040268 0.000000
0.175640 0.031702 0.000000
0.236196 0.000000 0.000000
0.301270 0.000000 0.000000
0.373351 0.000000 0.000000
0.447420 0.000000 0.000000
0.525789 0.000000 0.000000
0.605755 0.000000 0.000000
0.683381 0.000000 0.000000
0.756469 0.000000 0.000000
0.827302 0.000000 0.000000
0.891556 0.000000 0.000000
0.949041 0.000000 0.000000
0.997520 0.000000 0.000000
1.035699 0.000000 0.000000
1.064597 0.000000 0.000000
1.081653 0.000000 0.000000
1.088116 0.000000 0.000000
1.088117 0.000000 0.000000
1.088119 0.000000 0.000000
1.088120 0.000000 0.000000
1.088121 0.000000 0.000000
1.088121 0.000000 0.000000
1.088122 0.000000 0.000000
1.088123 0.000000 0.000000
1.088123 0.000000 0.000000
0.000000 0.073994 0.000000
0.000000 0.071910 0.000000
0.000000 0.069907 0.000000
0.000000 0.068065 0.000000
0.000000 0.066213 0.000000
0.000000 0.064266 0.000000
0.042964 0.062005 0.000000
0.091860 0.068913 0.000000
0.157179 0.073205 0.000000
0.215802 0.061810 0.000000
0.279856 0.036107 0.000000
0.350389 0.000000 0.000000
0.425396 0.000000 0.000000
0.501283 0.000000 0.000000
0.581661 0.000000 0.000000
0.659769 0.000000 0.000000
0.735715 0.000000 0.000000
0.805971 0.000000 0.000000
0.872914 0.000000 0.000000
0.932166 0.000000 0.000000
0.983812 0.000000 0.000000
1.025643 0.000000 0.000000
1.056723 0.000000 0.000000
1.077904 0.000000 0.000000
1.086929 0.000000 0.000000
1.088086 0.000000 0.000000
1.088089 0.000000 0.000000
1.088094 0.000000 0.000000
1.088097 0.000000 0.000000
1.088100 0.000000 0.000000
1.088103 0.000000 0.000000
1.088107 0.000000 0.000000
1.088109 0.000000 0.000000
0.000000 0.120966 0.000000
0.000000 0.118178 0.000000
0.000000 0.115395 0.000000
0.000000 0.112618 0.000000
0.000000 0.109840 0.000000
0.000000 0.107282 0.000000
0.000000 0.104560 0.000000
0.070978 0.101405 0.000000
0.137108 0.112476 0.000000
0.194657 0.105886 0.000000
0.258881 0.095753 0.000000
0.327317 0.079143 0.000000
0.401343 0.038355 0.000000
0.478569 0.000000 0.000000
0.556928 0.000000 0.000000
0.635804 0.000000 0.000000
0.712577 0.000000 0.000000
0.786041 0.000000 0.000000
0.854166 0.000000 0.000000
0.915086 0.000000 0.000000
0.968711 0.000000 0.000000
1.013967 0.000000 0.000000
1.048707 0.000000 0.000000
1.072792 0.000000 0.000000
1.085682 0.000000 0.000000
1.087998 0.000000 0.000000
1.088008 0.000000 0.000000
1.088019 0.000000 0.000000
1.088028 0.000000 0.000000
1.088036 0.000000 0.000000
1.088043 0.000000 0.000000
1.088052 0.000000 0.000000
1.088059 0.000000 0.000000
0.000000 0.185102 0.000000
0.000000 0.181532 0.000000
0.000000 0.177969 0.000000
0.000000 0.174411 0.000000
0.000000 0.170856 0.000000
0.000000 0.166105 0.000000
0.000000 0.162452 0.000000
0.025700 0.158718 0.000000
0.109213 0.154546 0.000000
0.171608 0.149322 0.000000
0.235216 0.142453 0.000000
0.304513 0.132782 0.000000
0.378369 0.118595 0.000000
0.453554 0.094996 0.000000
0.532924 0.045820 0.000000
0.612996 0.000000 0.000000
0.690547 0.000000 0.000000
0.763555 0.000000 0.000000
0.833786 0.000000 0.000000
0.897547 0.000000 0.000000
0.954522 0.000000 0.000000
1.001671 0.000000 0.000000
1.039904 0.000000 0.000000
1.066419 0.000000 0.000000
1.082639 0.000000 0.000000
1.087800 0.000000 0.000000
1.087821 0.000000 0.000000
1.087847 0.000000 0.000000
1.087865 0.000000 0.000000
1.087882 0.000000 0.000000
1.087898 0.000000 0.000000
1.087918 0.000000 0.000000
1.087933 0.000000 0.000000
0.000000 0.234176 0.000000
0.000000 0.230295 0.000000
0.000000 0.226419 0.000000
0.000000 0.222547 0.000000
0.000000 0.218680 0.000000
0.000000 0.214812 0.000000
0.000000 0.210901 0.000000
0.000000 0.205580 0.000000
0.057827 0.201220 0.000000
0.141527 0.196345 0.000000
0.209239 0.190675 0.000000
0.279930 0.183424 0.000000
0.353821 0.173909 0.000000
0.429288 0.159889 0.000000
0.508141 0.142106 0.000000
0.589280 0.115384 0.000000
0.667802 0.066635 0.000000
0.741912 0.000000 0.000000
0.813640 0.000000 0.000000
0.879709 0.000000 0.000000
0.938302 0.000000 0.000000
0.989134 0.000000 0.000000
1.028638 0.000000 0.000000
1.059603 0.000000 0.000000
1.078784 0.000000 0.000000
1.086793 0.000000 0.000000
1.087454 0.000000 0.000000
1.087503 0.000000 0.000000
1.087539 0.000000 0.000000
1.087572 0.000000 0.000000
1.087612 0.000000 0.000000
1.087641 0.000000 0.000000
1.087668 0.000000 0.000000
0.000000 0.287587 0.000000
0.000000 0.283316 0.000000
0.000000 0.279164 0.000000
0.000000 0.275018 0.000000
0.000000 0.270876 0.000000
0.000000 0.266736 0.000000
0.000000 0.262579 0.000000
0.000000 0.256974 0.000000
0.000000 0.252566 0.000000
0.091086 0.247780 0.000000
0.175894 0.242404 0.000000
0.251294 0.236032 0.000000
0.327014 0.228481 0.000000
0.403172 0.217767 0.000000
0.482673 0.205781 0.000000
0.564543 0.190187 0.000000
0.643802 0.170249 0.000000
0.719342 0.143956 0.000000
0.792537 0.100785 0.000000
0.860503 0.000000 0.000000
0.921665 0.000000 0.000000
0.974468 0.000000 0.000000
1.018601 0.000000 0.000000
1.050947 0.000000 0.000000
1.074114 0.000000 0.000000
1.084976 0.000000 0.000000
1.086836 0.000000 0.000000
1.086896 0.000000 0.000000
1.086955 0.000000 0.000000
1.087031 0.000000 0.000000
1.087086 0.000000 0.000000
1.087138 0.000000 0.000000
1.087185 0.000000 0.000000
0.000000 0.344696 0.000000
0.000000 0.340174 0.000000
0.000000 0.335655 0.000000
0.000000 0.331142 0.000000
0.000000 0.326766 0.000000
0.000000 0.322393 0.000000
0.000000 0.316559 0.000000
0.000000 0.312143 0.000000
0.000000 0.307615 0.000000
0.000000 0.302859 0.000000
0.124567 0.297703 0.000000
0.215156 0.291902 0.000000
0.296238 0.283683 0.000000
0.374449 0.275765 0.000000
0.455148 0.266364 0.000000
0.537396 0.254885 0.000000
0.618611 0.241025 0.000000
0.696954 0.222682 0.000000
0.770392 0.202851 0.000000
0.840060 0.178546 0.000000
0.903556 0.148138 0.000000
0.959159 0.102068 0.000000
1.005582 0.000000 0.000000
1.042463 0.000000 0.000000
1.067731 0.000000 0.000000
1.082712 0.000000 0.000000
1.085830 0.000000 0.000000
1.085923 0.000000 0.000000
1.086043 0.000000 0.000000
1.086130 0.000000 0.000000
1.086215 0.000000 0.000000
1.086325 0.000000 0.000000
1.086405 0.000000 0.000000
0.000000 0.404371 0.000000
0.000000 0.399702 0.000000
0.000000 0.395037 0.000000
0.000000 0.390376 0.000000
0.000000 0.385719 0.000000
0.000000 0.379517 0.000000
0.000000 0.374954 0.000000
0.000000 0.370372 0.000000
0.000000 0.365725 0.000000
0.000000 0.360925 0.000000
0.000000 0.354333 0.000000
0.164470 0.348827 0.000000
0.258013 0.342664 0.000000
0.343109 0.335613 0.000000
0.424689 0.327535 0.000000
0.508131 0.316426 0.000000
0.591508 0.305362 0.000000
0.671528 0.292667 0.000000
0.747945 0.278180 0.000000
0.818581 0.260163 0.000000
0.883974 0.241947 0.000000
0.942298 0.221954 0.000000
0.991606 0.200629 0.000000
1.031188 0.175455 0.000000
1.060409 0.152416 0.000000
1.077703 0.130819 0.000000
1.084334 0.112576 0.000000
1.084511 0.089875 0.000000
1.084641 0.065978 0.000000
1.084767 0.000000 0.000000
1.084932 0.000000 0.000000
1.085052 0.000000 0.000000
1.085169 0.000000 0.000000
0.000000 0.465787 0.000000
0.000000 0.461020 0.000000
0.000000 0.456258 0.000000
0.000000 0.449914 0.000000
0.000000 0.445160 0.000000
0.000000 0.440411 0.000000
0.000000 0.435662 0.000000
0.000000 0.430904 0.000000
0.000000 0.424572 0.000000
0.000000 0.419723 0.000000
0.000000 0.414680 0.000000
0.028098 0.409324 0.000000
0.206487 0.403518 0.000000
0.303574 0.395482 0.000000
0.392053 0.388185 0.000000
0.477856 0.379901 0.000000
0.561953 0.370495 0.000000
0.643982 0.358199 0.000000
0.722591 0.346396 0.000000
0.796323 0.333455 0.000000
0.864658 0.319441 0.000000
0.924884 0.302916 0.000000
0.977250 0.287788 0.000000
1.019430 0.273008 0.000000
1.050835 0.259232 0.000000
1.072109 0.244530 0.000000
1.081214 0.234711 0.000000
1.082474 0.226837 0.000000
1.082711 0.216738 0.000000
1.082884 0.208897 0.000000
1.083054 0.200790 0.000000
1.083276 0.189492 0.000000
1.083438 0.180580 0.000000
0.000000 0.529633 0.000000
0.000000 0.523008 0.000000
0.000000 0.518044 0.000000
0.000000 0.513083 0.000000
0.000000 0.508126 0.000000
0.000000 0.503173 0.000000
0.000000 0.496573 0.000000
0.000000 0.491620 0.000000
0.000000 0.486643 0.000000
0.000000 0.481600 0.000000
0.000000 0.476531 0.000000
0.000000 0.469686 0.000000
0.119832 0.464088 0.000000
0.254503 0.457998 0.000000
0.350886 0.451337 0.000000
0.442257 0.442257 0.000000
0.531163 0.433854 0.000000
0.615641 0.424578 0.000000
0.696426 0.414383 0.000000
0.771185 0.401738 0.000000
0.841417 0.390033 0.000000
0.905106 0.377806 0.000000
0.959607 0.365553 0.000000
1.005646 0.351544 0.000000
1.040473 0.340267 0.000000
1.064756 0.330153 0.000000
1.077408 0.319685 0.000000
1.079802 0.313001 0.000000
1.080040 0.306658 0.000000
1.080350 0.298128 0.000000
1.080574 0.291736 0.000000
1.080794 0.285261 0.000000
1.081081 0.276485 0.000000
0.000000 0.590213 0.000000
0.000000 0.585499 0.000000
0.000000 0.580757 0.000000
0.000000 0.575955 0.000000
0.000000 0.569557 0.000000
0.000000 0.564763 0.000000
0.000000 0.559971 0.000000
0.000000 0.555178 0.000000
0.000000 0.550371 0.000000
0.000000 0.543927 0.000000
0.000000 0.538984 0.000000
0.000000 0.533868 0.000000
0.000000 0.528440 0.000000
0.176915 0.520831 0.000000
0.302181 0.514394 0.000000
0.402186 0.507363 0.000000
0.495497 0.499614 0.000000
0.582737 0.489487 0.000000
0.666217 0.480287 0.000000
0.745079 0.470397 0.000000
0.818196 0.458174 0.000000
0.884032 0.447347 0.000000
0.942059 0.436558 0.000000
0.990143 0.426060 0.000000
1.029075 0.414170 0.000000
1.055774 0.405189 0.000000
1.071839 0.397358 0.000000
1.076384 0.389081 0.000000
1.076683 0.383269 0.000000
1.076977 0.377423 0.000000
1.077361 0.369577 0.000000
1.077643 0.363668 0.000000
1.077919 0.357760 0.000000
0.000000 0.651202 0.000000
0.000000 0.645055 0.000000
0.000000 0.640447 0.000000
0.000000 0.635841 0.000000
0.000000 0.631192 0.000000
0.000000 0.626453 0.000000
0.000000 0.620139 0.000000
0.000000 0.615405 0.000000
0.000000 0.610661 0.000000
0.000000 0.605889 0.000000
0.000000 0.599474 0.000000
0.000000 0.594515 0.000000
0.000000 0.589348 0.000000
0.000000 0.583890 0.000000
0.235551 0.576402 0.000000
0.352305 0.570015 0.000000
0.452967 0.563044 0.000000
0.547445 0.555414 0.000000
0.635030 0.545568 0.000000
0.716577 0.536811 0.000000
0.792491 0.527574 0.000000
0.861284 0.516343 0.000000
0.921910 0.506697 0.000000
0.973528 0.497198 0.000000
1.013831 0.488104 0.000000
1.045356 0.477595 0.000000
1.063905 0.470049 0.000000
1.071702 0.463564 0.000000
1.072475 0.455933 0.000000
1.072845 0.450213 0.000000
1.073209 0.444474 0.000000
1.073685 0.436793 0.000000
1.074037 0.431007 0.000000
0.000000 0.708711 0.000000
0.000000 0.704255 0.000000
0.000000 0.699801 0.000000
0.000000 0.693866 0.000000
0.000000 0.689417 0.000000
0.000000 0.684970 0.000000
0.000000 0.680464 0.000000
0.000000 0.674294 0.000000
0.000000 0.669663 0.000000
0.000000 0.665013 0.000000
0.000000 0.660314 0.000000
0.000000 0.655520 0.000000
0.000000 0.649032 0.000000
0.000000 0.643845 0.000000
0.095914 0.638369 0.000000
0.291158 0.630936 0.000000
0.406427 0.624489 0.000000
0.508368 0.617435 0.000000
0.600070 0.609908 0.000000
0.685967 0.600260 0.000000
0.764590 0.591841 0.000000
0.836636 0.583118 0.000000
0.898944 0.572731 0.000000
0.953758 0.563999 0.000000
0.998573 0.555597 0.000000
1.032430 0.546065 0.000000
1.055410 0.538858 0.000000
1.065492 0.532697 0.000000
1.067432 0.525481 0.000000
1.067856 0.520153 0.000000
1.068273 0.514815 0.000000
1.068822 0.507681 0.000000
1.069227 0.502320 0.000000
0.000000 0.763504 0.000000
0.000000 0.759252 0.000000
0.000000 0.755001 0.000000
0.000000 0.750751 0.000000
0.000000 0.745089 0.000000
0.000000 0.740845 0.000000
0.000000 0.736602 0.000000
0.000000 0.732360 0.000000
0.000000 0.728041 0.000000
0.000000 0.722068 0.000000
0.000000 0.717550 0.000000
0.000000 0.712959 0.000000
0.000000 0.706756 0.000000
0.000000 0.701854 0.000000
0.000000 0.696706 0.000000
0.198992 0.691221 0.000000
0.350126 0.683848 0.000000
0.463263 0.677496 0.000000
0.561848 0.670587 0.000000
0.652013 0.661621 0.000000
0.734728 0.653848 0.000000
0.807998 0.645906 0.000000
0.875416 0.637744 0.000000
0.933184 0.628056 0.000000
0.981355 0.620194 0.000000
1.018451 0.612805 0.000000
1.044322 0.604398 0.000000
1.058530 0.598401 0.000000
1.061504 0.593080 0.000000
1.062153 0.586229 0.000000
1.062633 0.581086 0.000000
1.063107 0.575937 0.000000
1.063731 0.569062 0.000000
0.000000 0.816143 0.000000
0.000000 0.810805 0.000000
0.000000 0.806804 0.000000
0.000000 0.802805 0.000000
0.000000 0.798807 0.000000
0.000000 0.793480 0.000000
0.000000 0.789485 0.000000
0.000000 0.785492 0.000000
0.000000 0.781499 0.000000
0.000000 0.776168 0.000000
0.000000 0.771961 0.000000
0.000000 0.767608 0.000000
0.000000 0.763156 0.000000
0.000000 0.757141 0.000000
0.000000 0.752327 0.000000
0.000000 0.747230 0.000000
0.276651 0.740376 0.000000
0.410446 0.734548 0.000000
0.519280 0.728307 0.000000
0.614726 0.721708 0.000000
0.701960 0.713095 0.000000
0.779229 0.705727 0.000000
0.849435 0.698185 0.000000
0.911497 0.689073 0.000000
0.962194 0.681748 0.000000
1.003093 0.674735 0.000000
1.032104 0.666714 0.000000
1.049410 0.660908 0.000000
1.055029 0.655833 0.000000
1.055733 0.649446 0.000000
1.056270 0.644504 0.000000
1.056802 0.639560 0.000000
1.057501 0.632961 0.000000
0.000000 0.862550 0.000000
0.000000 0.859189 0.000000
0.000000 0.854477 0.000000
0.000000 0.850772 0.000000
0.000000 0.847067 0.000000
0.000000 0.843364 0.000000
0.000000 0.838428 0.000000
0.000000 0.834728 0.000000
0.000000 0.831028 0.000000
0.000000 0.827322 0.000000
0.000000 0.822367 0.000000
0.000000 0.818601 0.000000
0.000000 0.814549 0.000000
0.000000 0.808940 0.000000
0.000000 0.804480 0.000000
0.000000 0.799783 0.000000
0.152145 0.794792 0.000000
0.346621 0.788128 0.000000
0.471321 0.782408 0.000000
0.574568 0.776368 0.000000
0.666775 0.768669 0.000000
0.749683 0.762073 0.000000
0.822170 0.755120 0.000000
0.887030 0.746641 0.000000
0.942163 0.739732 0.000000
0.985607 0.733159 0.000000
1.018870 0.725489 0.000000
1.038952 0.719931 0.000000
1.047550 0.714995 0.000000
1.048766 0.709002 0.000000
1.049322 0.704526 0.000000
1.049882 0.699969 0.000000
1.050647 0.693675 0.000000
0.000000 0.903813 0.000000
0.000000 0.900821 0.000000
0.000000 0.897830 0.000000
0.000000 0.893842 0.000000
0.000000 0.890599 0.000000
0.000000 0.887229 0.000000
0.000000 0.882738 0.000000
0.000000 0.879370 0.000000
0.000000 0.876004 0.000000
0.000000 0.872634 0.000000
0.000000 0.868130 0.000000
0.000000 0.864715 0.000000
0.000000 0.861234 0.000000
0.000000 0.856537 0.000000
0.000000 0.852456 0.000000
0.000000 0.848169 0.000000
0.000000 0.843626 0.000000
0.263914 0.837545 0.000000
0.416664 0.832345 0.000000
0.530342 0.826855 0.000000
0.629387 0.819814 0.000000
0.716608 0.813797 0.000000
0.794689 0.807621 0.000000
0.862977 0.800052 0.000000
0.920998 0.793625 0.000000
0.968351 0.787428 0.000000
1.003983 0.780241 0.000000
1.028344 0.774889 0.000000
1.039121 0.770191 0.000000
1.041416 0.764543 0.000000
1.041998 0.760366 0.000000
1.042576 0.756187 0.000000
1.043339 0.750616 0.000000
0.000000 0.939451 0.000000
0.000000 0.936860 0.000000
0.000000 0.934271 0.000000
0.000000 0.930819 0.000000
0.000000 0.928231 0.000000
0.000000 0.925643 0.000000
0.000000 0.922782 0.000000
0.000000 0.918787 0.000000
0.000000 0.915790 0.000000
0.000000 0.912792 0.000000
0.000000 0.908786 0.000000
0.000000 0.905754 0.000000
0.000000 0.902671 0.000000
0.000000 0.898502 0.000000
0.000000 0.895210 0.000000
0.000000 0.891730 0.000000
0.000000 0.887645 0.000000
0.106814 0.882165 0.000000
0.351114 0.877495 0.000000
0.482052 0.872533 0.000000
0.588905 0.866168 0.000000
0.682177 0.860694 0.000000
0.764022 0.855084 0.000000
0.836643 0.848252 0.000000
0.897889 0.842651 0.000000
0.948714 0.837107 0.000000
0.988144 0.830372 0.000000
1.015185 0.825350 0.000000
1.030628 0.819545 0.000000
1.033895 0.815571 0.000000
1.034489 0.811724 0.000000
1.035273 0.806594 0.000000
1.035857 0.802746 0.000000
0.000000 0.968954 0.000000
0.000000 0.966795 0.000000
0.000000 0.964636 0.000000
0.000000 0.961758 0.000000
0.000000 0.959600 0.000000
0.000000 0.957442 0.000000
0.000000 0.955285 0.000000
0.000000 0.952409 0.000000
0.000000 0.949816 0.000000
0.000000 0.947222 0.000000
0.000000 0.943758 0.000000
0.000000 0.941138 0.000000
0.000000 0.938478 0.000000
0.000000 0.934881 0.000000
0.000000 0.932035 0.000000
0.000000 0.929032 0.000000
0.000000 0.924975 0.000000
0.000000 0.921393 0.000000
0.266898 0.917256 0.000000
0.429108 0.911818 0.000000
0.546208 0.907135 0.000000
0.645512 0.902226 0.000000
0.733003 0.896133 0.000000
0.808702 0.890994 0.000000
0.874517 0.885864 0.000000
0.928422 0.879898 0.000000
0.971390 0.875197 0.000000
1.001842 0.870637 0.000000
1.020289 0.865246 0.000000
1.026459 0.861519 0.000000
1.027046 0.858034 0.000000
1.027822 0.853388 0.000000
1.028400 0.849904 0.000000
0.000000 0.991902 0.000000
0.000000 0.990198 0.000000
0.000000 0.988494 0.000000
0.000000 0.986222 0.000000
0.000000 0.984518 0.000000
0.000000 0.982814 0.000000
0.000000 0.980543 0.000000
0.000000 0.978840 0.000000
0.000000 0.977137 0.000000
0.000000 0.975433 0.000000
0.000000 0.972547 0.000000
0.000000 0.970367 0.000000
0.000000 0.968152 0.000000
0.000000 0.965158 0.000000
0.000000 0.962786 0.000000
0.000000 0.960274 0.000000
0.000000 0.956861 0.000000
0.000000 0.953943 0.000000
0.131753 0.950776 0.000000
0.368713 0.946330 0.000000
0.500985 0.942201 0.000000
0.607868 0.937848 0.000000
0.700345 0.932449 0.000000
0.780724 0.927830 0.000000
0.849579 0.923230 0.000000
0.908160 0.917842 0.000000
0.953760 0.913605 0.000000
0.988515 0.908781 0.000000
1.009697 0.905304 0.000000
1.018903 0.901866 0.000000
1.020135 0.897725 0.000000
1.020691 0.894635 0.000000
1.021244 0.891545 0.000000
0.000000 1.007473 0.000000
0.000000 1.006730 0.000000
0.000000 1.005499 0.000000
0.000000 1.003858 0.000000
0.000000 1.002627 0.000000
0.000000 1.001397 0.000000
0.000000 0.999757 0.000000
0.000000 0.998526 0.000000
0.000000 0.997296 0.000000
0.000000 0.995656 0.000000
0.000000 0.994422 0.000000
0.000000 0.993019 0.000000
0.000000 0.991274 0.000000
0.000000 0.988906 0.000000
0.000000 0.987026 0.000000
0.000000 0.985019 0.000000
0.000000 0.982280 0.000000
0.000000 0.979905 0.000000
0.000000 0.976726 0.000000
0.302831 0.973835 0.000000
0.455909 0.970721 0.000000
0.572124 0.966344 0.000000
0.669360 0.962373 0.000000
0.753921 0.958290 0.000000
0.826717 0.953467 0.000000
0.887849 0.949468 0.000000
0.937587 0.945657 0.000000
0.974662 0.941432 0.000000
1.000192 0.938294 0.000000
1.011394 0.935668 0.000000
1.013659 0.932497 0.000000
1.014171 0.929829 0.000000
1.014848 0.926273 0.000000
0.000000 1.015407 0.000000
0.000000 1.015159 0.000000
0.000000 1.014827 0.000000
0.000000 1.014413 0.000000
0.000000 1.013669 0.000000
0.000000 1.012926 0.000000
0.000000 1.011934 0.000000
0.000000 1.011191 0.000000
0.000000 1.010447 0.000000
0.000000 1.009455 0.000000
0.000000 1.008710 0.000000
0.000000 1.007955 0.000000
0.000000 1.006931 0.000000
0.000000 1.005787 0.000000
0.000000 1.004405 0.000000
0.000000 1.002510 0.000000
0.000000 1.000870 0.000000
0.000000 0.999041 0.000000
0.000000 0.996580 0.000000
0.211834 0.994271 0.000000
0.406779 0.991723 0.000000
0.533251 0.988551 0.000000
0.637100 0.985601 0.000000
0.725730 0.981496 0.000000
0.802548 0.977914 0.000000
0.867048 0.974413 0.000000
0.920197 0.970490 0.000000
0.961047 0.967414 0.000000
0.989011 0.964709 0.000000
