transforms/JF04_color_push_d65_r709.cube
#  JF_04_D65_r709.cube
LUT_3D_SIZE 5
0.000000 0.000000 0.000000
0.285329 0.000000 0.000000
0.877086 0.000000 0.000000
1.088126 0.000000 0.000000
1.088126 0.000000 0.000000
0.000000 0.185102 0.000000
0.109213 0.154546 0.000000
0.690547 0.000000 0.000000
1.082639 0.000000 0.000000
1.087933 0.000000 0.000000
0.000000 0.651202 0.000000
0.000000 0.610661 0.000000
0.452967 0.563044 0.000000
1.013831 0.488104 0.000000
1.074037 0.431007 0.000000
0.000000 0.991902 0.000000
0.000000 0.977137 0.000000
0.000000 0.956861 0.000000
0.849579 0.923230 0.000000
1.021244 0.891545 0.000000
0.000000 1.017231 0.000000
0.000000 1.017231 0.000000
0.000000 1.016850 0.000000
0.675648 1.008587 0.000000
0.999919 0.999919 0.000000
0.000000 0.000000 0.338471
0.275024 0.000000 0.295249
0.868741 0.000000 0.218516
1.088126 0.000000 0.108193
1.088126 0.000000 0.000000
0.000000 0.162590 0.193791
0.107013 0.133969 0.155409
0.679373 0.000000 0.014404
1.081169 0.000000 0.000000
1.088008 0.000000 0.000000
0.000000 0.621717 0.000000
0.000000 0.580744 0.000000
0.447352 0.532596 0.000000
1.011711 0.453225 0.000000
1.076081 0.394865 0.000000
0.000000 0.981110 0.000000
0.000000 0.963917 0.000000
0.000000 0.941684 0.000000
0.844118 0.906094 0.000000
1.024676 0.871971 0.000000
0.000000 1.017231 0.000000
0.000000 1.017231 0.000000
0.000000 1.016888 0.000000
0.661737 1.008856 0.000000
0.999919 0.999919 0.000000
0.000000 0.000000 0.932999
0.269149 0.000000 0.900798
0.861609 0.000000 0.857526
1.088126 0.000000 0.811072
1.088126 0.000000 0.764265
0.000000 0.146254 0.807901
0.105232 0.118551 0.761239
0.671232 0.000000 0.707919
1.079915 0.000000 0.646214
1.088048 0.000000 0.589627
0.000000 0.598078 0.665418
0.000000 0.556768 0.612348
0.444029 0.507919 0.555344
1.009783 0.423826 0.483729
1.077550 0.365630 0.421073
0.000000 0.971834 0.476662
0.000000 0.953128 0.408861
0.000000 0.928765 0.337819
0.842474 0.889951 0.223896
1.027822 0.853388 0.000000
0.000000 1.017231 0.285264
0.000000 1.017231 0.163469
0.000000 1.016912 0.000000
0.651714 1.009045 0.000000
0.999919 0.999919 0.000000
0.000000 0.000000 1.039747
0.263284 0.000000 1.039489
0.857331 0.000000 1.035362
1.088126 0.000000 1.031959
1.088126 0.000000 1.031959
0.000000 0.131215 1.039519
0.103799 0.104989 1.039574
0.664623 0.000000 1.037287
1.079168 0.000000 1.030186
1.088076 0.000000 1.022884
0.000000 0.575955 1.031098
0.000000 0.534461 1.027632
0.442506 0.482909 1.016873
1.008243 0.398227 0.994710
1.078890 0.335728 0.971609
0.000000 0.961758 0.989636
0.000000 0.940314 0.971057
0.000000 0.915626 0.945944
0.840392 0.875470 0.909635
1.030487 0.837126 0.870263
0.000000 1.017231 0.931165
0.000000 1.017231 0.896951
0.000000 1.016931 0.855768
0.645663 1.009157 0.805656
0.999919 0.999919 0.747262
0.000000 0.000000 1.039747
0.258891 0.000000 1.039500
0.853055 0.000000 1.035415
1.088126 0.000000 1.031959
1.088126 0.000000 1.031959
0.000000 0.118263 1.039569
0.101800 0.092701 1.039612
0.659683 0.000000 1.037354
1.078409 0.000000 1.032097
1.088094 0.000000 1.031947
0.000000 0.553588 1.032509
0.000000 0.511421 1.033766
0.441756 0.461626 1.033774
1.007278 0.374016 1.029178
1.079961 0.308781 1.028895
0.000000 0.952409 1.012774
0.000000 0.929093 1.014359
0.000000 0.901680 1.015626
0.839940 0.859531 1.012566
1.033297 0.819418 1.011763
0.000000 1.017231 1.008054
0.000000 1.017231 1.008054
0.000000 1.016944 1.007919
0.637551 1.009304 1.004317
0.999919 0.999919 0.999919
