transforms/JF05_super_silver_color_push_d65_r709.cube
#  JF_05_D65_r709.cube
LUT_3D_SIZE 33
0.000000 0.000000 0.000000
0.000000 0.000000 0.000000
0.000000 0.000000 0.000000
0.000000 0.000000 0.000000
0.000748 0.000000 0.000000
0.004626 0.000000 0.000000
0.012459 0.000000 0.000000
0.026493 0.000000 0.000000
0.047099 0.000000 0.000000
0.067834 0.000000 0.000000
0.092289 0.000000 0.000000
0.121370 0.000000 0.000000
0.157601 0.000000 0.000000
0.206933 0.000000 0.000000
0.371947 0.000000 0.000000
0.457592 0.000000 0.000000
0.513569 0.000000 0.000000
0.561229 0.000000 0.000000
0.602415 0.000000 0.000000
0.639760 0.000000 0.000000
0.675183 0.000000 0.000000
0.706460 0.000000 0.000000
0.735880 0.000000 0.000000
0.762873 0.000000 0.000000
0.789451 0.000000 0.000000
0.813682 0.000000 0.000000
0.835966 0.000000 0.000000
0.857330 0.000000 0.000000
0.877084 0.000000 0.000000
0.895540 0.000000 0.000000
0.912705 0.000000 0.000000
0.929855 0.000000 0.000000
0.945456 0.000000 0.000000
0.000000 0.000000 0.000000
0.000000 0.000000 0.000000
0.000000 0.000000 0.000000
0.000000 0.000000 0.000000
0.001370 0.000000 0.000000
0.007012 0.000000 0.000000
0.018715 0.000000 0.000000
0.038659 0.000000 0.000000
0.069337 0.000000 0.000000
0.103024 0.000000 0.000000
0.156447 0.000000 0.000000
0.316908 0.000000 0.000000
0.384881 0.000000 0.000000
0.440887 0.000000 0.000000
0.486359 0.000000 0.000000
0.531183 0.000000 0.000000
0.571720 0.000000 0.000000
0.607542 0.000000 0.000000
0.641444 0.000000 0.000000
0.673492 0.000000 0.000000
0.703167 0.000000 0.000000
0.732707 0.000000 0.000000
0.758102 0.000000 0.000000
0.783399 0.000000 0.000000
0.807616 0.000000 0.000000
0.830274 0.000000 0.000000
0.850200 0.000000 0.000000
0.871589 0.000000 0.000000
0.888940 0.000000 0.000000
0.907414 0.000000 0.000000
0.923852 0.000000 0.000000
0.939445 0.000000 0.000000
0.955057 0.000000 0.000000
0.000000 0.000000 0.000000
0.000000 0.000000 0.000000
0.000000 0.000000 0.000000
0.000000 0.000000 0.000000
0.002344 0.000000 0.000000
0.011830 0.000000 0.000000
0.034044 0.000000 0.000000
0.098826 0.000000 0.000000
0.235300 0.000000 0.000000
0.295663 0.000000 0.000000
0.349539 0.000000 0.000000
0.397847 0.000000 0.000000
0.444224 0.000000 0.000000
0.486358 0.000000 0.000000
0.525892 0.000000 0.000000
0.562998 0.000000 0.000000
0.598994 0.000000 0.000000
0.631343 0.000000 0.000000
0.663354 0.000000 0.000000
0.693292 0.000000 0.000000
0.721282 0.000000 0.000000
0.748564 0.000000 0.000000
0.773998 0.000000 0.000000
0.797004 0.000000 0.000000
0.819735 0.000000 0.000000
0.841644 0.000000 0.000000
0.861590 0.000000 0.000000
0.881017 0.000000 0.000000
0.899480 0.000000 0.000000
0.916647 0.000000 0.000000
0.932228 0.000000 0.000000
0.947831 0.000000 0.000000
0.961435 0.000000 0.000000
0.000000 0.000000 0.000000
0.000000 0.000000 0.000000
0.000000 0.000000 0.000000
0.000000 0.000000 0.000000
0.021369 0.000000 0.000000
0.068637 0.000000 0.000000
0.127349 0.000000 0.000000
0.200029 0.000000 0.000000
0.283848 0.000000 0.000000
0.332407 0.000000 0.000000
0.380015 0.000000 0.000000
0.424219 0.000000 0.000000
0.466014 0.000000 0.000000
0.505039 0.000000 0.000000
0.543522 0.000000 0.000000
0.580215 0.000000 0.000000
0.612653 0.000000 0.000000
0.644788 0.000000 0.000000
0.675158 0.000000 0.000000
0.704788 0.000000 0.000000
0.732680 0.000000 0.000000
0.758073 0.000000 0.000000
0.783367 0.000000 0.000000
0.806067 0.000000 0.000000
0.828815 0.000000 0.000000
0.848737 0.000000 0.000000
0.870122 0.000000 0.000000
0.887579 0.000000 0.000000
0.906049 0.000000 0.000000
0.922605 0.000000 0.000000
0.939395 0.000000 0.000000
0.953802 0.000000 0.000000
0.967798 0.000000 0.000000
0.000000 0.005284 0.000000
0.000000 0.026302 0.000000
0.000000 0.031587 0.000000
0.000000 0.032587 0.000000
0.011600 0.020910 0.000000
0.055284 0.022044 0.000000
0.117586 0.000000 0.000000
0.139990 0.000000 0.000000
0.264621 0.000000 0.000000
0.324558 0.000000 0.000000
0.376712 0.000000 0.000000
0.422493 0.000000 0.000000
0.465956 0.000000 0.000000
0.506687 0.000000 0.000000
0.545236 0.000000 0.000000
0.581869 0.000000 0.000000
0.616025 0.000000 0.000000
0.648110 0.000000 0.000000
0.680083 0.000000 0.000000
0.708033 0.000000 0.000000
0.735803 0.000000 0.000000
0.762794 0.000000 0.000000
0.787858 0.000000 0.000000
0.810564 0.000000 0.000000
0.833031 0.000000 0.000000
0.854385 0.000000 0.000000
0.874347 0.000000 0.000000
0.892798 0.000000 0.000000
0.911274 0.000000 0.000000
0.927341 0.000000 0.000000
0.944134 0.000000 0.000000
0.959199 0.000000 0.000000
0.973063 0.000000 0.000000
0.000000 0.073390 0.000000
0.000000 0.076933 0.000000
0.000000 0.078218 0.000000
0.000000 0.077576 0.000000
0.000000 0.069343 0.000000
0.034651 0.049398 0.000000
0.090038 0.053755 0.000000
0.158745 0.054683 0.000000
0.245175 0.046478 0.000000
0.218882 0.051671 0.000000
0.263778 0.032229 0.000000
0.319313 0.000000 0.000000
0.430585 0.000000 0.000000
0.484420 0.000000 0.000000
0.529205 0.000000 0.000000
0.569820 0.000000 0.000000
0.607354 0.000000 0.000000
0.641265 0.000000 0.000000
0.675006 0.000000 0.000000
0.704639 0.000000 0.000000
0.734118 0.000000 0.000000
0.761108 0.000000 0.000000
0.786250 0.000000 0.000000
0.810472 0.000000 0.000000
0.834360 0.000000 0.000000
0.855712 0.000000 0.000000
0.875571 0.000000 0.000000
0.895335 0.000000 0.000000
0.913811 0.000000 0.000000
0.930829 0.000000 0.000000
0.946421 0.000000 0.000000
0.961217 0.000000 0.000000
0.975072 0.000000 0.000000
0.000000 0.133795 0.000000
0.000000 0.136410 0.000000
0.000000 0.136410 0.000000
0.000000 0.133795 0.000000
0.000000 0.127709 0.000000
0.000000 0.093636 0.000000
0.064413 0.085004 0.000000
0.131811 0.094092 0.000000
0.208165 0.100518 0.000000
0.265069 0.090188 0.000000
0.321229 0.074879 0.000000
0.274262 0.082554 0.000000
0.313505 0.073963 0.000000
0.354265 0.060820 0.000000
0.398170 0.028480 0.000000
0.453236 0.000000 0.000000
0.564239 0.000000 0.000000
0.613931 0.000000 0.000000
0.652822 0.000000 0.000000
0.687982 0.000000 0.000000
0.720920 0.000000 0.000000
0.749794 0.000000 0.000000
0.778430 0.000000 0.000000
0.804232 0.000000 0.000000
0.828490 0.000000 0.000000
0.851261 0.000000 0.000000
0.872644 0.000000 0.000000
0.892520 0.000000 0.000000
0.912309 0.000000 0.000000
0.929443 0.000000 0.000000
0.946228 0.000000 0.000000
0.962075 0.000000 0.000000
0.975930 0.000000 0.000000
0.000000 0.204877 0.000000
0.000000 0.204877 0.000000
0.000000 0.204877 0.000000
0.000000 0.201516 0.000000
0.000000 0.195924 0.000000
0.000000 0.180331 0.000000
0.000000 0.137435 0.000000
0.101588 0.128854 0.000000
0.179764 0.141182 0.000000
0.234615 0.134448 0.000000
0.288275 0.126002 0.000000
0.339902 0.116748 0.000000
0.391912 0.104379 0.000000
0.329118 0.113101 0.000000
0.364183 0.108525 0.000000
0.400154 0.100963 0.000000
0.436907 0.092851 0.000000
0.474081 0.081932 0.000000
0.513481 0.058600 0.000000
0.557844 0.000000 0.000000
0.647118 0.000000 0.000000
0.710571 0.000000 0.000000
0.749391 0.000000 0.000000
0.782677 0.000000 0.000000
0.809931 0.000000 0.000000
0.836690 0.000000 0.000000
0.860896 0.000000 0.000000
0.882959 0.000000 0.000000
0.904052 0.000000 0.000000
0.923110 0.000000 0.000000
0.941081 0.000000 0.000000
0.957452 0.000000 0.000000
0.972346 0.000000 0.000000
0.000000 0.284701 0.000000
0.000000 0.284701 0.000000
0.000000 0.283316 0.000000
0.000000 0.280548 0.000000
0.000000 0.275018 0.000000
0.000000 0.263984 0.000000
0.000000 0.207024 0.000000
0.060245 0.190299 0.000000
0.146481 0.180603 0.000000
0.206326 0.173719 0.000000
0.260259 0.168389 0.000000
0.311825 0.160738 0.000000
0.361785 0.154447 0.000000
0.409855 0.146895 0.000000
0.457231 0.137659 0.000000
0.383604 0.144870 0.000000
0.415056 0.143231 0.000000
0.448754 0.139190 0.000000
0.479359 0.136583 0.000000
0.511982 0.131244 0.000000
0.545678 0.126450 0.000000
0.578976 0.118742 0.000000
0.609829 0.112529 0.000000
0.643816 0.101047 0.000000
0.675931 0.090315 0.000000
0.710601 0.069597 0.000000
0.749511 0.000000 0.000000
0.825647 0.000000 0.000000
0.864328 0.000000 0.000000
0.891359 0.000000 0.000000
0.915109 0.000000 0.000000
0.934263 0.000000 0.000000
0.953421 0.000000 0.000000
0.000000 0.331142 0.000000
0.000000 0.331142 0.000000
0.000000 0.329682 0.000000
0.000000 0.326766 0.000000
0.000000 0.322394 0.000000
0.000000 0.312210 0.000000
0.000000 0.293366 0.000000
0.000000 0.233850 0.000000
0.102396 0.221361 0.000000
0.176710 0.214809 0.000000
0.234664 0.207661 0.000000
0.288365 0.202413 0.000000
0.338802 0.196439 0.000000
0.385391 0.191210 0.000000
0.432747 0.186409 0.000000
0.477395 0.179423 0.000000
0.522742 0.172708 0.000000
0.436438 0.181582 0.000000
0.467056 0.180792 0.000000
0.497938 0.179647 0.000000
0.527727 0.179929 0.000000
0.558027 0.178250 0.000000
0.585608 0.178403 0.000000
0.614786 0.178048 0.000000
0.641849 0.177887 0.000000
0.668860 0.179370 0.000000
0.695308 0.179009 0.000000
0.720003 0.180798 0.000000
0.743951 0.183021 0.000000
0.767691 0.187430 0.000000
0.790665 0.192044 0.000000
0.811748 0.197147 0.000000
0.832227 0.204490 0.000000
0.000000 0.374960 0.000000
0.000000 0.374960 0.000000
0.000000 0.373443 0.000000
0.000000 0.371926 0.000000
0.000000 0.367376 0.000000
0.000000 0.359804 0.000000
0.000000 0.346204 0.000000
0.000000 0.284608 0.000000
0.000000 0.264706 0.000000
0.138093 0.255477 0.000000
0.208310 0.248522 0.000000
0.264573 0.242510 0.000000
0.317410 0.238733 0.000000
0.366172 0.234498 0.000000
0.412282 0.229776 0.000000
0.457091 0.225975 0.000000
0.500461 0.223203 0.000000
0.543470 0.218276 0.000000
0.585643 0.214352 0.000000
0.623604 0.210391 0.000000
0.519862 0.224200 0.000000
0.550091 0.227018 0.000000
0.577974 0.228402 0.000000
0.605399 0.231348 0.000000
0.630857 0.234485 0.000000
0.657895 0.237343 0.000000
0.682801 0.242138 0.000000
0.707413 0.247104 0.000000
0.730068 0.252577 0.000000
0.752085 0.259946 0.000000
0.775514 0.268915 0.000000
0.796384 0.278297 0.000000
0.817197 0.289659 0.000000
0.000000 0.418404 0.000000
0.000000 0.418404 0.000000
0.000000 0.416843 0.000000
0.000000 0.415282 0.000000
0.000000 0.412162 0.000000
0.000000 0.405928 0.000000
0.000000 0.396591 0.000000
0.000000 0.373443 0.000000
0.000000 0.310421 0.000000
0.069826 0.298098 0.000000
0.174866 0.289788 0.000000
0.240076 0.284000 0.000000
0.296835 0.280718 0.000000
0.348512 0.277061 0.000000
0.396957 0.274524 0.000000
0.442396 0.271677 0.000000
0.486207 0.270019 0.000000
0.529147 0.267998 0.000000
0.570195 0.267331 0.000000
0.608406 0.266607 0.000000
0.646064 0.265627 0.000000
0.681589 0.264598 0.000000
0.714776 0.265341 0.000000
0.605606 0.281575 0.000000
0.630962 0.287127 0.000000
0.657976 0.292484 0.000000
0.682712 0.299720 0.000000
0.707126 0.308965 0.000000
0.731062 0.318337 0.000000
0.754586 0.327783 0.000000
0.776003 0.339213 0.000000
0.796705 0.350887 0.000000
0.818669 0.364350 0.000000
0.000000 0.461020 0.000000
0.000000 0.461020 0.000000
0.000000 0.459433 0.000000
0.000000 0.457845 0.000000
0.000000 0.456258 0.000000
0.000000 0.451499 0.000000
0.000000 0.443577 0.000000
0.000000 0.427779 0.000000
0.000000 0.361168 0.000000
0.000000 0.342493 0.000000
0.132132 0.334101 0.000000
0.214632 0.328430 0.000000
0.278022 0.324020 0.000000
0.331864 0.320830 0.000000
0.381391 0.320346 0.000000
0.429613 0.318031 0.000000
0.473878 0.318591 0.000000
0.517155 0.317411 0.000000
0.560666 0.317485 0.000000
0.599036 0.319311 0.000000
0.636788 0.322642 0.000000
0.672568 0.324334 0.000000
0.707482 0.327637 0.000000
0.739728 0.332812 0.000000
0.771486 0.337984 0.000000
0.800162 0.345219 0.000000
0.691366 0.361044 0.000000
0.715601 0.372508 0.000000
0.740583 0.383941 0.000000
0.765250 0.398839 0.000000
0.787291 0.412416 0.000000
0.809224 0.427795 0.000000
0.829802 0.443326 0.000000
0.000000 0.503173 0.000000
0.000000 0.503173 0.000000
0.000000 0.503173 0.000000
0.000000 0.503173 0.000000
0.000000 0.499873 0.000000
0.000000 0.496575 0.000000
0.000000 0.489982 0.000000
0.000000 0.478516 0.000000
0.000000 0.423056 0.000000
0.000000 0.389905 0.000000
0.026602 0.379878 0.000000
0.184505 0.374336 0.000000
0.258111 0.370067 0.000000
0.316963 0.368642 0.000000
0.370739 0.366961 0.000000
0.421614 0.368120 0.000000
0.468648 0.369140 0.000000
0.512532 0.370110 0.000000
0.556382 0.372462 0.000000
0.596968 0.374806 0.000000
0.634801 0.380469 0.000000
0.672157 0.386069 0.000000
0.707002 0.393452 0.000000
0.740707 0.400883 0.000000
0.772138 0.408533 0.000000
0.802314 0.418031 0.000000
0.829406 0.431265 0.000000
0.857325 0.444465 0.000000
0.880547 0.456645 0.000000
0.904085 0.472593 0.000000
0.925683 0.492339 0.000000
0.945674 0.511669 0.000000
0.963454 0.532636 0.000000
0.000000 0.545616 0.000000
0.000000 0.547210 0.000000
0.000000 0.547210 0.000000
0.000000 0.547210 0.000000
0.000000 0.545616 0.000000
0.000000 0.542430 0.000000
0.000000 0.537653 0.000000
0.000000 0.529633 0.000000
0.000000 0.508126 0.000000
0.000000 0.440070 0.000000
0.000000 0.426829 0.000000
0.147575 0.421294 0.000000
0.240231 0.418647 0.000000
0.307750 0.418935 0.000000
0.365892 0.419040 0.000000
0.416730 0.420627 0.000000
0.466960 0.421988 0.000000
0.513378 0.426518 0.000000
0.558936 0.432539 0.000000
0.601400 0.438573 0.000000
0.639541 0.444728 0.000000
0.676714 0.452522 0.000000
0.713029 0.462043 0.000000
0.748009 0.473685 0.000000
0.780052 0.485522 0.000000
0.809570 0.499294 0.000000
0.838883 0.514512 0.000000
0.866323 0.532921 0.000000
0.891380 0.551545 0.000000
0.914189 0.570071 0.000000
0.935439 0.590312 0.000000
0.955859 0.615357 0.000000
0.972866 0.643410 0.000000
0.000000 0.588642 0.000000
0.000000 0.590213 0.000000
0.000000 0.590213 0.000000
0.000000 0.590213 0.000000
0.000000 0.590213 0.000000
0.000000 0.588642 0.000000
0.000000 0.585499 0.000000
0.000000 0.579156 0.000000
0.000000 0.563165 0.000000
0.000000 0.491359 0.000000
0.000000 0.477665 0.000000
0.101995 0.472102 0.000000
0.223698 0.471147 0.000000
0.300792 0.471575 0.000000
0.366174 0.473398 0.000000
0.422150 0.478512 0.000000
0.473324 0.483599 0.000000
0.523296 0.488535 0.000000
0.568509 0.496865 0.000000
0.612509 0.506843 0.000000
0.653918 0.516865 0.000000
0.692495 0.528131 0.000000
0.727951 0.539531 0.000000
0.763606 0.554230 0.000000
0.797678 0.572173 0.000000
0.828434 0.588505 0.000000
0.856011 0.606696 0.000000
0.883565 0.626099 0.000000
0.909329 0.650320 0.000000
0.933268 0.678694 0.000000
0.954086 0.705376 0.000000
0.971365 0.728022 0.000000
0.984284 0.747914 0.000000
0.000000 0.631192 0.000000
0.000000 0.632773 0.000000
0.000000 0.634308 0.000000
0.000000 0.635841 0.000000
0.000000 0.635841 0.000000
0.000000 0.635841 0.000000
0.000000 0.634308 0.000000
0.000000 0.629613 0.000000
0.000000 0.615407 0.000000
0.000000 0.545359 0.000000
0.000000 0.532045 0.000000
0.000000 0.529681 0.000000
0.218186 0.530332 0.000000
0.305969 0.530798 0.000000
0.372146 0.535983 0.000000
0.432845 0.541011 0.000000
0.489855 0.549129 0.000000
0.540917 0.558876 0.000000
0.588217 0.568634 0.000000
0.634199 0.579793 0.000000
0.676379 0.594200 0.000000
0.717135 0.608645 0.000000
0.754288 0.626206 0.000000
0.790350 0.641970 0.000000
0.825176 0.662571 0.000000
0.857116 0.685592 0.000000
0.886321 0.711731 0.000000
0.912620 0.733826 0.000000
0.935347 0.756048 0.000000
0.952692 0.773057 0.000000
0.964425 0.773885 0.000000
0.931945 0.790420 0.328541
0.946620 0.809377 0.400331
0.000000 0.674295 0.000000
0.000000 0.677380 0.000000
0.000000 0.678922 0.000000
0.000000 0.682007 0.000000
0.000000 0.683488 0.000000
0.000000 0.684970 0.000000
0.000000 0.683488 0.000000
0.000000 0.680464 0.000000
0.000000 0.666591 0.000000
0.000000 0.597729 0.000000
0.000000 0.589257 0.000000
0.000000 0.586885 0.000000
0.230491 0.590640 0.000000
0.323983 0.595826 0.000000
0.395617 0.600934 0.000000
0.460191 0.609079 0.000000
0.519634 0.620326 0.000000
0.573673 0.632899 0.000000
0.623858 0.646914 0.000000
0.668721 0.661049 0.000000
0.712911 0.677940 0.000000
0.756002 0.699037 0.000000
0.796509 0.721395 0.000000
0.833070 0.743096 0.000000
0.864401 0.764592 0.000000
0.892457 0.782522 0.000000
0.913085 0.792590 0.000000
0.930755 0.797315 0.000000
0.948974 0.813069 0.000000
0.964703 0.828847 0.000000
0.978072 0.842889 0.192593
0.954516 0.853043 0.499715
0.963791 0.861851 0.523263
0.000000 0.719117 0.000000
0.000000 0.722092 0.000000
0.000000 0.726557 0.000000
0.000000 0.729535 0.000000
0.000000 0.733775 0.000000
0.000000 0.735188 0.000000
0.000000 0.735188 0.000000
0.000000 0.730948 0.000000
0.000000 0.708705 0.000000
0.000000 0.652182 0.000000
0.000000 0.648389 0.000000
0.108691 0.649060 0.000000
0.269344 0.654209 0.000000
0.363958 0.662282 0.000000
0.441352 0.674887 0.000000
0.508192 0.685481 0.000000
0.565745 0.699054 0.000000
0.620589 0.714098 0.000000
0.675828 0.732810 0.000000
0.725873 0.754215 0.000000
0.769929 0.774905 0.000000
0.808851 0.792524 0.000000
0.842389 0.807205 0.000000
0.864129 0.807654 0.000000
0.890736 0.819219 0.000000
0.913489 0.834724 0.000000
0.934382 0.849258 0.106359
0.950520 0.860085 0.215766
0.963133 0.869912 0.265675
0.974587 0.876089 0.297942
0.982773 0.882899 0.325781
0.990975 0.888693 0.350377
0.973005 0.892459 0.580614
0.000000 0.764921 0.000000
0.000000 0.770595 0.000000
0.000000 0.776183 0.000000
0.000000 0.780172 0.000000
0.000000 0.782832 0.000000
0.000000 0.786824 0.000000
0.000000 0.786824 0.000000
0.000000 0.781501 0.000000
0.000000 0.718818 0.000000
0.000000 0.707743 0.000000
0.000000 0.709852 0.000000
0.222045 0.717760 0.000000
0.341766 0.725576 0.000000
0.431773 0.737048 0.000000
0.508848 0.751286 0.000000
0.579290 0.768227 0.000000
0.641261 0.786832 0.000000
0.696275 0.804202 0.000000
0.743188 0.819254 0.000000
0.784375 0.831736 0.000000
0.812633 0.829565 0.000000
0.844814 0.843419 0.000000
0.872861 0.856123 0.000000
0.897531 0.867808 0.156101
0.917538 0.878266 0.233770
0.933555 0.884791 0.276981
0.948234 0.890348 0.308456
0.958964 0.896053 0.333616
0.969698 0.901761 0.355429
0.977812 0.905530 0.372677
0.985158 0.908910 0.385211
0.991955 0.911291 0.395900
0.996770 0.913748 0.406585
0.000000 0.812140 0.000000
0.000000 0.818709 0.000000
0.000000 0.824867 0.000000
0.000000 0.831030 0.000000
0.000000 0.834728 0.000000
0.000000 0.837195 0.000000
0.000000 0.835961 0.000000
0.000000 0.783984 0.000000
0.000000 0.769711 0.000000
0.000000 0.770253 0.000000
0.190030 0.777379 0.000000
0.348754 0.789436 0.000000
0.454224 0.804053 0.000000
0.537772 0.819291 0.000000
0.606947 0.832743 0.000000
0.665912 0.845046 0.000000
0.708218 0.845206 0.000000
0.751344 0.853184 0.000000
0.791044 0.864498 0.000000
0.825616 0.877083 0.000000
0.854110 0.886540 0.192480
0.878892 0.893825 0.252622
0.898020 0.899265 0.288499
0.914886 0.905792 0.318877
0.930430 0.910051 0.341354
0.943460 0.913978 0.360972
0.953897 0.917116 0.375833
0.963650 0.919399 0.386270
0.971945 0.921734 0.396893
0.979512 0.924095 0.407446
0.986579 0.925591 0.413546
0.991277 0.927177 0.419744
0.995963 0.927881 0.423846
0.000000 0.861429 0.000000
0.000000 0.868154 0.000000
0.000000 0.873761 0.000000
0.000000 0.879370 0.000000
0.000000 0.884983 0.000000
0.000000 0.884983 0.000000
0.000000 0.839492 0.000000
0.000000 0.825118 0.000000
0.000000 0.829017 0.000000
0.245536 0.838895 0.000000
0.400125 0.851078 0.000000
0.497168 0.861062 0.000000
0.572582 0.869868 0.000000
0.623954 0.866564 0.000000
0.679521 0.875463 0.000000
0.727166 0.886219 0.000000
0.769888 0.896152 0.134447
0.803852 0.904272 0.223735
0.832099 0.910513 0.270336
0.855826 0.914290 0.302454
0.876842 0.918875 0.327583
0.894043 0.922696 0.352262
0.910579 0.925654 0.369330
0.924393 0.928698 0.381572
0.936492 0.930039 0.392304
0.947326 0.932298 0.400417
0.957302 0.933704 0.408742
0.965705 0.935896 0.416903
0.973011 0.936365 0.420929
0.979481 0.937594 0.424807
0.985721 0.938099 0.428862
0.990450 0.938658 0.430714
0.994690 0.939233 0.432589
0.000000 0.908802 0.000000
0.000000 0.915790 0.000000
0.000000 0.921783 0.000000
0.000000 0.926506 0.000000
0.000000 0.927368 0.000000
0.000000 0.881143 0.000000
0.000000 0.877887 0.000000
0.000000 0.883459 0.000000
0.327084 0.889925 0.000000
0.445376 0.893646 0.000000
0.521830 0.889535 0.000000
0.594222 0.897255 0.000000
0.654152 0.906057 0.000000
0.702489 0.914008 0.185861
0.744738 0.920061 0.253044
0.777009 0.924442 0.291284
0.805121 0.928903 0.316500
0.830742 0.932537 0.341227
0.852102 0.935402 0.363133
0.871061 0.938325 0.377570
0.887655 0.939993 0.387892
0.902985 0.940960 0.398502
0.916279 0.941985 0.406777
0.928336 0.943776 0.412556
0.939644 0.944124 0.418713
0.948853 0.945271 0.422474
0.958211 0.945677 0.426396
0.965593 0.946150 0.428128
0.972237 0.946647 0.432164
0.978875 0.947142 0.431656
0.984261 0.947681 0.431208
0.989150 0.947503 0.430958
0.993397 0.948080 0.432840
0.000000 0.953128 0.000000
0.000000 0.958880 0.000000
0.000000 0.963197 0.000000
0.000000 0.955268 0.000000
0.000000 0.918728 0.000000
0.000000 0.918631 0.000000
0.209116 0.910584 0.000000
0.382155 0.912337 0.000000
0.485019 0.919952 0.000000
0.562883 0.925658 0.142387
0.622774 0.931492 0.231834
0.671088 0.935707 0.277447
0.711213 0.939156 0.308482
0.744923 0.942556 0.335758
0.775809 0.945399 0.357422
0.801843 0.946884 0.374425
0.825257 0.948416 0.386745
0.844291 0.950054 0.394698
0.863109 0.950954 0.405116
0.878742 0.951938 0.413264
0.894321 0.952914 0.419065
0.907467 0.953226 0.422846
0.918693 0.954325 0.426522
0.931112 0.954647 0.428034
0.939826 0.955088 0.429716
0.949222 0.955502 0.431360
0.957895 0.955205 0.433212
0.964927 0.955694 0.432691
0.971061 0.955479 0.432387
0.977188 0.955263 0.429798
0.982739 0.955066 0.429516
0.987149 0.954908 0.426998
0.991066 0.954766 0.422186
0.000000 0.987925 0.000000
0.000000 0.987356 0.000000
0.000000 0.952472 0.000000
0.000000 0.936107 0.000000
0.000000 0.936746 0.000000
0.318168 0.939849 0.000000
0.439119 0.944731 0.208893
0.522295 0.948378 0.268788
0.581121 0.951038 0.305658
0.631072 0.953013 0.330610
0.671955 0.955083 0.352467
0.709117 0.957169 0.371397
0.741763 0.958585 0.388092
0.768408 0.960108 0.398150
0.791710 0.960963 0.406108
0.814681 0.961803 0.414004
0.834243 0.961990 0.419875
0.852141 0.962782 0.425631
0.868724 0.962870 0.427051
0.883377 0.963004 0.430813
0.896751 0.963168 0.432348
0.909296 0.963349 0.433912
0.919834 0.963013 0.435698
0.931221 0.962643 0.435173
0.939813 0.962936 0.434631
0.948520 0.962646 0.431940
0.956342 0.962381 0.431560
0.962865 0.962158 0.428951
0.969012 0.961946 0.424043
0.975274 0.961149 0.421555
0.981025 0.960947 0.416605
0.985074 0.960226 0.411857
0.988998 0.960086 0.406930
0.000000 0.975204 0.000000
0.000000 0.961960 0.000000
0.000000 0.961606 0.196021
0.223465 0.962671 0.265364
0.373654 0.964540 0.305054
0.461683 0.965763 0.334998
0.527299 0.967043 0.356683
0.582096 0.968913 0.375338
0.628917 0.969220 0.389762
0.666528 0.970196 0.402052
0.701045 0.970041 0.409965
0.729295 0.970551 0.417837
0.756934 0.971042 0.423382
0.780967 0.971018 0.429149
0.802934 0.971025 0.432694
0.821993 0.971089 0.434069
0.838950 0.970621 0.437901
0.856907 0.970684 0.439286
0.870406 0.970866 0.438589
0.885232 0.970424 0.437960
0.897204 0.970059 0.437441
0.908852 0.969697 0.436925
0.919411 0.969363 0.434177
0.929768 0.969030 0.433698
0.938509 0.968745 0.428713
0.946490 0.967904 0.426173
0.954328 0.967642 0.421163
0.961173 0.966833 0.416308
0.966646 0.966646 0.411336
0.972920 0.965852 0.404060
0.978503 0.965079 0.399137
0.982748 0.964353 0.391832
0.986800 0.963632 0.384450
0.000000 0.981544 0.323217
0.000000 0.980648 0.348237
0.263582 0.979739 0.365368
0.380836 0.980022 0.381918
0.463701 0.980281 0.398518
0.525203 0.980608 0.410655
0.574745 0.980420 0.420665
0.615998 0.980284 0.426210
0.653062 0.980163 0.431769
0.686109 0.980067 0.437361
0.715637 0.980005 0.440768
0.741996 0.979980 0.442004
0.765790 0.979413 0.443430
0.786373 0.979475 0.444801
0.806953 0.978946 0.446286
0.824195 0.978488 0.445643
0.841185 0.978022 0.444988
0.857603 0.977559 0.442091
0.871275 0.977164 0.441530
0.883658 0.976798 0.438750
0.896722 0.976404 0.435916
0.906413 0.975531 0.431066
0.917135 0.974620 0.426128
0.926636 0.974318 0.421053
0.935705 0.973448 0.416102
0.942831 0.972640 0.411205
0.950815 0.971798 0.403848
0.958227 0.970973 0.396432
0.963837 0.970206 0.389021
