transforms/JF05_super_silver_color_push_d65_r709.cube
#  JF_05_D65_r709.cube
LUT_3D_SIZE 5
0.000000 0.000000 0.000000
0.047099 0.000000 0.000000
0.513569 0.000000 0.000000
0.789451 0.000000 0.000000
0.945456 0.000000 0.000000
0.000000 0.284701 0.000000
0.146481 0.180603 0.000000
0.415056 0.143231 0.000000
0.675931 0.090315 0.000000
0.953421 0.000000 0.000000
0.000000 0.631192 0.000000
0.000000 0.615407 0.000000
0.489855 0.549129 0.000000
0.825176 0.662571 0.000000
0.946620 0.809377 0.400331
0.000000 0.987925 0.000000
0.581121 0.951038 0.305658
0.834243 0.961990 0.419875
0.939813 0.962936 0.434631
0.988998 0.960086 0.406930
0.330592 1.011608 0.512546
0.655442 1.004653 0.436734
0.809049 0.997003 0.340745
0.902932 0.989893 0.196280
0.962286 0.983434 0.000000
0.000000 0.000000 0.231430
0.217437 0.000000 0.199773
0.566545 0.000000 0.324390
0.801560 0.000000 0.389443
0.947860 0.000000 0.419650
0.000000 0.247500 0.295347
0.140414 0.147165 0.179957
0.432705 0.121253 0.167457
0.737379 0.000000 0.218040
0.963093 0.000000 0.304293
0.000000 0.596505 0.000000
0.000000 0.590213 0.000000
0.502731 0.529357 0.000000
0.798955 0.682097 0.479567
0.964624 0.843452 0.704431
0.000000 0.976564 0.668747
0.623659 0.956045 0.667626
0.840057 0.961097 0.689573
0.939588 0.960062 0.687029
0.988280 0.954133 0.667456
0.314960 1.011220 0.744942
0.642265 1.002659 0.691493
0.799353 0.994423 0.639725
0.895641 0.985128 0.587497
0.957500 0.977347 0.530765
0.000000 0.000000 0.510938
0.316908 0.000000 0.555100
0.899502 0.000000 0.824734
1.059209 0.000000 0.866615
0.961466 0.000000 0.667611
0.000000 0.247500 0.633395
0.146123 0.144780 0.528540
0.587541 0.000000 0.554613
0.818571 0.000000 0.610557
0.972491 0.000000 0.677504
0.000000 0.590213 0.626804
0.000000 0.583927 0.602120
0.546721 0.558684 0.551574
0.848181 0.746833 0.725739
0.974981 0.864843 0.837757
0.000000 0.954020 0.822916
0.650394 0.961310 0.837402
0.845477 0.961671 0.837920
0.940208 0.957270 0.830230
0.978111 0.950833 0.868167
0.293827 1.011024 0.875492
0.632746 1.001340 0.836107
0.790655 0.991745 0.799743
0.890968 0.981947 0.764170
0.955912 0.972205 0.730257
0.000000 0.000000 0.747127
0.552380 0.000000 0.925088
0.925063 0.000000 0.973642
1.065925 0.000000 0.993270
1.088126 0.000000 1.006375
0.000000 0.252985 0.845437
0.154266 0.148890 0.769643
0.638739 0.000000 0.804974
1.022341 0.000000 0.948169
0.977132 0.000000 0.822084
0.000000 0.604375 0.851648
0.000000 0.561431 0.787874
0.603526 0.611395 0.784222
0.890646 0.806631 0.864658
0.982010 0.879870 0.914511
0.000000 0.964391 0.936915
0.670251 0.965249 0.932289
0.849491 0.962284 0.928135
0.939664 0.955825 0.918638
0.978570 0.948618 0.924085
0.265662 1.011019 0.951601
0.622518 1.000528 0.924192
0.783418 0.989443 0.900017
0.886646 0.979586 0.875189
0.953201 0.968833 0.853504
0.000000 0.000000 0.922800
0.612674 0.000000 1.021985
0.946662 0.000000 1.030002
1.071628 0.000000 1.031300
1.088126 0.000000 1.031959
0.000000 0.259856 0.972203
0.163367 0.156287 0.929400
0.770298 0.000000 0.992555
1.035349 0.000000 1.022124
1.048576 0.000000 0.975219
0.000000 0.626453 0.972485
0.000000 0.578627 0.916218
0.678152 0.683698 0.926240
0.939286 0.833698 0.967422
0.986776 0.889880 0.961948
0.168755 0.972207 0.990219
0.684785 0.967536 0.983977
0.852289 0.962203 0.978738
0.940151 0.953615 0.971828
0.978875 0.947142 0.961823
0.233271 1.010845 0.992277
0.612102 0.999716 0.976313
0.777646 0.987519 0.960691
0.883801 0.976219 0.945541
0.951359 0.965434 0.931657
