transforms/JF05_super_silver_color_push_d65_r709.cube
#  JF_05_D65_r709.cube
LUT_3D_SIZE 9
0.000000 0.000000 0.000000
0.000748 0.000000 0.000000
0.047099 0.000000 0.000000
0.157601 0.000000 0.000000
0.513569 0.000000 0.000000
0.675183 0.000000 0.000000
0.789451 0.000000 0.000000
0.877084 0.000000 0.000000
0.945456 0.000000 0.000000
0.000000 0.005284 0.000000
0.011600 0.020910 0.000000
0.264621 0.000000 0.000000
0.465956 0.000000 0.000000
0.616025 0.000000 0.000000
0.735803 0.000000 0.000000
0.833031 0.000000 0.000000
0.911274 0.000000 0.000000
0.973063 0.000000 0.000000
0.000000 0.284701 0.000000
0.000000 0.275018 0.000000
0.146481 0.180603 0.000000
0.361785 0.154447 0.000000
0.415056 0.143231 0.000000
0.545678 0.126450 0.000000
0.675931 0.090315 0.000000
0.864328 0.000000 0.000000
0.953421 0.000000 0.000000
0.000000 0.461020 0.000000
0.000000 0.456258 0.000000
0.000000 0.361168 0.000000
0.278022 0.324020 0.000000
0.473878 0.318591 0.000000
0.636788 0.322642 0.000000
0.771486 0.337984 0.000000
0.740583 0.383941 0.000000
0.829802 0.443326 0.000000
0.000000 0.631192 0.000000
0.000000 0.635841 0.000000
0.000000 0.615407 0.000000
0.218186 0.530332 0.000000
0.489855 0.549129 0.000000
0.676379 0.594200 0.000000
0.825176 0.662571 0.000000
0.935347 0.756048 0.000000
0.946620 0.809377 0.400331
0.000000 0.812140 0.000000
0.000000 0.834728 0.000000
0.000000 0.769711 0.000000
0.454224 0.804053 0.000000
0.708218 0.845206 0.000000
0.854110 0.886540 0.192480
0.930430 0.910051 0.341354
0.971945 0.921734 0.396893
0.995963 0.927881 0.423846
0.000000 0.987925 0.000000
0.000000 0.936746 0.000000
0.581121 0.951038 0.305658
0.741763 0.958585 0.388092
0.834243 0.961990 0.419875
0.896751 0.963168 0.432348
0.939813 0.962936 0.434631
0.969012 0.961946 0.424043
0.988998 0.960086 0.406930
0.219535 1.000784 0.467131
0.531430 0.996789 0.469880
0.673463 0.993548 0.464733
0.768862 0.990213 0.453704
0.837305 0.987214 0.433883
0.889316 0.983657 0.406622
0.927137 0.980415 0.373660
0.956126 0.977392 0.331922
0.977817 0.973769 0.280655
0.330592 1.011608 0.512546
0.535080 1.008542 0.475405
0.655442 1.004653 0.436734
0.742339 1.000609 0.390206
0.809049 0.997003 0.340745
0.860772 0.993863 0.279942
0.902932 0.989893 0.196280
0.936213 0.986366 0.000000
0.962286 0.983434 0.000000
0.000000 0.000000 0.042020
0.018246 0.000000 0.020865
0.053695 0.000000 0.000000
0.201826 0.000000 0.015903
0.538242 0.000000 0.145842
0.683440 0.000000 0.153421
0.797017 0.000000 0.000000
0.883671 0.000000 0.000000
0.950260 0.000000 0.000000
0.000000 0.022391 0.040105
0.011642 0.017171 0.036606
0.295588 0.000000 0.108193
0.484600 0.000000 0.000000
0.631282 0.000000 0.000000
0.746910 0.000000 0.000000
0.841571 0.000000 0.000000
0.918952 0.000000 0.000000
0.978396 0.000000 0.000000
0.000000 0.276400 0.000000
0.000000 0.269497 0.000000
0.148886 0.176940 0.000000
0.370357 0.147971 0.000000
0.430234 0.140832 0.000000
0.563519 0.121460 0.000000
0.702403 0.067751 0.000000
0.883453 0.000000 0.000000
0.961844 0.000000 0.000000
0.000000 0.456258 0.000000
0.000000 0.453085 0.000000
0.000000 0.364230 0.000000
0.283465 0.323867 0.000000
0.482810 0.318049 0.000000
0.645322 0.323531 0.000000
0.653018 0.354204 0.000000
0.753689 0.401511 0.000000
0.842416 0.465145 0.000000
0.000000 0.631192 0.000000
0.000000 0.638912 0.000000
0.000000 0.618561 0.000000
0.239607 0.534877 0.000000
0.505864 0.558354 0.000000
0.693469 0.606411 0.000000
0.829004 0.657622 0.000000
0.885227 0.749632 0.446199
0.957380 0.827892 0.597158
0.000000 0.818709 0.000000
0.000000 0.840896 0.000000
0.000000 0.772193 0.000000
0.488927 0.790118 0.000000
0.731998 0.849200 0.339349
0.866356 0.892215 0.482797
0.934013 0.912557 0.539275
0.973295 0.921684 0.564858
0.979657 0.926730 0.715632
0.000000 0.977137 0.435720
0.250494 0.941147 0.455330
0.601523 0.953564 0.531069
0.748496 0.959148 0.564498
0.837055 0.961911 0.578427
0.898085 0.961976 0.583774
0.939330 0.961223 0.580583
0.968825 0.959643 0.572297
0.988652 0.957054 0.558451
0.255589 1.000210 0.623932
0.534315 0.995927 0.618190
0.673926 0.992303 0.608946
0.767636 0.989002 0.598095
0.834922 0.985623 0.581982
0.886126 0.981676 0.562051
0.924634 0.978416 0.537834
0.954656 0.973979 0.511660
0.976830 0.969759 0.484745
0.322962 1.011331 0.646456
0.527989 1.007978 0.616398
0.647911 1.003549 0.585731
0.735647 0.999512 0.553994
0.803731 0.995639 0.521334
0.856385 0.991661 0.487666
0.899389 0.987092 0.450815
0.933479 0.983125 0.408950
0.959689 0.979773 0.364008
0.000000 0.000000 0.231430
0.044072 0.000000 0.167349
0.217437 0.000000 0.199773
0.651552 0.000000 0.439460
0.566545 0.000000 0.324390
0.698233 0.000000 0.364153
0.801560 0.000000 0.389443
0.883672 0.000000 0.407525
0.947860 0.000000 0.419650
0.000000 0.059216 0.301147
0.000000 0.043999 0.343005
0.469407 0.000000 0.454991
0.493108 0.000000 0.340671
0.632987 0.000000 0.361734
0.746935 0.000000 0.375091
0.840175 0.000000 0.384246
0.916590 0.000000 0.392222
0.976300 0.000000 0.395757
0.000000 0.247500 0.295347
0.000000 0.236766 0.283893
0.140414 0.147165 0.179957
0.295061 0.136213 0.163783
0.432705 0.121253 0.167457
0.571033 0.090366 0.175270
0.737379 0.000000 0.218040
0.890320 0.000000 0.283574
0.963093 0.000000 0.304293
0.000000 0.415282 0.218013
0.000000 0.413722 0.190746
0.000000 0.335594 0.082990
0.273825 0.291790 0.000000
0.415460 0.293092 0.065409
0.543064 0.313972 0.056222
0.655506 0.345776 0.120512
0.755934 0.394528 0.205204
0.846675 0.466585 0.309495
0.000000 0.596505 0.000000
0.000000 0.609101 0.000000
0.000000 0.590213 0.000000
0.247896 0.505247 0.000000
0.502731 0.529357 0.000000
0.690539 0.583916 0.187464
0.798955 0.682097 0.479567
0.903189 0.776614 0.613828
0.964624 0.843452 0.704431
0.000000 0.794812 0.158652
0.000000 0.817477 0.299820
0.000000 0.750562 0.285891
0.534366 0.805338 0.431025
0.759730 0.865421 0.561984
0.875342 0.899013 0.631537
0.937780 0.914181 0.663893
0.974467 0.922521 0.678733
0.980829 0.927568 0.781167
0.000000 0.976564 0.668747
0.350354 0.948219 0.634472
0.623659 0.956045 0.667626
0.755210 0.959709 0.683233
0.840057 0.961097 0.689573
0.898223 0.961396 0.689640
0.939588 0.960062 0.687029
0.968548 0.957765 0.677904
0.988280 0.954133 0.667456
0.284933 1.000049 0.732374
0.541844 0.995406 0.722785
0.676042 0.991848 0.711628
0.766412 0.987792 0.700752
0.833959 0.983991 0.685061
0.883964 0.980495 0.668795
0.923065 0.976161 0.651004
0.952686 0.971159 0.631660
0.975402 0.966921 0.609679
0.314960 1.011220 0.744942
0.521021 1.007081 0.716772
0.642265 1.002659 0.691493
0.730637 0.998626 0.666614
0.799353 0.994423 0.639725
0.853181 0.989678 0.613874
0.895641 0.985128 0.587497
0.930552 0.980723 0.560582
0.957500 0.977347 0.530765
0.000000 0.000000 0.373959
0.050752 0.000000 0.304270
0.251882 0.000000 0.363671
0.701523 0.000000 0.641498
0.883673 0.000000 0.699588
0.714696 0.000000 0.491165
0.813683 0.000000 0.521196
0.891584 0.000000 0.546035
0.955068 0.000000 0.565829
0.000000 0.066931 0.493970
0.026436 0.036348 0.665594
0.494847 0.000000 0.652383
0.731122 0.000000 0.680701
0.888946 0.000000 0.699469
0.758053 0.000000 0.524475
0.848718 0.000000 0.545638
0.922583 0.000000 0.565147
0.980571 0.000000 0.585091
0.000000 0.246131 0.484493
0.000000 0.235471 0.483156
0.142222 0.144913 0.370836
0.367557 0.105008 0.364272
0.447924 0.116465 0.324692
0.591676 0.074034 0.361546
0.795812 0.000000 0.475852
0.899596 0.000000 0.524468
0.967347 0.000000 0.559100
0.000000 0.410604 0.457051
0.000000 0.407486 0.450548
0.000000 0.353750 0.386174
0.275862 0.282923 0.304572
0.424070 0.294117 0.308224
0.551931 0.316532 0.329615
0.666824 0.353069 0.365648
0.767458 0.408923 0.415863
0.859847 0.490416 0.489578
0.000000 0.587071 0.445108
0.000000 0.598078 0.449158
0.000000 0.580757 0.422930
0.264875 0.505021 0.338797
0.522131 0.540045 0.376169
0.680944 0.608537 0.507071
0.823910 0.714494 0.622625
0.920289 0.804171 0.722024
0.970123 0.854706 0.779585
0.000000 0.796143 0.541383
0.000000 0.823635 0.589538
0.000000 0.768290 0.526597
0.582083 0.827074 0.615891
0.785271 0.881594 0.698575
0.883410 0.905845 0.737977
0.941191 0.916695 0.755154
0.961892 0.923862 0.824761
0.981825 0.929292 0.831929
0.000000 0.950969 0.734340
0.407297 0.953427 0.748104
0.638983 0.959365 0.765478
0.761692 0.961001 0.772146
0.842672 0.961752 0.773427
0.899418 0.960783 0.770785
0.939881 0.958744 0.767054
0.968336 0.955575 0.759213
0.988246 0.951936 0.748614
0.302129 1.000352 0.812411
0.546688 0.995335 0.801561
0.676348 0.991018 0.790804
0.766668 0.986959 0.779594
0.831349 0.983234 0.765345
0.881842 0.979154 0.751245
0.921495 0.973905 0.735787
0.951331 0.969473 0.719446
0.974533 0.964641 0.703231
0.302433 1.011136 0.818043
0.513720 1.006684 0.793857
0.636500 1.002018 0.772594
0.725619 0.997740 0.750804
0.795068 0.992875 0.730055
0.849708 0.988116 0.708493
0.893923 0.983519 0.686903
0.928307 0.979131 0.665982
0.956772 0.974485 0.644972
0.000000 0.000000 0.510938
0.060362 0.000000 0.443667
0.316908 0.000000 0.555100
0.734294 0.000000 0.784651
0.899502 0.000000 0.824734
1.001231 0.000000 0.848613
1.059209 0.000000 0.866615
0.900820 0.000000 0.645118
0.961466 0.000000 0.667611
0.000000 0.072215 0.662371
0.037302 0.036606 0.834189
0.515324 0.000000 0.794204
0.745396 0.000000 0.813461
0.899501 0.000000 0.830145
0.999383 0.000000 0.844816
0.857263 0.000000 0.652552
0.929770 0.000000 0.674813
0.988042 0.000000 0.695445
0.000000 0.247500 0.633395
0.000000 0.235471 0.636871
0.146123 0.144780 0.528540
0.380720 0.099246 0.527314
0.587541 0.000000 0.554613
0.619201 0.046040 0.490769
0.818571 0.000000 0.610557
0.910076 0.000000 0.648919
0.972491 0.000000 0.677504
0.000000 0.410604 0.618590
0.000000 0.407486 0.617084
0.000000 0.365860 0.569485
0.282372 0.284172 0.472068
0.481610 0.281210 0.472706
0.566606 0.328339 0.455328
0.680418 0.370370 0.493055
0.784007 0.431567 0.544176
0.875488 0.523819 0.612560
0.000000 0.590213 0.626804
0.000000 0.602800 0.634162
0.000000 0.583927 0.602120
0.287551 0.516282 0.516945
0.546721 0.558684 0.551574
0.714024 0.645230 0.631537
0.848181 0.746833 0.725739
0.933595 0.826348 0.800317
0.974981 0.864843 0.837757
0.000000 0.806804 0.716565
0.000000 0.834728 0.744660
0.240946 0.791700 0.678823
0.627691 0.849563 0.742349
0.801067 0.891221 0.793132
0.890761 0.910536 0.815394
0.944079 0.919228 0.826954
0.964106 0.925541 0.867037
0.982998 0.930130 0.872210
0.000000 0.954020 0.822916
0.445000 0.957324 0.829404
0.650394 0.961310 0.837402
0.767759 0.962303 0.839240
0.845477 0.961671 0.837920
0.900648 0.960015 0.835750
0.940208 0.957270 0.830230
0.967967 0.954123 0.823089
0.978111 0.950833 0.868167
0.318769 1.000241 0.874258
0.549099 0.995299 0.862216
0.676348 0.991018 0.851326
0.765188 0.986581 0.840593
0.830271 0.982021 0.830042
0.881040 0.977452 0.817228
0.919791 0.972232 0.803254
0.950974 0.967178 0.790720
0.973664 0.962362 0.777729
0.293827 1.011024 0.875492
0.508911 1.006252 0.854162
0.632746 1.001340 0.836107
0.720505 0.997104 0.816759
0.790655 0.991745 0.799743
0.845913 0.986563 0.782544
0.890968 0.981947 0.764170
0.927017 0.977188 0.747372
0.955912 0.972205 0.730257
0.000000 0.000000 0.635479
0.072350 0.000000 0.582138
0.501651 0.000000 0.822989
0.759693 0.000000 0.886735
0.912708 0.000000 0.913681
1.008620 0.000000 0.930603
1.063295 0.000000 0.943965
1.085820 0.000000 0.954257
0.967868 0.000000 0.746575
0.000000 0.073859 0.808240
0.044196 0.038634 0.939104
0.534707 0.000000 0.894806
0.759692 0.000000 0.907515
0.908744 0.000000 0.919917
1.005847 0.000000 0.930652
1.062247 0.000000 0.941305
1.085818 0.000000 0.951574
0.993708 0.000000 0.778315
0.000000 0.250242 0.751220
0.000000 0.238063 0.757209
0.149545 0.146857 0.660165
0.397072 0.095340 0.660745
0.611567 0.000000 0.693350
0.862603 0.000000 0.799047
1.012964 0.000000 0.873245
0.921237 0.000000 0.741038
0.976457 0.000000 0.761485
0.000000 0.413722 0.741409
0.000000 0.412162 0.742921
0.000000 0.374960 0.704370
0.291537 0.289736 0.607112
0.493184 0.288100 0.608352
0.658756 0.305564 0.623047
0.697245 0.389176 0.592720
0.801409 0.461213 0.641498
0.894691 0.566370 0.709131
0.000000 0.596505 0.756992
0.000000 0.612253 0.763553
0.000000 0.585493 0.724589
0.315098 0.530650 0.650130
0.572233 0.582036 0.681525
0.747514 0.682682 0.729805
0.869778 0.777992 0.804237
0.943584 0.843164 0.856001
0.979147 0.873867 0.881281
0.000000 0.822403 0.834700
0.000000 0.848301 0.847238
0.343376 0.814712 0.788092
0.668209 0.868948 0.835014
0.815591 0.899882 0.862379
0.896018 0.913866 0.875410
0.939219 0.922036 0.895515
0.966139 0.927227 0.901035
0.984847 0.930942 0.904673
0.000000 0.959844 0.890020
0.477706 0.961240 0.889841
0.661321 0.963261 0.891054
0.772311 0.962914 0.890631
0.846877 0.961631 0.888433
0.901704 0.959982 0.885398
0.939501 0.956562 0.879510
0.968278 0.952647 0.873808
0.978417 0.949357 0.898913
0.334119 1.000541 0.918900
0.551502 0.995263 0.908555
0.676501 0.990602 0.899239
0.763836 0.985788 0.888695
0.829081 0.981225 0.879353
0.879000 0.975786 0.869144
0.919141 0.970524 0.857767
0.949619 0.965493 0.846502
0.973352 0.960640 0.836557
0.280146 1.011022 0.919107
0.501499 1.005853 0.901822
0.626621 1.000952 0.884766
0.717345 0.995934 0.869927
0.787836 0.990574 0.854599
0.843421 0.985390 0.840565
0.888807 0.980766 0.826285
0.925311 0.975513 0.812368
0.954557 0.970519 0.798511
0.000000 0.000000 0.747127
0.091399 0.000000 0.715257
0.552380 0.000000 0.925088
0.781890 0.000000 0.957204
0.925063 0.000000 0.973642
1.015089 0.000000 0.984834
1.065925 0.000000 0.993270
1.086353 0.000000 0.999948
1.088126 0.000000 1.006375
0.000000 0.057124 0.972573
0.049367 0.040726 1.001645
0.552375 0.000000 0.964735
0.774008 0.000000 0.971946
0.919068 0.000000 0.978918
1.011391 0.000000 0.986381
1.065046 0.000000 0.993285
1.086350 0.000000 0.999359
1.088120 0.000000 1.006961
0.000000 0.252985 0.845437
0.000000 0.240656 0.853180
0.154266 0.148890 0.769643
0.415330 0.090392 0.770197
0.638739 0.000000 0.804974
0.916347 0.000000 0.918650
1.022341 0.000000 0.948169
1.069475 0.000000 0.961548
0.977132 0.000000 0.822084
0.000000 0.416843 0.836947
0.000000 0.416843 0.838216
0.000000 0.384167 0.808155
0.302138 0.296730 0.716288
0.506462 0.297979 0.717592
0.671272 0.319435 0.731688
0.803469 0.364197 0.751878
0.817749 0.491710 0.722772
0.913072 0.611553 0.788535
0.000000 0.604375 0.851648
0.000000 0.623295 0.858472
0.000000 0.561431 0.787874
0.346862 0.550877 0.756340
0.603526 0.611395 0.784222
0.795868 0.708105 0.834260
0.890646 0.806631 0.864658
0.950367 0.855504 0.897283
0.982010 0.879870 0.914511
0.000000 0.838428 0.916243
0.000000 0.829700 0.885743
0.421816 0.837217 0.868431
0.700094 0.885901 0.899148
0.827318 0.907620 0.913378
0.901276 0.917197 0.919711
0.942107 0.924570 0.923952
0.967808 0.928927 0.927767
0.985346 0.931805 0.929987
0.000000 0.964391 0.936915
0.501401 0.965248 0.933943
0.670251 0.965249 0.932289
0.776645 0.964257 0.930970
0.849491 0.962284 0.928135
0.901878 0.959245 0.923740
0.939664 0.955825 0.918638
0.963142 0.951362 0.926977
0.978570 0.948618 0.924085
0.341331 1.000897 0.952959
0.553901 0.995227 0.944295
0.676654 0.990187 0.935694
0.762483 0.984994 0.927544
0.826558 0.980146 0.918566
0.878053 0.974664 0.909735
0.917302 0.969430 0.901663
0.948263 0.963808 0.891751
0.972358 0.958942 0.882964
0.265662 1.011019 0.951601
0.494012 1.005453 0.937699
0.622518 1.000528 0.924192
0.712242 0.995219 0.911423
0.783418 0.989443 0.900017
0.840928 0.984215 0.887584
0.886646 0.979586 0.875189
0.923607 0.973838 0.864752
0.953201 0.968833 0.853504
0.000000 0.000000 0.843125
0.132689 0.000000 0.856921
0.587053 0.000000 0.987038
0.798532 0.000000 1.002440
0.935857 0.000000 1.011270
1.021862 0.000000 1.016298
1.068995 0.000000 1.021018
1.086885 0.000000 1.023949
1.088126 0.000000 1.026744
0.000000 0.056429 1.023531
0.055267 0.043370 1.032535
0.566540 0.000000 1.009268
0.786424 0.000000 1.011918
0.928658 0.000000 1.014328
1.017861 0.000000 1.018054
1.068116 0.000000 1.021712
1.086881 0.000000 1.024460
1.088119 0.000000 1.027766
0.000000 0.255731 0.917378
0.000000 0.243392 0.925700
0.158761 0.152035 0.858947
0.435402 0.085973 0.860609
0.672579 0.000000 0.897916
0.937950 0.000000 0.981498
1.029235 0.000000 0.995538
1.070711 0.000000 1.000621
1.064972 0.000000 0.959423
0.000000 0.421527 0.910149
0.000000 0.423089 0.912161
0.000000 0.393482 0.888008
0.312450 0.305226 0.805080
0.521504 0.310864 0.806135
0.685006 0.336534 0.817308
0.816740 0.390724 0.835078
0.919371 0.480284 0.861191
0.928950 0.652441 0.850693
0.000000 0.613830 0.922171
0.000000 0.635841 0.926402
0.000000 0.567658 0.859609
0.381610 0.574295 0.839902
0.640605 0.646357 0.865514
0.822026 0.740639 0.902038
0.930155 0.817648 0.931963
0.957008 0.866711 0.929908
0.984394 0.884874 0.940727
0.000000 0.856948 0.968807
0.000000 0.824115 0.922112
0.488645 0.858950 0.926572
0.722422 0.896405 0.943399
0.836948 0.913125 0.950525
0.905328 0.920568 0.953466
0.949858 0.924295 0.953928
0.968800 0.930652 0.949981
0.986508 0.931762 0.950325
0.000000 0.968285 0.969276
0.520006 0.967149 0.965744
0.679406 0.966507 0.963037
0.779647 0.964754 0.960516
0.850891 0.962243 0.957325
0.902050 0.958510 0.953669
0.939989 0.954351 0.949437
0.963299 0.950625 0.947741
0.978722 0.947880 0.944551
0.348398 1.001251 0.977420
0.556292 0.995191 0.969872
0.674848 0.989811 0.963026
0.761002 0.984617 0.956053
0.825455 0.979028 0.948589
0.875868 0.973579 0.942005
0.916653 0.967723 0.934771
0.947649 0.962675 0.927276
0.967183 0.957813 0.933855
0.250194 1.011014 0.975744
0.489078 1.005019 0.964703
0.616235 1.000141 0.954143
0.708929 0.994465 0.943478
0.780469 0.988689 0.934449
0.838435 0.983041 0.924678
0.884605 0.977920 0.914959
0.922956 0.972131 0.906309
0.952715 0.967120 0.896812
0.000000 0.000000 0.922800
0.264750 0.000000 1.007198
0.612674 0.000000 1.021985
0.815199 0.000000 1.027364
0.946662 0.000000 1.030002
1.027249 0.000000 1.031002
1.071628 0.000000 1.031300
1.087416 0.000000 1.031972
1.088126 0.000000 1.031959
0.000000 0.057821 1.039207
0.061198 0.046019 1.039718
0.578525 0.000000 1.031855
0.798529 0.000000 1.031373
0.937055 0.000000 1.031755
1.023400 0.000000 1.031405
1.070748 0.000000 1.031570
1.087500 0.000000 1.031968
1.088117 0.000000 1.031956
0.000000 0.259856 0.972203
0.000000 0.247500 0.978970
0.163367 0.156287 0.929400
0.457256 0.077923 0.931601
0.770298 0.000000 0.992555
0.954758 0.000000 1.016803
1.035349 0.000000 1.022124
1.071028 0.000000 1.022197
1.048576 0.000000 0.975219
0.000000 0.427779 0.963002
0.000000 0.429343 0.965630
0.000000 0.402814 0.947609
0.324219 0.315169 0.877385
0.536542 0.324066 0.876887
0.700140 0.356897 0.884735
0.831761 0.420654 0.899767
0.934441 0.526302 0.921858
1.001910 0.651330 0.948181
0.000000 0.626453 0.972485
0.000000 0.649665 0.975251
0.000000 0.578627 0.916218
0.418217 0.598901 0.904548
0.678152 0.683698 0.926240
0.844922 0.772170 0.950675
0.939286 0.833698 0.967422
0.984784 0.860994 0.974029
0.986776 0.889880 0.961948
0.000000 0.877127 1.000132
0.000000 0.839400 0.961648
0.547449 0.878216 0.967259
0.740605 0.905003 0.973639
0.844167 0.917274 0.976152
0.909079 0.923074 0.977114
0.952256 0.925089 0.977429
0.981183 0.925793 0.976842
0.986817 0.932631 0.967064
0.168755 0.972207 0.990219
0.535565 0.969652 0.986563
0.684785 0.967536 0.983977
0.782647 0.965250 0.981616
0.852289 0.962203 0.978738
0.902223 0.957774 0.975833
0.940151 0.953615 0.971828
0.967849 0.948268 0.968675
0.978875 0.947142 0.961823
0.355707 1.001193 0.993957
0.556494 0.994776 0.987922
0.675000 0.989397 0.982801
0.759520 0.984239 0.977715
0.824195 0.978488 0.971767
0.874920 0.972458 0.965953
0.914813 0.966630 0.960847
0.947163 0.960961 0.954993
0.967497 0.956337 0.952648
0.233271 1.010845 0.992277
0.481311 1.004867 0.984159
0.612102 0.999716 0.976313
0.705613 0.993711 0.967844
0.777646 0.987519 0.960691
0.835828 0.982284 0.952823
0.883801 0.976219 0.945541
0.921116 0.971037 0.938307
0.951359 0.965434 0.931657
