transforms/JF06_cool_push_d65_r709.cube
#  JF_06_D65_r709.cube
LUT_3D_SIZE 33
0.000000 0.000000 0.000000
0.000333 0.000176 0.000513
0.001844 0.000000 0.001065
0.005878 0.000000 0.001443
0.014884 0.000000 0.000000
0.030942 0.000000 0.000000
0.057207 0.000000 0.000000
0.096179 0.000000 0.000000
0.150686 0.000000 0.000000
0.199276 0.000000 0.000000
0.253267 0.000000 0.000000
0.313812 0.000000 0.000000
0.378409 0.000000 0.000000
0.447564 0.000000 0.000000
0.517088 0.000000 0.000000
0.590463 0.000000 0.000000
0.659984 0.000000 0.000000
0.726239 0.000000 0.000000
0.789451 0.000000 0.000000
0.847356 0.000000 0.000000
0.899502 0.000000 0.000000
0.945460 0.000000 0.000000
0.983889 0.000000 0.000000
1.016013 0.000000 0.000000
1.041876 0.000000 0.000000
1.061032 0.000000 0.000000
1.074260 0.000000 0.000000
1.082195 0.000000 0.000000
1.086618 0.000000 0.000000
1.088126 0.000000 0.000000
1.088126 0.000000 0.000000
1.088126 0.000000 0.000000
1.088126 0.000000 0.000000
0.000000 0.000609 0.000453
0.000109 0.000590 0.000454
0.001639 0.001215 0.000939
0.005620 0.001523 0.001218
0.014207 0.000000 0.000000
0.029755 0.000000 0.000000
0.055268 0.000000 0.000000
0.092651 0.000000 0.000000
0.147233 0.000000 0.000000
0.194180 0.000000 0.000000
0.247726 0.000000 0.000000
0.306085 0.000000 0.000000
0.370331 0.000000 0.000000
0.439219 0.000000 0.000000
0.508458 0.000000 0.000000
0.580233 0.000000 0.000000
0.649866 0.000000 0.000000
0.717992 0.000000 0.000000
0.781890 0.000000 0.000000
0.838813 0.000000 0.000000
0.892903 0.000000 0.000000
0.939457 0.000000 0.000000
0.978547 0.000000 0.000000
1.011392 0.000000 0.000000
1.038024 0.000000 0.000000
1.057992 0.000000 0.000000
1.072066 0.000000 0.000000
1.081134 0.000000 0.000000
1.086263 0.000000 0.000000
1.088125 0.000000 0.000000
1.088125 0.000000 0.000000
1.088125 0.000000 0.000000
1.088125 0.000000 0.000000
0.000000 0.002949 0.000000
0.000000 0.002948 0.000000
0.000399 0.002940 0.000000
0.005122 0.004370 0.000000
0.013618 0.005443 0.000000
0.028926 0.003898 0.000000
0.053454 0.000000 0.000000
0.089970 0.000000 0.000000
0.143754 0.000000 0.000000
0.190346 0.000000 0.000000
0.242179 0.000000 0.000000
0.300086 0.000000 0.000000
0.363870 0.000000 0.000000
0.432544 0.000000 0.000000
0.501643 0.000000 0.000000
0.573416 0.000000 0.000000
0.643122 0.000000 0.000000
0.709749 0.000000 0.000000
0.774005 0.000000 0.000000
0.831696 0.000000 0.000000
0.886307 0.000000 0.000000
0.933454 0.000000 0.000000
0.973205 0.000000 0.000000
1.006769 0.000000 0.000000
1.034172 0.000000 0.000000
1.055560 0.000000 0.000000
1.070308 0.000000 0.000000
1.080071 0.000000 0.000000
1.085907 0.000000 0.000000
1.087945 0.000000 0.000000
1.088123 0.000000 0.000000
1.088122 0.000000 0.000000
1.088122 0.000000 0.000000
0.000000 0.008700 0.000000
0.000000 0.008552 0.000000
0.000000 0.008547 0.000000
0.003353 0.008513 0.000000
0.012485 0.011239 0.000000
0.027778 0.013540 0.000000
0.051513 0.013916 0.000000
0.088116 0.000000 0.000000
0.140172 0.000000 0.000000
0.186440 0.000000 0.000000
0.237964 0.000000 0.000000
0.295594 0.000000 0.000000
0.358995 0.000000 0.000000
0.425853 0.000000 0.000000
0.494817 0.000000 0.000000
0.566516 0.000000 0.000000
0.636371 0.000000 0.000000
0.703147 0.000000 0.000000
0.767626 0.000000 0.000000
0.825802 0.000000 0.000000
0.879704 0.000000 0.000000
0.928644 0.000000 0.000000
0.968924 0.000000 0.000000
1.003063 0.000000 0.000000
1.031082 0.000000 0.000000
1.053120 0.000000 0.000000
1.068544 0.000000 0.000000
1.079000 0.000000 0.000000
1.085541 0.000000 0.000000
1.087669 0.000000 0.000000
1.088112 0.000000 0.000000
1.088112 0.000000 0.000000
1.088111 0.000000 0.000000
0.000000 0.019711 0.000000
0.000000 0.019710 0.000000
0.000000 0.019440 0.000000
0.000000 0.019153 0.000000
0.009556 0.019066 0.000000
0.025629 0.023948 0.000000
0.049482 0.028161 0.000000
0.085164 0.029813 0.000000
0.136262 0.026737 0.000000
0.182320 0.000000 0.000000
0.233606 0.000000 0.000000
0.289521 0.000000 0.000000
0.352482 0.000000 0.000000
0.419105 0.000000 0.000000
0.487944 0.000000 0.000000
0.559365 0.000000 0.000000
0.629588 0.000000 0.000000
0.696517 0.000000 0.000000
0.761221 0.000000 0.000000
0.819694 0.000000 0.000000
0.874397 0.000000 0.000000
0.923814 0.000000 0.000000
0.964624 0.000000 0.000000
0.999339 0.000000 0.000000
1.027974 0.000000 0.000000
1.050660 0.000000 0.000000
1.066759 0.000000 0.000000
1.078176 0.000000 0.000000
1.085070 0.000000 0.000000
1.087373 0.000000 0.000000
1.088083 0.000000 0.000000
1.088082 0.000000 0.000000
1.088082 0.000000 0.000000
0.000000 0.038534 0.000000
0.000000 0.038111 0.000000
0.000000 0.037688 0.000000
0.000000 0.037675 0.000000
0.000000 0.037197 0.000000
0.020541 0.037025 0.000000
0.045867 0.044593 0.000000
0.081881 0.051307 0.000000
0.132907 0.055068 0.000000
0.177735 0.047829 0.000000
0.228923 0.030141 0.000000
0.286167 0.000000 0.000000
0.347494 0.000000 0.000000
0.413882 0.000000 0.000000
0.482659 0.000000 0.000000
0.553896 0.000000 0.000000
0.622724 0.000000 0.000000
0.689820 0.000000 0.000000
0.754758 0.000000 0.000000
0.815048 0.000000 0.000000
0.868599 0.000000 0.000000
0.918938 0.000000 0.000000
0.960280 0.000000 0.000000
0.996497 0.000000 0.000000
1.025593 0.000000 0.000000
1.048162 0.000000 0.000000
1.065377 0.000000 0.000000
1.077312 0.000000 0.000000
1.084206 0.000000 0.000000
1.087042 0.000000 0.000000
1.088014 0.000000 0.000000
1.088014 0.000000 0.000000
1.088014 0.000000 0.000000
0.000000 0.067453 0.000000
0.000000 0.066840 0.000000
0.000000 0.066228 0.000000
0.000000 0.065605 0.000000
0.000000 0.065566 0.000000
0.000000 0.065445 0.000000
0.039067 0.064528 0.000000
0.076381 0.075483 0.000000
0.128026 0.085354 0.000000
0.173425 0.080856 0.000000
0.224931 0.074222 0.000000
0.280832 0.062199 0.000000
0.343693 0.031945 0.000000
0.408363 0.000000 0.000000
0.477140 0.000000 0.000000
0.548232 0.000000 0.000000
0.617291 0.000000 0.000000
0.684636 0.000000 0.000000
0.749759 0.000000 0.000000
0.808773 0.000000 0.000000
0.864131 0.000000 0.000000
0.915046 0.000000 0.000000
0.956918 0.000000 0.000000
0.992651 0.000000 0.000000
1.023135 0.000000 0.000000
1.046194 0.000000 0.000000
1.063919 0.000000 0.000000
1.076200 0.000000 0.000000
1.083269 0.000000 0.000000
1.086634 0.000000 0.000000
1.087876 0.000000 0.000000
1.087870 0.000000 0.000000
1.087870 0.000000 0.000000
0.000000 0.109846 0.000000
0.000000 0.109009 0.000000
0.000000 0.108172 0.000000
0.000000 0.107329 0.000000
0.000000 0.106466 0.000000
0.000000 0.106382 0.000000
0.014915 0.105328 0.000000
0.066663 0.104837 0.000000
0.120037 0.120037 0.000000
0.167171 0.116920 0.000000
0.219626 0.113188 0.000000
0.276027 0.107156 0.000000
0.337609 0.097300 0.000000
0.403956 0.080477 0.000000
0.471174 0.046126 0.000000
0.542205 0.000000 0.000000
0.611545 0.000000 0.000000
0.679182 0.000000 0.000000
0.744541 0.000000 0.000000
0.803819 0.000000 0.000000
0.859481 0.000000 0.000000
0.910740 0.000000 0.000000
0.953264 0.000000 0.000000
0.989568 0.000000 0.000000
1.020532 0.000000 0.000000
1.044087 0.000000 0.000000
1.062324 0.000000 0.000000
1.075054 0.000000 0.000000
1.082463 0.000000 0.000000
1.086182 0.000000 0.000000
1.087602 0.000000 0.000000
1.087602 0.000000 0.000000
1.087592 0.000000 0.000000
0.000000 0.168492 0.000000
0.000000 0.167311 0.000000
0.000000 0.166129 0.000000
0.000000 0.164943 0.000000
0.000000 0.163743 0.000000
0.000000 0.162498 0.000000
0.000000 0.162334 0.000000
0.046957 0.160793 0.000000
0.105862 0.160067 0.000000
0.157355 0.158710 0.000000
0.212100 0.155227 0.000000
0.269654 0.151505 0.000000
0.331929 0.145762 0.000000
0.397136 0.135998 0.000000
0.466244 0.123205 0.000000
0.535630 0.104217 0.000000
0.605339 0.071456 0.000000
0.673284 0.000000 0.000000
0.738970 0.000000 0.000000
0.798549 0.000000 0.000000
0.854544 0.000000 0.000000
0.906169 0.000000 0.000000
0.949070 0.000000 0.000000
0.987033 0.000000 0.000000
1.017703 0.000000 0.000000
1.041598 0.000000 0.000000
1.060617 0.000000 0.000000
1.073253 0.000000 0.000000
1.081199 0.000000 0.000000
1.085523 0.000000 0.000000
1.087122 0.000000 0.000000
1.087122 0.000000 0.000000
1.087122 0.000000 0.000000
0.000000 0.216107 0.000000
0.000000 0.214821 0.000000
0.000000 0.213533 0.000000
0.000000 0.212245 0.000000
0.000000 0.210946 0.000000
0.000000 0.209619 0.000000
0.000000 0.208227 0.000000
0.000000 0.207975 0.000000
0.078167 0.206186 0.000000
0.141776 0.203982 0.000000
0.200785 0.202382 0.000000
0.260703 0.199885 0.000000
0.324521 0.194733 0.000000
0.390503 0.189320 0.000000
0.458446 0.181889 0.000000
0.529889 0.171535 0.000000
0.600066 0.158007 0.000000
0.668310 0.140228 0.000000
0.732807 0.116403 0.000000
0.794311 0.073930 0.000000
0.849164 0.000000 0.000000
0.901158 0.000000 0.000000
0.944504 0.000000 0.000000
0.982917 0.000000 0.000000
1.014059 0.000000 0.000000
1.039219 0.000000 0.000000
1.057975 0.000000 0.000000
1.071574 0.000000 0.000000
1.079876 0.000000 0.000000
1.084575 0.000000 0.000000
1.086325 0.000000 0.000000
1.086325 0.000000 0.000000
1.086325 0.000000 0.000000
0.000000 0.269497 0.000000
0.000000 0.266739 0.000000
0.000000 0.263984 0.000000
0.000000 0.263981 0.000000
0.000000 0.261218 0.000000
0.000000 0.261187 0.000000
0.000000 0.259734 0.000000
0.000000 0.258183 0.000000
0.000000 0.256447 0.000000
0.112794 0.255798 0.000000
0.183600 0.253274 0.000000
0.248067 0.251492 0.000000
0.312575 0.248892 0.000000
0.381948 0.243602 0.000000
0.450849 0.238514 0.000000
0.522933 0.231652 0.000000
0.592045 0.223326 0.000000
0.660840 0.211231 0.000000
0.727549 0.198588 0.000000
0.787858 0.184383 0.000000
0.844587 0.167705 0.000000
0.895638 0.148640 0.000000
0.940651 0.126626 0.000000
0.979409 0.100187 0.000000
1.010900 0.065110 0.000000
1.035639 0.000000 0.000000
1.055528 0.000000 0.000000
1.069047 0.000000 0.000000
1.078151 0.000000 0.000000
1.083172 0.000000 0.000000
1.085169 0.000000 0.000000
1.085130 0.000000 0.000000
1.085130 0.000000 0.000000
0.000000 0.326766 0.000000
0.000000 0.323850 0.000000
0.000000 0.322394 0.000000
0.000000 0.319479 0.000000
0.000000 0.318017 0.000000
0.000000 0.316540 0.000000
0.000000 0.315027 0.000000
0.000000 0.313441 0.000000
0.000000 0.313175 0.000000
0.026786 0.311232 0.000000
0.155413 0.308948 0.000000
0.229500 0.307629 0.000000
0.298458 0.305706 0.000000
0.370580 0.301381 0.000000
0.441291 0.296142 0.000000
0.512420 0.292883 0.000000
0.584446 0.285239 0.000000
0.653811 0.278063 0.000000
0.719521 0.269896 0.000000
0.782078 0.258858 0.000000
0.839246 0.248885 0.000000
0.890635 0.240531 0.000000
0.936113 0.227932 0.000000
0.974179 0.217910 0.000000
1.006195 0.208474 0.000000
1.032240 0.199985 0.000000
1.052505 0.192785 0.000000
1.066395 0.187502 0.000000
1.075870 0.183718 0.000000
1.081297 0.181478 0.000000
1.083295 0.183634 0.000000
1.083438 0.180580 0.000000
1.083384 0.183597 0.000000
0.000000 0.387271 0.000000
0.000000 0.384168 0.000000
0.000000 0.382617 0.000000
0.000000 0.379516 0.000000
0.000000 0.377991 0.000000
0.000000 0.376456 0.000000
0.000000 0.374891 0.000000
0.000000 0.373273 0.000000
0.000000 0.371549 0.000000
0.000000 0.369664 0.000000
0.102986 0.369015 0.000000
0.201074 0.368031 0.000000
0.281410 0.363440 0.000000
0.355640 0.361310 0.000000
0.428702 0.358478 0.000000
0.501610 0.354846 0.000000
0.575056 0.348675 0.000000
0.645351 0.343333 0.000000
0.711918 0.335640 0.000000
0.775153 0.328934 0.000000
0.831425 0.322090 0.000000
0.884831 0.314743 0.000000
0.930700 0.307694 0.000000
0.969199 0.301191 0.000000
1.001633 0.295256 0.000000
1.028085 0.290077 0.000000
1.048823 0.283670 0.000000
1.063028 0.282725 0.000000
1.072955 0.278348 0.000000
1.078683 0.279227 0.000000
1.080741 0.278757 0.000000
1.081010 0.278695 0.000000
1.081081 0.276485 0.000000
0.000000 0.451499 0.000000
0.000000 0.446745 0.000000
0.000000 0.445160 0.000000
0.000000 0.441992 0.000000
0.000000 0.440405 0.000000
0.000000 0.438809 0.000000
0.000000 0.437192 0.000000
0.000000 0.435531 0.000000
0.000000 0.433792 0.000000
0.000000 0.431914 0.000000
0.000000 0.429829 0.000000
0.158486 0.429028 0.000000
0.254036 0.426258 0.000000
0.335525 0.424581 0.000000
0.412953 0.420754 0.000000
0.488229 0.417894 0.000000
0.563623 0.412676 0.000000
0.635189 0.408502 0.000000
0.702598 0.403848 0.000000
0.766955 0.396988 0.000000
0.823901 0.391767 0.000000
0.876570 0.386364 0.000000
0.924325 0.380950 0.000000
0.963317 0.376140 0.000000
0.996214 0.371789 0.000000
1.023107 0.368023 0.000000
1.044291 0.362997 0.000000
1.058973 0.360752 0.000000
1.069222 0.359147 0.000000
1.075403 0.358164 0.000000
1.077470 0.357833 0.000000
1.077919 0.357760 0.000000
1.077919 0.357760 0.000000
0.000000 0.514736 0.000000
0.000000 0.511430 0.000000
0.000000 0.509778 0.000000
0.000000 0.506473 0.000000
0.000000 0.504819 0.000000
0.000000 0.503158 0.000000
0.000000 0.499830 0.000000
0.000000 0.498116 0.000000
0.000000 0.497988 0.000000
0.000000 0.496098 0.000000
0.000000 0.494038 0.000000
0.000000 0.491752 0.000000
0.216191 0.490771 0.000000
0.309247 0.487779 0.000000
0.392951 0.484296 0.000000
0.473698 0.481913 0.000000
0.549765 0.477372 0.000000
0.623039 0.473998 0.000000
0.691936 0.468514 0.000000
0.757302 0.464355 0.000000
0.815077 0.460182 0.000000
0.868467 0.455885 0.000000
0.917010 0.449770 0.000000
0.956553 0.445955 0.000000
0.989959 0.442516 0.000000
1.017456 0.437655 0.000000
1.038992 0.435200 0.000000
1.054099 0.433423 0.000000
1.064755 0.432142 0.000000
1.071418 0.431329 0.000000
1.073495 0.431074 0.000000
1.074037 0.431007 0.000000
1.074037 0.431007 0.000000
0.000000 0.579156 0.000000
0.000000 0.575955 0.000000
0.000000 0.572756 0.000000
0.000000 0.571156 0.000000
0.000000 0.567955 0.000000
0.000000 0.566348 0.000000
0.000000 0.564728 0.000000
0.000000 0.563077 0.000000
0.000000 0.561373 0.000000
0.000000 0.559582 0.000000
0.000000 0.557647 0.000000
0.000000 0.555509 0.000000
0.151806 0.553110 0.000000
0.275938 0.551972 0.000000
0.369557 0.548847 0.000000
0.453862 0.545294 0.000000
0.532980 0.542924 0.000000
0.608837 0.538486 0.000000
0.679124 0.535373 0.000000
0.745771 0.531943 0.000000
0.804741 0.528496 0.000000
0.859182 0.523261 0.000000
0.908321 0.519730 0.000000
0.948664 0.514873 0.000000
0.982642 0.512048 0.000000
1.010537 0.509607 0.000000
1.032564 0.507599 0.000000
1.048572 0.506095 0.000000
1.059614 0.503263 0.000000
1.066410 0.502598 0.000000
1.068500 0.502392 0.000000
1.069227 0.502320 0.000000
1.069227 0.502320 0.000000
0.000000 0.640447 0.000000
0.000000 0.637376 0.000000
0.000000 0.634308 0.000000
0.000000 0.632772 0.000000
0.000000 0.629610 0.000000
0.000000 0.628023 0.000000
0.000000 0.626424 0.000000
0.000000 0.623220 0.000000
0.000000 0.621551 0.000000
0.000000 0.619808 0.000000
0.000000 0.617940 0.000000
0.000000 0.617480 0.000000
0.000000 0.615217 0.000000
0.227944 0.612686 0.000000
0.338014 0.611398 0.000000
0.430005 0.608160 0.000000
0.515523 0.606090 0.000000
0.592328 0.602156 0.000000
0.664940 0.597887 0.000000
0.733090 0.594964 0.000000
0.793647 0.590373 0.000000
0.848863 0.587352 0.000000
0.898839 0.584349 0.000000
0.939907 0.580013 0.000000
0.974507 0.577610 0.000000
1.002967 0.575531 0.000000
1.026304 0.572060 0.000000
1.042155 0.570811 0.000000
1.053500 0.569898 0.000000
1.060619 0.569317 0.000000
1.062907 0.569129 0.000000
1.063731 0.569062 0.000000
1.063731 0.569062 0.000000
0.000000 0.699801 0.000000
0.000000 0.696833 0.000000
0.000000 0.693866 0.000000
0.000000 0.690899 0.000000
0.000000 0.689415 0.000000
0.000000 0.687926 0.000000
0.000000 0.684944 0.000000
0.000000 0.683424 0.000000
0.000000 0.681864 0.000000
0.000000 0.680178 0.000000
0.000000 0.678385 0.000000
0.000000 0.676453 0.000000
0.000000 0.674319 0.000000
0.154242 0.671927 0.000000
0.302475 0.669251 0.000000
0.404431 0.667814 0.000000
0.494033 0.664492 0.000000
0.575867 0.662412 0.000000
0.650846 0.658528 0.000000
0.720693 0.655982 0.000000
0.782626 0.651819 0.000000
0.838834 0.649192 0.000000
0.888344 0.646650 0.000000
0.931342 0.642654 0.000000
0.966469 0.640568 0.000000
0.995374 0.638763 0.000000
1.018483 0.635631 0.000000
1.035285 0.634500 0.000000
1.047085 0.632053 0.000000
1.053986 0.631571 0.000000
1.056660 0.631382 0.000000
1.057675 0.631310 0.000000
1.057675 0.631310 0.000000
0.000000 0.755001 0.000000
0.000000 0.752167 0.000000
0.000000 0.749335 0.000000
0.000000 0.746504 0.000000
0.000000 0.743672 0.000000
0.000000 0.742251 0.000000
0.000000 0.740823 0.000000
0.000000 0.737959 0.000000
0.000000 0.736476 0.000000
0.000000 0.734936 0.000000
0.000000 0.733301 0.000000
0.000000 0.732957 0.000000
0.000000 0.731020 0.000000
0.000000 0.728877 0.000000
0.251117 0.726466 0.000000
0.372236 0.723698 0.000000
0.471218 0.722097 0.000000
0.555780 0.718792 0.000000
0.633260 0.716748 0.000000
0.705553 0.712974 0.000000
0.768729 0.710696 0.000000
0.826679 0.706824 0.000000
0.878490 0.704505 0.000000
0.921071 0.700902 0.000000
0.956923 0.699045 0.000000
0.986472 0.697434 0.000000
1.010174 0.694533 0.000000
1.027495 0.693515 0.000000
1.039592 0.692788 0.000000
1.046836 0.692347 0.000000
1.049909 0.690596 0.000000
1.051026 0.690527 0.000000
1.051026 0.690527 0.000000
0.000000 0.805472 0.000000
0.000000 0.801473 0.000000
0.000000 0.800140 0.000000
0.000000 0.797475 0.000000
0.000000 0.794810 0.000000
0.000000 0.793473 0.000000
0.000000 0.790797 0.000000
0.000000 0.789435 0.000000
0.000000 0.788042 0.000000
0.000000 0.786598 0.000000
0.000000 0.785068 0.000000
0.000000 0.783426 0.000000
0.000000 0.781640 0.000000
0.000000 0.779636 0.000000
0.184577 0.777405 0.000000
0.337104 0.776259 0.000000
0.444532 0.773511 0.000000
0.534304 0.770546 0.000000
0.617063 0.768653 0.000000
0.689690 0.765317 0.000000
0.754525 0.763261 0.000000
0.814037 0.759777 0.000000
0.866949 0.757680 0.000000
0.910429 0.754352 0.000000
0.948037 0.752620 0.000000
0.978307 0.749683 0.000000
1.002226 0.748469 0.000000
1.019902 0.747544 0.000000
1.032299 0.746880 0.000000
1.039532 0.745010 0.000000
1.042910 0.744825 0.000000
1.044132 0.744757 0.000000
1.044332 0.743269 0.000000
0.000000 0.850772 0.000000
0.000000 0.848301 0.000000
0.000000 0.845832 0.000000
0.000000 0.843364 0.000000
0.000000 0.840895 0.000000
0.000000 0.839656 0.000000
0.000000 0.838410 0.000000
0.000000 0.837150 0.000000
0.000000 0.834627 0.000000
0.000000 0.833291 0.000000
0.000000 0.831877 0.000000
0.000000 0.830361 0.000000
0.000000 0.828712 0.000000
0.000000 0.826864 0.000000
0.000000 0.824807 0.000000
0.292805 0.823787 0.000000
0.417666 0.821228 0.000000
0.513564 0.818501 0.000000
0.598380 0.815563 0.000000
0.675026 0.813699 0.000000
0.741849 0.810558 0.000000
0.802469 0.808610 0.000000
0.855320 0.805472 0.000000
0.900642 0.803714 0.000000
0.938112 0.800895 0.000000
0.968848 0.799547 0.000000
0.993385 0.798424 0.000000
1.011808 0.796282 0.000000
1.024984 0.795644 0.000000
1.032083 0.795294 0.000000
1.035874 0.793832 0.000000
1.037201 0.793766 0.000000
1.037201 0.793766 0.000000
0.000000 0.890599 0.000000
0.000000 0.888352 0.000000
0.000000 0.886106 0.000000
0.000000 0.883860 0.000000
0.000000 0.881614 0.000000
0.000000 0.880487 0.000000
0.000000 0.879354 0.000000
0.000000 0.877085 0.000000
0.000000 0.875912 0.000000
0.000000 0.874695 0.000000
0.000000 0.873407 0.000000
0.000000 0.872023 0.000000
0.000000 0.870517 0.000000
0.000000 0.868826 0.000000
0.000000 0.866964 0.000000
0.243364 0.865997 0.000000
0.386248 0.863679 0.000000
0.492380 0.861137 0.000000
0.580769 0.859569 0.000000
0.658475 0.856750 0.000000
0.728992 0.853813 0.000000
0.789292 0.852054 0.000000
0.844922 0.849111 0.000000
0.889861 0.847519 0.000000
0.928135 0.844922 0.000000
0.960416 0.843626 0.000000
0.985397 0.842578 0.000000
1.004189 0.840612 0.000000
1.017021 0.840042 0.000000
1.025040 0.838528 0.000000
1.028864 0.838353 0.000000
1.030299 0.838288 0.000000
1.030299 0.838288 0.000000
0.000000 0.923782 0.000000
0.000000 0.921783 0.000000
0.000000 0.919785 0.000000
0.000000 0.917787 0.000000
0.000000 0.916788 0.000000
0.000000 0.915785 0.000000
0.000000 0.913777 0.000000
0.000000 0.912756 0.000000
0.000000 0.911712 0.000000
0.000000 0.910625 0.000000
0.000000 0.908472 0.000000
0.000000 0.907229 0.000000
0.000000 0.905871 0.000000
0.000000 0.904355 0.000000
0.000000 0.903647 0.000000
0.181067 0.901738 0.000000
0.357087 0.899617 0.000000
0.469293 0.897319 0.000000
0.562167 0.895847 0.000000
0.644621 0.893213 0.000000
0.714774 0.891567 0.000000
0.778453 0.888851 0.000000
0.835210 0.886135 0.000000
0.880906 0.884633 0.000000
0.919580 0.883271 0.000000
0.952595 0.881022 0.000000
0.977339 0.880057 0.000000
0.997151 0.878237 0.000000
1.010100 0.877701 0.000000
1.018080 0.876343 0.000000
1.022322 0.876162 0.000000
1.023964 0.876092 0.000000
1.023964 0.876092 0.000000
0.000000 0.951545 0.000000
0.000000 0.949816 0.000000
0.000000 0.948088 0.000000
0.000000 0.947223 0.000000
0.000000 0.945495 0.000000
0.000000 0.944627 0.000000
0.000000 0.942891 0.000000
0.000000 0.942005 0.000000
0.000000 0.941097 0.000000
0.000000 0.940151 0.000000
0.000000 0.938277 0.000000
0.000000 0.937181 0.000000
0.000000 0.936841 0.000000
0.000000 0.934624 0.000000
0.000000 0.933952 0.000000
0.000000 0.932247 0.000000
0.327311 0.930296 0.000000
0.449259 0.928196 0.000000
0.546524 0.926797 0.000000
0.631572 0.924380 0.000000
0.703419 0.922814 0.000000
0.766630 0.920361 0.000000
0.824777 0.917857 0.000000
0.871375 0.916424 0.000000
0.912051 0.914201 0.000000
0.944501 0.913062 0.000000
0.970516 0.912106 0.000000
0.990188 0.910477 0.000000
1.003731 0.909949 0.000000
1.011951 0.908741 0.000000
1.016421 0.908562 0.000000
1.018173 0.908492 0.000000
1.018336 0.907603 0.000000
0.000000 0.973994 0.000000
0.000000 0.972554 0.000000
0.000000 0.971114 0.000000
0.000000 0.970394 0.000000
0.000000 0.968953 0.000000
0.000000 0.968230 0.000000
0.000000 0.966781 0.000000
0.000000 0.966041 0.000000
0.000000 0.965279 0.000000
0.000000 0.964481 0.000000
0.000000 0.963622 0.000000
0.000000 0.962681 0.000000
0.000000 0.960917 0.000000
0.000000 0.960450 0.000000
0.000000 0.959086 0.000000
0.000000 0.957562 0.000000
0.297458 0.955800 0.000000
0.429942 0.954620 0.000000
0.532105 0.952552 0.000000
0.617537 0.950382 0.000000
0.691188 0.948881 0.000000
0.757411 0.946595 0.000000
0.816240 0.945034 0.000000
0.863862 0.942918 0.000000
0.904916 0.941628 0.000000
0.938002 0.939793 0.000000
0.964569 0.938132 0.000000
0.984219 0.937421 0.000000
0.998051 0.936907 0.000000
1.006501 0.935855 0.000000
1.011199 0.935676 0.000000
1.013204 0.934864 0.000000
1.013204 0.934864 0.000000
0.000000 0.991334 0.000000
0.000000 0.990198 0.000000
0.000000 0.989061 0.000000
0.000000 0.988493 0.000000
0.000000 0.987356 0.000000
0.000000 0.986785 0.000000
0.000000 0.985640 0.000000
0.000000 0.985052 0.000000
0.000000 0.984444 0.000000
0.000000 0.983232 0.000000
0.000000 0.983100 0.000000
0.000000 0.982320 0.000000
0.000000 0.980871 0.000000
0.000000 0.980421 0.000000
0.000000 0.979231 0.000000
0.000000 0.977887 0.000000
0.263150 0.976342 0.000000
0.410276 0.974631 0.000000
0.516794 0.973336 0.000000
0.606927 0.971330 0.000000
0.682047 0.969876 0.000000
0.749293 0.967793 0.000000
0.807529 0.965745 0.000000
0.857293 0.964355 0.000000
0.897947 0.962555 0.000000
0.932355 0.961453 0.000000
0.958582 0.959997 0.000000
0.979048 0.959285 0.000000
0.992788 0.958216 0.000000
1.001828 0.957888 0.000000
1.006752 0.957707 0.000000
1.008840 0.957051 0.000000
1.008840 0.957051 0.000000
0.000000 1.003038 0.000000
0.000000 1.002218 0.000000
0.000000 1.001397 0.000000
0.000000 1.000987 0.000000
0.000000 1.000166 0.000000
0.000000 0.999753 0.000000
0.000000 0.999334 0.000000
0.000000 0.998495 0.000000
0.000000 0.998047 0.000000
0.000000 0.997562 0.000000
0.000000 0.997024 0.000000
0.000000 0.996409 0.000000
0.000000 0.996105 0.000000
0.000000 0.994848 0.000000
0.000000 0.994245 0.000000
0.000000 0.993079 0.000000
0.235025 0.991719 0.000000
0.395499 0.990194 0.000000
0.505935 0.988932 0.000000
0.598048 0.987120 0.000000
0.674418 0.985700 0.000000
0.740757 0.983854 0.000000
0.801392 0.981958 0.000000
0.851698 0.980600 0.000000
0.892963 0.978821 0.000000
0.926882 0.977769 0.000000
0.954138 0.976304 0.000000
0.974895 0.975603 0.000000
0.988898 0.974540 0.000000
