transforms/JF06_cool_push_d65_r709.cube
#  JF_06_D65_r709.cube
LUT_3D_SIZE 9
0.000000 0.000000 0.000000
0.014884 0.000000 0.000000
0.150686 0.000000 0.000000
0.378409 0.000000 0.000000
0.659984 0.000000 0.000000
0.899502 0.000000 0.000000
1.041876 0.000000 0.000000
1.086618 0.000000 0.000000
1.088126 0.000000 0.000000
0.000000 0.019711 0.000000
0.009556 0.019066 0.000000
0.136262 0.026737 0.000000
0.352482 0.000000 0.000000
0.629588 0.000000 0.000000
0.874397 0.000000 0.000000
1.027974 0.000000 0.000000
1.085070 0.000000 0.000000
1.088082 0.000000 0.000000
0.000000 0.168492 0.000000
0.000000 0.163743 0.000000
0.105862 0.160067 0.000000
0.331929 0.145762 0.000000
0.605339 0.071456 0.000000
0.854544 0.000000 0.000000
1.017703 0.000000 0.000000
1.081199 0.000000 0.000000
1.087122 0.000000 0.000000
0.000000 0.387271 0.000000
0.000000 0.377991 0.000000
0.000000 0.371549 0.000000
0.281410 0.363440 0.000000
0.575056 0.348675 0.000000
0.831425 0.322090 0.000000
1.001633 0.295256 0.000000
1.072955 0.278348 0.000000
1.081081 0.276485 0.000000
0.000000 0.640447 0.000000
0.000000 0.629610 0.000000
0.000000 0.621551 0.000000
0.000000 0.615217 0.000000
0.515523 0.606090 0.000000
0.793647 0.590373 0.000000
0.974507 0.577610 0.000000
1.053500 0.569898 0.000000
1.063731 0.569062 0.000000
0.000000 0.850772 0.000000
0.000000 0.840895 0.000000
0.000000 0.834627 0.000000
0.000000 0.828712 0.000000
0.417666 0.821228 0.000000
0.741849 0.810558 0.000000
0.938112 0.800895 0.000000
1.024984 0.795644 0.000000
1.037201 0.793766 0.000000
0.000000 0.973994 0.000000
0.000000 0.968953 0.000000
0.000000 0.965279 0.000000
0.000000 0.960917 0.000000
0.297458 0.955800 0.000000
0.691188 0.948881 0.000000
0.904916 0.941628 0.000000
0.998051 0.936907 0.000000
1.013204 0.934864 0.000000
0.000000 1.015407 0.000000
0.000000 1.014909 0.000000
0.000000 1.014098 0.000000
0.000000 1.012428 0.000000
0.188740 1.009038 0.000000
0.663909 1.003247 0.000000
0.885855 0.997407 0.000000
0.983768 0.993826 0.000000
1.001410 0.992969 0.000000
0.000000 1.017231 0.000000
0.000000 1.017230 0.000000
0.000000 1.017168 0.000000
0.000000 1.016516 0.000000
0.136605 1.013965 0.000000
0.651714 1.009045 0.000000
0.879288 1.003706 0.000000
0.980310 1.000582 0.000000
0.999919 0.999919 0.000000
0.000000 0.000840 0.031607
0.014665 0.000000 0.031233
0.149536 0.000000 0.063792
0.376793 0.000000 0.017458
0.656610 0.000000 0.000000
0.896862 0.000000 0.000000
1.040336 0.000000 0.000000
1.086441 0.000000 0.000000
1.088126 0.000000 0.000000
0.000000 0.019444 0.028547
0.009369 0.018803 0.027514
0.135157 0.025063 0.054537
0.349371 0.000000 0.000000
0.624548 0.000000 0.000000
0.871546 0.000000 0.000000
1.026438 0.000000 0.000000
1.084541 0.000000 0.000000
1.088084 0.000000 0.000000
0.000000 0.167311 0.012957
0.000000 0.161387 0.000000
0.104428 0.156822 0.000000
0.327418 0.142559 0.000000
0.600294 0.064663 0.000000
0.850325 0.000000 0.000000
1.014977 0.000000 0.000000
1.080700 0.000000 0.000000
1.087170 0.000000 0.000000
0.000000 0.382617 0.000000
0.000000 0.373436 0.000000
0.000000 0.367015 0.000000
0.276674 0.360500 0.000000
0.570245 0.344183 0.000000
0.827389 0.317249 0.000000
0.999145 0.287615 0.000000
1.072366 0.271903 0.000000
1.081292 0.269787 0.000000
0.000000 0.635841 0.000000
0.000000 0.624872 0.000000
0.000000 0.616826 0.000000
0.000000 0.608967 0.000000
0.509222 0.599893 0.000000
0.789602 0.585682 0.000000
0.972325 0.571051 0.000000
1.053575 0.563073 0.000000
1.064344 0.562177 0.000000
0.000000 0.847067 0.000000
0.000000 0.837193 0.000000
0.000000 0.829702 0.000000
0.000000 0.823811 0.000000
0.409554 0.816404 0.000000
0.736081 0.805743 0.000000
0.935776 0.797100 0.000000
1.024396 0.790263 0.000000
1.038023 0.788202 0.000000
0.000000 0.971834 0.000000
0.000000 0.966794 0.000000
0.000000 0.963126 0.000000
0.000000 0.958795 0.000000
0.282244 0.953745 0.000000
0.686468 0.946089 0.000000
0.901224 0.938828 0.000000
0.996688 0.934025 0.000000
1.013659 0.932497 0.000000
0.000000 1.015242 0.000000
0.000000 1.014660 0.000000
0.000000 1.013360 0.000000
0.000000 1.011719 0.000000
0.154715 1.008395 0.000000
0.656130 1.002897 0.000000
0.881073 0.996793 0.000000
0.982393 0.993368 0.000000
1.001573 0.992207 0.000000
0.000000 1.017231 0.000000
0.000000 1.017230 0.000000
0.000000 1.017172 0.000000
0.000000 1.016550 0.000000
0.061246 1.014065 0.000000
0.643640 1.009194 0.000000
0.874289 1.003848 0.000000
0.978820 1.000632 0.000000
0.999919 0.999919 0.000000
0.000000 0.001780 0.231430
0.031075 0.000000 0.231418
0.149536 0.000000 0.232212
0.375177 0.000000 0.229147
0.654924 0.000000 0.218931
0.895542 0.000000 0.197821
1.039565 0.000000 0.180775
1.086441 0.000000 0.178142
1.088126 0.000000 0.184428
0.000000 0.041200 0.218135
0.019460 0.039283 0.214196
0.134138 0.024372 0.212422
0.347811 0.000000 0.208196
0.622870 0.000000 0.192886
0.868693 0.000000 0.167361
1.025669 0.000000 0.136956
1.084278 0.000000 0.121945
1.088087 0.000000 0.126501
0.000000 0.166130 0.206588
0.000000 0.160300 0.200190
0.103501 0.155751 0.196167
0.325998 0.140248 0.190784
0.598612 0.062232 0.173157
0.848920 0.000000 0.138678
1.014086 0.000000 0.088481
1.080466 0.000000 0.043229
1.087201 0.000000 0.043807
0.000000 0.381067 0.171580
0.000000 0.370402 0.164688
0.000000 0.365512 0.158984
0.273839 0.357516 0.151667
0.567038 0.341191 0.126513
0.824699 0.314018 0.051362
0.997434 0.283857 0.000000
1.072238 0.267491 0.000000
1.081430 0.265261 0.000000
0.000000 0.632773 0.000000
0.000000 0.621715 0.000000
0.000000 0.613678 0.000000
0.000000 0.607427 0.000000
0.506074 0.596795 0.000000
0.786837 0.582560 0.000000
0.970754 0.567806 0.000000
1.053335 0.559679 0.000000
1.064798 0.557006 0.000000
0.000000 0.844598 0.000000
0.000000 0.834727 0.000000
0.000000 0.827240 0.000000
0.000000 0.821380 0.000000
0.402636 0.814029 0.000000
0.733251 0.803125 0.000000
0.933479 0.793092 0.000000
1.023873 0.787530 0.000000
1.038633 0.784029 0.000000
0.000000 0.970394 0.000000
0.000000 0.965355 0.000000
0.000000 0.961691 0.000000
0.000000 0.957384 0.000000
0.270036 0.952384 0.000000
0.681248 0.944757 0.000000
0.899128 0.937437 0.000000
0.996065 0.932285 0.000000
1.014171 0.929829 0.000000
0.000000 1.015075 0.000000
0.000000 1.014164 0.000000
0.000000 1.012867 0.000000
0.000000 1.011249 0.000000
0.120292 1.007973 0.000000
0.650417 1.002259 0.000000
0.877465 0.996396 0.000000
0.981570 0.992641 0.000000
1.001681 0.991699 0.000000
0.000000 1.017231 0.000000
0.000000 1.017230 0.000000
0.000000 1.017176 0.000000
0.000000 1.016576 0.000000
0.000000 1.014140 0.000000
0.637551 1.009304 0.000000
0.870536 1.003954 0.000000
0.977827 1.000665 0.000000
0.999919 0.999919 0.000000
0.000000 0.001932 0.479347
0.031539 0.000000 0.477717
0.150686 0.000000 0.479148
0.376793 0.000000 0.479179
0.654924 0.000000 0.477482
0.895542 0.000000 0.474867
1.039565 0.000000 0.473847
1.086441 0.000000 0.475100
1.088126 0.000000 0.480396
0.000000 0.041200 0.459828
0.019460 0.039283 0.454969
0.134138 0.024372 0.453191
0.347816 0.000000 0.450120
0.622872 0.000000 0.446797
0.868694 0.000000 0.440290
1.024902 0.000000 0.434618
1.084278 0.000000 0.433057
1.088087 0.000000 0.436342
0.000000 0.164949 0.447260
0.000000 0.159214 0.439251
0.103501 0.155751 0.432711
0.324412 0.140424 0.429784
0.596930 0.059696 0.423274
0.847513 0.000000 0.414639
1.013177 0.000000 0.406282
1.080216 0.000000 0.402188
1.087216 0.000000 0.403499
0.000000 0.379518 0.428953
0.000000 0.368886 0.419729
0.000000 0.362478 0.413391
0.272421 0.356025 0.407317
0.565435 0.339695 0.399174
0.823453 0.310589 0.388492
0.996577 0.281971 0.377395
1.072109 0.263035 0.370659
1.081567 0.260684 0.369983
0.000000 0.631192 0.394909
0.000000 0.620137 0.383896
0.000000 0.612104 0.375902
0.000000 0.604284 0.368202
0.504935 0.593645 0.359753
0.784073 0.579438 0.344097
0.969966 0.566183 0.331031
1.053367 0.556260 0.323039
1.064948 0.555280 0.319950
0.000000 0.843364 0.347115
0.000000 0.833494 0.332621
0.000000 0.826011 0.321502
0.000000 0.818925 0.310604
0.401341 0.811478 0.298201
0.730419 0.800508 0.278726
0.932948 0.790377 0.258775
1.023348 0.784798 0.244040
1.038835 0.782637 0.236853
0.000000 0.969675 0.299797
0.000000 0.964635 0.278151
0.000000 0.960253 0.260474
0.000000 0.956673 0.245125
0.262197 0.950995 0.225028
0.677930 0.943383 0.194826
0.897101 0.935748 0.153692
0.995927 0.930527 0.111591
1.014510 0.928051 0.088191
0.000000 1.014993 0.272125
0.000000 1.013916 0.245481
0.000000 1.012621 0.219266
0.000000 1.011018 0.199003
0.086020 1.007775 0.165308
0.646498 1.002083 0.101805
0.876284 0.996179 0.000000
0.980635 0.992420 0.000000
1.001735 0.991445 0.000000
0.000000 1.017231 0.262210
0.000000 1.017230 0.233843
0.000000 1.017178 0.205338
0.000000 1.016592 0.173815
0.000000 1.014189 0.131169
0.633476 1.009378 0.000000
0.868030 1.004025 0.000000
0.976834 1.000698 0.000000
0.999919 0.999919 0.000000
0.000000 0.002086 0.735034
0.032127 0.000000 0.731992
0.151836 0.000000 0.733402
0.378409 0.000000 0.734035
0.656610 0.000000 0.734338
0.896862 0.000000 0.733235
1.040336 0.000000 0.734488
1.086441 0.000000 0.736203
1.088126 0.000000 0.740593
0.000000 0.041765 0.715267
0.019855 0.039841 0.710716
0.134116 0.025435 0.707598
0.347811 0.000000 0.706825
0.622870 0.000000 0.704193
0.868693 0.000000 0.701432
1.024900 0.000000 0.699155
1.084278 0.000000 0.699015
1.088087 0.000000 0.702017
0.000000 0.166130 0.702468
0.000000 0.160300 0.694878
0.103501 0.155751 0.690098
0.324412 0.140424 0.686255
0.596930 0.059696 0.682149
0.847513 0.000000 0.677766
1.012251 0.000000 0.673633
1.080232 0.000000 0.671610
1.087216 0.000000 0.673004
0.000000 0.379518 0.688796
0.000000 0.370402 0.677948
0.000000 0.362486 0.671764
0.271004 0.354534 0.666481
0.563832 0.338199 0.660910
0.822007 0.310783 0.654891
0.996654 0.279892 0.648854
1.071841 0.263100 0.646533
1.081567 0.260684 0.646214
0.000000 0.631192 0.668081
0.000000 0.618559 0.657522
0.000000 0.610530 0.649850
0.000000 0.602722 0.643123
0.503277 0.592100 0.636060
0.784305 0.577794 0.628353
0.969179 0.564561 0.620366
1.053065 0.554577 0.616245
1.065097 0.553554 0.614147
0.000000 0.840896 0.642760
0.000000 0.832261 0.630093
0.000000 0.824779 0.620643
0.000000 0.818937 0.612040
0.399325 0.810168 0.604904
0.729005 0.799199 0.595167
0.932181 0.789041 0.586641
1.023291 0.782043 0.580328
1.039238 0.779854 0.576266
0.000000 0.968954 0.621584
0.000000 0.963916 0.606383
0.000000 0.959535 0.594534
0.000000 0.955963 0.585262
0.258187 0.950299 0.575720
0.676321 0.942548 0.563453
0.896088 0.934904 0.552346
0.995615 0.929658 0.545378
1.014679 0.927162 0.541082
0.000000 1.014910 0.609478
0.000000 1.013669 0.591650
0.000000 1.012375 0.578998
0.000000 1.010778 0.567269
0.059317 1.007551 0.557195
0.642568 1.001907 0.544346
0.873855 0.995998 0.530600
0.980195 0.992183 0.520955
1.001843 0.990937 0.516175
0.000000 1.017231 0.603720
0.000000 1.017230 0.585638
0.000000 1.017179 0.570689
0.000000 1.016608 0.558748
0.000000 1.014237 0.546621
0.629386 1.009450 0.531540
0.865523 1.004095 0.519397
0.975839 1.000731 0.507333
0.999919 0.999919 0.500222
0.000000 0.002240 0.921779
0.033308 0.000000 0.919738
0.154140 0.000000 0.919656
0.380026 0.000000 0.920025
0.659984 0.000000 0.920036
0.898182 0.000000 0.919055
1.040336 0.000000 0.918658
1.086441 0.000000 0.919819
1.088126 0.000000 0.922888
0.000000 0.042330 0.909145
0.020249 0.040400 0.904554
0.135157 0.025063 0.903344
0.349371 0.000000 0.901642
0.624551 0.000000 0.899763
0.870121 0.000000 0.897869
1.025669 0.000000 0.896333
1.084278 0.000000 0.896316
1.088087 0.000000 0.897400
0.000000 0.167311 0.899483
0.000000 0.160299 0.893792
0.103501 0.155751 0.890319
0.324412 0.140424 0.887545
0.596930 0.059696 0.884640
0.847513 0.000000 0.881600
1.012251 0.000000 0.878746
1.080232 0.000000 0.877353
1.087216 0.000000 0.877195
0.000000 0.379518 0.889490
0.000000 0.370402 0.882780
0.000000 0.364003 0.878262
0.271004 0.354534 0.874488
0.563832 0.338199 0.870558
0.822007 0.310783 0.866288
0.995720 0.280081 0.862048
1.071910 0.260820 0.859215
1.081634 0.258373 0.859001
0.000000 0.631192 0.874930
0.000000 0.618559 0.868518
0.000000 0.610530 0.861603
0.000000 0.602722 0.857606
0.503277 0.592100 0.852305
0.782690 0.577879 0.846825
0.969351 0.562868 0.841223
1.053065 0.554577 0.838254
1.065246 0.551826 0.836752
0.000000 0.840896 0.857585
0.000000 0.832261 0.849748
0.000000 0.824781 0.842364
0.000000 0.817716 0.835836
0.397306 0.808860 0.830648
0.727256 0.799252 0.823786
0.931020 0.789091 0.818021
1.023291 0.782043 0.813657
1.039238 0.779854 0.812068
0.000000 0.968954 0.843431
0.000000 0.963196 0.833621
0.000000 0.959536 0.824543
0.000000 0.955252 0.817782
0.254110 0.949605 0.811078
0.674711 0.941713 0.804109
0.895073 0.934060 0.796771
0.995304 0.928787 0.790806
1.014848 0.926273 0.789177
0.000000 1.014827 0.835401
0.000000 1.013669 0.823364
0.000000 1.012376 0.813995
0.000000 1.010538 0.805624
0.000000 1.007327 0.798688
0.640549 1.001944 0.790123
0.872674 0.995781 0.782441
0.979756 0.991946 0.775823
1.001897 0.990683 0.772379
0.000000 1.017231 0.832462
0.000000 1.017230 0.818947
0.000000 1.017181 0.808089
0.000000 1.016616 0.799591
0.000000 1.014261 0.791250
0.627337 1.009487 0.782272
0.864268 1.004130 0.772716
0.975839 1.000731 0.765916
0.999919 0.999919 0.760845
0.000000 0.002551 1.016857
0.033897 0.000000 1.016436
0.155293 0.000000 1.016363
0.383261 0.000000 1.016204
0.661671 0.000000 1.014852
0.899502 0.000000 1.013045
1.041106 0.000000 1.011326
1.086530 0.000000 1.011391
1.088126 0.000000 1.012211
0.000000 0.042897 1.011518
0.020644 0.040960 1.009776
0.136262 0.026737 1.009142
0.350927 0.000000 1.008082
0.626228 0.000000 1.006467
0.871546 0.000000 1.003855
1.025669 0.000000 1.002155
1.084278 0.000000 1.001730
1.088086 0.000000 1.002248
0.000000 0.167311 1.007044
0.000000 0.161387 1.004175
0.104428 0.156822 1.002405
0.325915 0.141492 1.001416
0.598612 0.062232 0.999344
0.847492 0.000000 0.996213
1.013177 0.000000 0.993800
1.080216 0.000000 0.993223
1.087216 0.000000 0.993096
0.000000 0.381067 1.000894
0.000000 0.370402 0.998185
0.000000 0.363996 0.995928
0.272421 0.356025 0.993882
0.565606 0.338074 0.991807
0.822007 0.310783 0.987844
0.995720 0.280081 0.985388
1.071841 0.263100 0.983333
1.081634 0.258373 0.983183
0.000000 0.631192 0.991193
0.000000 0.618559 0.987573
0.000000 0.610527 0.985018
0.000000 0.602722 0.982667
0.503277 0.592100 0.979243
0.782690 0.577879 0.975366
0.969351 0.562868 0.972156
1.053065 0.554577 0.970044
1.065246 0.551826 0.969131
0.000000 0.840896 0.978272
0.000000 0.832261 0.974132
0.000000 0.824781 0.970758
0.000000 0.817716 0.967762
0.397306 0.808860 0.964480
0.727590 0.797892 0.960694
0.931256 0.787712 0.956665
1.023291 0.782043 0.953695
1.039439 0.778462 0.952806
0.000000 0.968234 0.967788
0.000000 0.963196 0.962186
0.000000 0.958817 0.958645
0.000000 0.955252 0.954703
0.254110 0.949605 0.951326
0.672798 0.941754 0.946700
0.895073 0.934060 0.941768
0.995304 0.928787 0.938734
1.014848 0.926273 0.937751
0.000000 1.014827 0.961987
0.000000 1.013421 0.955923
0.000000 1.012128 0.951364
0.000000 1.010538 0.947278
0.000000 1.007352 0.942996
0.640650 1.001693 0.938217
0.872739 0.995528 0.933177
0.979261 0.991963 0.928841
1.001897 0.990683 0.926606
0.000000 1.017231 0.960247
0.000000 1.017230 0.953292
0.000000 1.017181 0.948630
0.000000 1.016616 0.944472
0.000000 1.014285 0.939392
0.625173 1.009525 0.933652
0.863014 1.004165 0.928046
0.975343 1.000748 0.923439
0.999919 0.999919 0.920177
0.000000 0.002708 1.039747
0.035082 0.000000 1.039745
0.157600 0.000000 1.039672
0.386499 0.000000 1.039100
0.665047 0.000000 1.037366
0.902142 0.000000 1.034790
1.041876 0.000000 1.032734
1.086618 0.000000 1.031985
1.088126 0.000000 1.031959
0.000000 0.043464 1.039307
0.020713 0.042090 1.039137
0.138541 0.026979 1.038914
0.354044 0.000000 1.038446
0.627907 0.000000 1.036894
0.872972 0.000000 1.034385
1.026438 0.000000 1.032283
1.084542 0.000000 1.031406
1.088086 0.000000 1.031344
0.000000 0.169675 1.038393
0.000000 0.163744 1.038172
0.105356 0.157894 1.037982
0.327418 0.142559 1.037419
0.600294 0.064663 1.035995
0.848898 0.000000 1.033483
1.014086 0.000000 1.031194
1.080216 0.000000 1.030110
1.087201 0.000000 1.030069
0.000000 0.382617 1.035497
0.000000 0.371920 1.035352
0.000000 0.363996 1.035194
0.274318 0.355980 1.034737
0.565435 0.339695 1.033370
0.823353 0.312401 1.030929
0.996577 0.281971 1.028533
1.072109 0.263035 1.027338
1.081634 0.258373 1.027116
0.000000 0.632773 1.028207
0.000000 0.620137 1.028253
0.000000 0.612104 1.028167
0.000000 0.604303 1.027892
0.503277 0.592100 1.026667
0.782690 0.577879 1.023928
0.969351 0.562868 1.021374
1.053065 0.554577 1.019848
1.065246 0.551826 1.019441
0.000000 0.842130 1.017938
0.000000 0.832261 1.017982
0.000000 0.824781 1.018023
0.000000 0.817716 1.017275
0.396518 0.810204 1.015482
0.727590 0.797892 1.012927
0.931256 0.787712 1.010081
1.023497 0.780653 1.008559
1.039439 0.778462 1.008109
0.000000 0.968954 1.009588
0.000000 0.963196 1.009381
0.000000 0.959536 1.008729
0.000000 0.955252 1.007630
0.248951 0.949632 1.005860
0.672798 0.941754 1.002919
0.894060 0.933216 1.000059
0.995478 0.927900 0.998416
1.015017 0.925383 0.997695
0.000000 1.014827 1.005937
0.000000 1.013421 1.005337
0.000000 1.012128 1.003819
0.000000 1.010538 1.002554
0.000000 1.007352 1.000665
0.638628 1.001730 0.997633
0.871491 0.995564 0.994622
0.979316 0.991709 0.992562
1.001897 0.990683 0.991686
0.000000 1.017231 1.005577
0.000000 1.017230 1.004252
0.000000 1.017181 1.002904
0.000000 1.016624 1.001315
0.000000 1.014285 0.999140
0.625173 1.009525 0.996075
0.863014 1.004165 0.992995
0.975343 1.000748 0.990574
0.999919 0.999919 0.989646
0.000000 0.003023 1.039747
0.036270 0.000000 1.039744
0.161066 0.000000 1.039668
0.389739 0.000000 1.039087
0.668425 0.000000 1.037337
0.904782 0.000000 1.034755
1.043416 0.000000 1.032709
1.086707 0.000000 1.031984
1.088126 0.000000 1.031959
0.000000 0.044599 1.039730
0.021111 0.042651 1.039730
0.139670 0.027608 1.039675
0.355649 0.000000 1.039203
0.629586 0.000000 1.037645
0.874397 0.000000 1.035134
1.027206 0.000000 1.032954
1.084806 0.000000 1.032001
1.088084 0.000000 1.031944
0.000000 0.170858 1.039318
0.000000 0.164922 1.039352
0.106282 0.158967 1.039332
0.328921 0.143627 1.038935
0.601976 0.067003 1.037506
0.850325 0.000000 1.035085
1.014069 0.000000 1.032813
1.080466 0.000000 1.031727
1.087201 0.000000 1.031611
0.000000 0.384168 1.036744
0.000000 0.373436 1.036941
0.000000 0.367022 1.037011
0.275736 0.357471 1.036748
0.567038 0.341191 1.035462
0.824800 0.312207 1.033135
0.997510 0.281784 1.030834
1.072109 0.263035 1.029657
1.081567 0.260684 1.029496
0.000000 0.634308 1.029694
0.000000 0.621715 1.030169
0.000000 0.612101 1.030483
0.000000 0.604284 1.030376
0.504935 0.593645 1.029263
0.784073 0.579438 1.027042
0.969179 0.564561 1.024775
1.053065 0.554577 1.023569
1.065246 0.551826 1.023422
0.000000 0.843364 1.019695
0.000000 0.832261 1.020331
0.000000 0.824779 1.020718
0.000000 0.818937 1.020679
0.399325 0.810168 1.019732
0.727256 0.799252 1.017650
0.931020 0.789091 1.015344
1.023291 0.782043 1.014093
1.039439 0.778462 1.013980
0.000000 0.968954 1.011613
0.000000 0.963916 1.011969
0.000000 0.959536 1.012245
0.000000 0.955252 1.012200
0.254110 0.949605 1.011215
0.672798 0.941754 1.009094
0.893858 0.934099 1.006725
0.995478 0.927900 1.005421
1.015017 0.925383 1.005233
0.000000 1.014827 1.008238
0.000000 1.013421 1.008344
0.000000 1.012128 1.008413
0.000000 1.010538 1.008208
0.000000 1.007352 1.007123
0.638628 1.001730 1.004909
0.871491 0.995564 1.002456
0.979316 0.991709 1.000948
1.001897 0.990683 1.000611
0.000000 1.017231 1.008054
0.000000 1.017230 1.008054
0.000000 1.017181 1.008030
0.000000 1.016624 1.007767
0.000000 1.014309 1.006674
0.625173 1.009525 1.004420
0.863014 1.004165 1.001904
0.974846 1.000764 1.000314
0.999919 0.999919 0.999919
