transforms/JF06_cool_push_d65_r709.cube
#  JF_06_D65_r709.cube
LUT_3D_SIZE 5
0.000000 0.000000 0.000000
0.150686 0.000000 0.000000
0.659984 0.000000 0.000000
1.041876 0.000000 0.000000
1.088126 0.000000 0.000000
0.000000 0.168492 0.000000
0.105862 0.160067 0.000000
0.605339 0.071456 0.000000
1.017703 0.000000 0.000000
1.087122 0.000000 0.000000
0.000000 0.640447 0.000000
0.000000 0.621551 0.000000
0.515523 0.606090 0.000000
0.974507 0.577610 0.000000
1.063731 0.569062 0.000000
0.000000 0.973994 0.000000
0.000000 0.965279 0.000000
0.297458 0.955800 0.000000
0.904916 0.941628 0.000000
1.013204 0.934864 0.000000
0.000000 1.017231 0.000000
0.000000 1.017168 0.000000
0.136605 1.013965 0.000000
0.879288 1.003706 0.000000
0.999919 0.999919 0.000000
0.000000 0.001780 0.231430
0.149536 0.000000 0.232212
0.654924 0.000000 0.218931
1.039565 0.000000 0.180775
1.088126 0.000000 0.184428
0.000000 0.166130 0.206588
0.103501 0.155751 0.196167
0.598612 0.062232 0.173157
1.014086 0.000000 0.088481
1.087201 0.000000 0.043807
0.000000 0.632773 0.000000
0.000000 0.613678 0.000000
0.506074 0.596795 0.000000
0.970754 0.567806 0.000000
1.064798 0.557006 0.000000
0.000000 0.970394 0.000000
0.000000 0.961691 0.000000
0.270036 0.952384 0.000000
0.899128 0.937437 0.000000
1.014171 0.929829 0.000000
0.000000 1.017231 0.000000
0.000000 1.017176 0.000000
0.000000 1.014140 0.000000
0.870536 1.003954 0.000000
0.999919 0.999919 0.000000
0.000000 0.002086 0.735034
0.151836 0.000000 0.733402
0.656610 0.000000 0.734338
1.040336 0.000000 0.734488
1.088126 0.000000 0.740593
0.000000 0.166130 0.702468
0.103501 0.155751 0.690098
0.596930 0.059696 0.682149
1.012251 0.000000 0.673633
1.087216 0.000000 0.673004
0.000000 0.631192 0.668081
0.000000 0.610530 0.649850
0.503277 0.592100 0.636060
0.969179 0.564561 0.620366
1.065097 0.553554 0.614147
0.000000 0.968954 0.621584
0.000000 0.959535 0.594534
0.258187 0.950299 0.575720
0.896088 0.934904 0.552346
1.014679 0.927162 0.541082
0.000000 1.017231 0.603720
0.000000 1.017179 0.570689
0.000000 1.014237 0.546621
0.865523 1.004095 0.519397
0.999919 0.999919 0.500222
0.000000 0.002551 1.016857
0.155293 0.000000 1.016363
0.661671 0.000000 1.014852
1.041106 0.000000 1.011326
1.088126 0.000000 1.012211
0.000000 0.167311 1.007044
0.104428 0.156822 1.002405
0.598612 0.062232 0.999344
1.013177 0.000000 0.993800
1.087216 0.000000 0.993096
0.000000 0.631192 0.991193
0.000000 0.610527 0.985018
0.503277 0.592100 0.979243
0.969351 0.562868 0.972156
1.065246 0.551826 0.969131
0.000000 0.968234 0.967788
0.000000 0.958817 0.958645
0.254110 0.949605 0.951326
0.895073 0.934060 0.941768
1.014848 0.926273 0.937751
0.000000 1.017231 0.960247
0.000000 1.017181 0.948630
0.000000 1.014285 0.939392
0.863014 1.004165 0.928046
0.999919 0.999919 0.920177
0.000000 0.003023 1.039747
0.161066 0.000000 1.039668
0.668425 0.000000 1.037337
1.043416 0.000000 1.032709
1.088126 0.000000 1.031959
0.000000 0.170858 1.039318
0.106282 0.158967 1.039332
0.601976 0.067003 1.037506
1.014069 0.000000 1.032813
1.087201 0.000000 1.031611
0.000000 0.634308 1.029694
0.000000 0.612101 1.030483
0.504935 0.593645 1.029263
0.969179 0.564561 1.024775
1.065246 0.551826 1.023422
0.000000 0.968954 1.011613
0.000000 0.959536 1.012245
0.254110 0.949605 1.011215
0.893858 0.934099 1.006725
1.015017 0.925383 1.005233
0.000000 1.017231 1.008054
0.000000 1.017181 1.008030
0.000000 1.014309 1.006674
0.863014 1.004165 1.001904
0.999919 0.999919 0.999919
