transforms/MG01_golden_lush_fpe_r709.cube
#  MG_01_FPE_r709.cube
LUT_3D_SIZE 33
0.000000 0.000000 0.000000
0.000120 0.000097 0.000074
0.001265 0.000973 0.000728
0.004267 0.002827 0.002007
0.010362 0.005934 0.003881
0.021385 0.011038 0.006122
0.038141 0.020063 0.007832
0.062540 0.035217 0.006228
0.102502 0.048583 0.000000
0.133115 0.054849 0.000000
0.162797 0.058419 0.000000
0.206429 0.060634 0.000000
0.256246 0.060565 0.000000
0.311329 0.055886 0.000000
0.367814 0.037125 0.000000
0.423077 0.000000 0.000000
0.470038 0.000000 0.000000
0.507500 0.000000 0.000000
0.539721 0.000000 0.000000
0.566146 0.000000 0.000000
0.583190 0.000000 0.000000
0.596524 0.000000 0.000000
0.606200 0.000000 0.000000
0.612936 0.000000 0.000000
0.619224 0.000000 0.000000
0.624104 0.000000 0.000000
0.624104 0.000000 0.000000
0.624104 0.000000 0.000000
0.624104 0.000000 0.000000
0.624104 0.000000 0.000000
0.624104 0.000000 0.000000
0.624104 0.000000 0.000000
0.624104 0.000000 0.000000
0.000257 0.000251 0.000177
0.000235 0.000223 0.000156
0.001226 0.001038 0.000716
0.004193 0.003017 0.001994
0.010343 0.006346 0.003903
0.021040 0.011777 0.006131
0.038078 0.020936 0.007870
0.062092 0.035698 0.006073
0.101437 0.048550 0.000000
0.131961 0.054830 0.000000
0.161341 0.058252 0.000000
0.204170 0.060562 0.000000
0.253643 0.060698 0.000000
0.308690 0.056203 0.000000
0.366458 0.037899 0.000000
0.420901 0.000000 0.000000
0.467847 0.000000 0.000000
0.505874 0.000000 0.000000
0.539122 0.000000 0.000000
0.564942 0.000000 0.000000
0.582497 0.000000 0.000000
0.596084 0.000000 0.000000
0.605760 0.000000 0.000000
0.612643 0.000000 0.000000
0.618967 0.000000 0.000000
0.624104 0.000000 0.000000
0.624104 0.000000 0.000000
0.624104 0.000000 0.000000
0.624104 0.000000 0.000000
0.624104 0.000000 0.000000
0.624104 0.000000 0.000000
0.624104 0.000000 0.000000
0.624104 0.000000 0.000000
0.001294 0.001435 0.000922
0.001273 0.001358 0.000872
0.001348 0.001301 0.000816
0.004145 0.003375 0.002014
0.010322 0.007148 0.003946
0.020852 0.013453 0.006161
0.038041 0.023685 0.007817
0.062929 0.039596 0.003986
0.103428 0.052137 0.000000
0.134452 0.057257 0.000000
0.165807 0.060827 0.000000
0.209416 0.064879 0.000000
0.257777 0.066460 0.000000
0.314012 0.060807 0.000000
0.371323 0.044475 0.000000
0.425766 0.000000 0.000000
0.471780 0.000000 0.000000
0.509288 0.000000 0.000000
0.541641 0.000000 0.000000
0.566718 0.000000 0.000000
0.582945 0.000000 0.000000
0.595644 0.000000 0.000000
0.605540 0.000000 0.000000
0.612496 0.000000 0.000000
0.618710 0.000000 0.000000
0.624104 0.000000 0.000000
0.624104 0.000000 0.000000
0.624104 0.000000 0.000000
0.624104 0.000000 0.000000
0.624104 0.000000 0.000000
0.624104 0.000000 0.000000
0.624104 0.000000 0.000000
0.624104 0.000000 0.000000
0.003108 0.004523 0.002460
0.003102 0.004303 0.002364
0.003393 0.004166 0.002254
0.004134 0.004091 0.002126
0.010327 0.008434 0.004111
0.020625 0.015644 0.006560
0.037876 0.026706 0.008421
0.063712 0.043388 0.005465
0.104715 0.056176 0.000000
0.136913 0.060335 0.000000
0.170470 0.064008 0.000000
0.214576 0.069647 0.000000
0.263548 0.073882 0.000000
0.322316 0.067675 0.000000
0.381248 0.053124 0.000000
0.438307 0.000000 0.000000
0.483752 0.000000 0.000000
0.523170 0.000000 0.000000
0.554995 0.000000 0.000000
0.579220 0.000000 0.000000
0.596171 0.000000 0.000000
0.608631 0.000000 0.000000
0.616950 0.000000 0.000000
0.622487 0.000000 0.000000
0.627418 0.000000 0.000000
0.631714 0.000000 0.000000
0.630264 0.000000 0.000000
0.629178 0.000000 0.000000
0.628091 0.000000 0.000000
0.626640 0.000000 0.000000
0.625554 0.000000 0.000000
0.624104 0.000000 0.000000
0.624104 0.000000 0.000000
0.005122 0.010343 0.004974
0.005308 0.010054 0.004829
0.006191 0.009738 0.004597
0.007818 0.009631 0.004344
0.010333 0.010028 0.004257
0.020543 0.018430 0.007067
0.037426 0.030270 0.009616
0.064382 0.047004 0.009642
0.106061 0.060592 0.000000
0.140289 0.065133 0.000000
0.175730 0.070338 0.000000
0.219784 0.076911 0.000000
0.271072 0.082627 0.000000
0.330440 0.077607 0.000000
0.391442 0.066215 0.000000
0.450546 0.039342 0.000000
0.497823 0.000000 0.000000
0.536363 0.000000 0.000000
0.569219 0.000000 0.000000
0.592778 0.000000 0.000000
0.609831 0.000000 0.000000
0.622319 0.000000 0.000000
0.629630 0.000000 0.000000
0.635531 0.000000 0.000000
0.640362 0.000000 0.000000
0.643925 0.000000 0.000000
0.642957 0.000000 0.000000
0.641871 0.000000 0.000000
0.640421 0.000000 0.000000
0.639333 0.000000 0.000000
0.637884 0.000000 0.000000
0.636797 0.000000 0.000000
0.635710 0.000000 0.000000
0.004297 0.020424 0.009454
0.005164 0.019971 0.009244
0.008013 0.019213 0.008748
0.011836 0.018847 0.008325
0.016259 0.018781 0.007883
0.020096 0.020824 0.008225
0.036889 0.033707 0.011703
0.065854 0.051552 0.013553
0.107713 0.066325 0.000000
0.142665 0.071136 0.000000
0.179886 0.077660 0.000000
0.225053 0.084915 0.000000
0.277321 0.091766 0.000000
0.340043 0.087442 0.000000
0.401412 0.078751 0.000000
0.463080 0.061511 0.000000
0.510860 0.000000 0.000000
0.550677 0.000000 0.000000
0.583778 0.000000 0.000000
0.607376 0.000000 0.000000
0.624901 0.000000 0.000000
0.637162 0.000000 0.000000
0.644478 0.000000 0.000000
0.649964 0.000000 0.000000
0.654502 0.000000 0.000000
0.657891 0.000000 0.000000
0.656866 0.000000 0.000000
0.655620 0.000000 0.000000
0.653960 0.000000 0.000000
0.652714 0.000000 0.000000
0.651053 0.000000 0.000000
0.649807 0.000000 0.000000
0.648562 0.000000 0.000000
0.000000 0.035844 0.016687
0.000000 0.034778 0.016055
0.000000 0.034012 0.015305
0.014900 0.033234 0.014545
0.023693 0.032463 0.013800
0.027369 0.032465 0.013432
0.036208 0.036879 0.014202
0.066884 0.055932 0.017895
0.109737 0.073434 0.012946
0.145328 0.080019 0.000000
0.183884 0.087997 0.000000
0.230658 0.096302 0.000000
0.285127 0.104651 0.000000
0.349844 0.101880 0.000000
0.414000 0.094743 0.000000
0.476570 0.082610 0.000000
0.525249 0.057206 0.000000
0.566001 0.000000 0.000000
0.599368 0.000000 0.000000
0.622868 0.000000 0.000000
0.640199 0.000000 0.000000
0.653220 0.000000 0.000000
0.659728 0.000000 0.000000
0.664778 0.000000 0.000000
0.668967 0.000000 0.000000
0.672191 0.000000 0.000000
0.671387 0.000000 0.000000
0.669728 0.000000 0.000000
0.668484 0.000000 0.000000
0.667239 0.000000 0.000000
0.665580 0.000000 0.000000
0.664336 0.000000 0.000000
0.662676 0.000000 0.000000
0.000000 0.058138 0.028837
0.000000 0.056658 0.027973
0.000000 0.055289 0.026659
0.003589 0.054388 0.025584
0.029468 0.053695 0.024607
0.036679 0.054013 0.023544
0.045000 0.055078 0.022189
0.067056 0.065082 0.022363
0.111890 0.085911 0.020725
0.148636 0.093392 0.000000
0.188883 0.101623 0.000000
0.236998 0.109943 0.000000
0.293527 0.118852 0.000000
0.359657 0.116733 0.000000
0.425768 0.111366 0.000000
0.490351 0.101454 0.000000
0.539973 0.085094 0.000000
0.581765 0.061045 0.000000
0.616289 0.000000 0.000000
0.639278 0.000000 0.000000
0.657092 0.000000 0.000000
0.670443 0.000000 0.000000
0.676468 0.000000 0.000000
0.681499 0.000000 0.000000
0.685132 0.000000 0.000000
0.688252 0.000000 0.000000
0.687446 0.000000 0.000000
0.685575 0.000000 0.000000
0.684171 0.000000 0.000000
0.682768 0.000000 0.000000
0.680897 0.000000 0.000000
0.679493 0.000000 0.000000
0.677620 0.000000 0.000000
0.000000 0.085596 0.042540
0.000000 0.084188 0.042007
0.000000 0.082888 0.040589
0.000000 0.082167 0.039703
0.028441 0.082434 0.039296
0.044378 0.084138 0.037952
0.057805 0.086722 0.035933
0.079929 0.091490 0.032784
0.114386 0.101389 0.027164
0.151926 0.110156 0.007674
0.194455 0.119046 0.000000
0.245889 0.127704 0.000000
0.303735 0.135888 0.000000
0.372176 0.137304 0.000000
0.440265 0.135496 0.000000
0.506399 0.130500 0.000000
0.556495 0.119664 0.000000
0.599171 0.106195 0.000000
0.634519 0.089548 0.000000
0.657829 0.073714 0.000000
0.675358 0.049251 0.000000
0.688470 0.000000 0.000000
0.694467 0.000000 0.000000
0.699157 0.000000 0.000000
0.702274 0.000000 0.000000
0.704724 0.000000 0.000000
0.703818 0.000000 0.000000
0.701940 0.000000 0.000000
0.700539 0.000000 0.000000
0.698671 0.000000 0.000000
0.697270 0.000000 0.000000
0.695868 0.000000 0.000000
0.694000 0.000000 0.000000
0.000000 0.102157 0.048708
0.000000 0.100728 0.048182
0.000000 0.099753 0.046808
0.000000 0.099498 0.045706
0.000000 0.100521 0.045246
0.021311 0.102830 0.043756
0.048809 0.106202 0.041691
0.079507 0.112021 0.038341
0.115396 0.120347 0.031801
0.154827 0.129817 0.016189
0.200375 0.139304 0.000000
0.253679 0.148816 0.000000
0.313969 0.156932 0.000000
0.384292 0.159934 0.000000
0.454637 0.160315 0.000000
0.523945 0.158105 0.000000
0.573326 0.150628 0.000000
0.616702 0.141335 0.000000
0.653101 0.132191 0.000000
0.676074 0.124100 0.000000
0.694174 0.117374 0.000000
0.707234 0.110187 0.000000
0.713709 0.108122 0.000000
0.718114 0.101617 0.000000
0.721798 0.095855 0.000000
0.723780 0.092160 0.000000
0.722425 0.083894 0.000000
0.720779 0.076722 0.000000
0.719142 0.068609 0.000000
0.716957 0.055488 0.000000
0.715318 0.042105 0.000000
0.713131 0.000000 0.000000
0.711489 0.000000 0.000000
0.000000 0.122115 0.053327
0.000000 0.120233 0.053016
0.000000 0.118926 0.051463
0.000000 0.118274 0.049861
0.000000 0.119420 0.049320
0.000000 0.122162 0.048198
0.027102 0.125842 0.046326
0.075825 0.132168 0.042649
0.115340 0.140537 0.035555
0.158314 0.150947 0.018174
0.207178 0.161374 0.000000
0.261453 0.171977 0.000000
0.325379 0.182539 0.000000
0.396091 0.187468 0.000000
0.468884 0.190189 0.000000
0.539900 0.190362 0.000000
0.592560 0.185688 0.000000
0.636341 0.178787 0.000000
0.671845 0.173190 0.000000
0.696304 0.169312 0.000000
0.714810 0.165656 0.000000
0.727592 0.161925 0.000000
0.733206 0.159314 0.000000
0.738233 0.156558 0.000000
0.741959 0.152405 0.000000
0.742958 0.148895 0.000000
0.741877 0.144707 0.000000
0.739996 0.139680 0.000000
0.738190 0.134838 0.000000
0.736021 0.128915 0.000000
0.734392 0.124323 0.000000
0.732220 0.117965 0.000000
0.730590 0.112987 0.000000
0.000000 0.143617 0.056599
0.000000 0.141708 0.056325
0.000000 0.140973 0.054107
0.000000 0.140058 0.051230
0.000000 0.140507 0.048735
0.000000 0.143043 0.046891
0.000000 0.146643 0.044581
0.065117 0.154232 0.039217
0.112535 0.163787 0.029062
0.158981 0.175904 0.000000
0.211182 0.188333 0.000000
0.268364 0.200180 0.000000
0.335554 0.211757 0.000000
0.409749 0.218792 0.000000
0.485016 0.223365 0.000000
0.556235 0.224892 0.000000
0.610104 0.220388 0.000000
0.655732 0.215975 0.000000
0.691231 0.212295 0.000000
0.716677 0.210351 0.000000
0.735960 0.209037 0.000000
0.748133 0.206189 0.000000
0.754280 0.205926 0.000000
0.759141 0.205192 0.000000
0.762975 0.203315 0.000000
0.764423 0.200266 0.000000
0.763704 0.196911 0.000000
0.761841 0.192749 0.000000
0.759355 0.187129 0.000000
0.757497 0.182860 0.000000
0.755004 0.177091 0.000000
0.753133 0.172697 0.000000
0.751260 0.168239 0.000000
0.000000 0.172683 0.066416
0.000000 0.170007 0.065400
0.000000 0.168036 0.061756
0.000000 0.166278 0.056417
0.000000 0.165185 0.048804
0.000000 0.166654 0.044355
0.000000 0.170185 0.040035
0.038772 0.178531 0.031635
0.106868 0.188393 0.000000
0.158075 0.201642 0.000000
0.213907 0.216644 0.000000
0.274055 0.230901 0.000000
0.345273 0.243713 0.000000
0.421518 0.253271 0.000000
0.496851 0.259398 0.000000
0.572665 0.263814 0.000000
0.629225 0.262766 0.000000
0.676003 0.260428 0.000000
0.711227 0.258825 0.000000
0.738022 0.257826 0.000000
0.757633 0.255465 0.000000
0.770664 0.254294 0.000000
0.776579 0.253968 0.000000
0.781225 0.253255 0.000000
0.784352 0.250605 0.000000
0.786457 0.248880 0.000000
0.785841 0.245262 0.000000
0.783193 0.239386 0.000000
0.781204 0.234949 0.000000
0.779213 0.230482 0.000000
0.776706 0.225075 0.000000
0.774853 0.221140 0.000000
0.772380 0.215853 0.000000
0.000000 0.204135 0.078287
0.000000 0.201424 0.077264
0.000000 0.199676 0.073263
0.000000 0.198080 0.066797
0.000000 0.196253 0.052267
0.000000 0.197199 0.039976
0.000000 0.199941 0.025182
0.000000 0.210041 0.000000
0.088476 0.221155 0.000000
0.151123 0.235401 0.000000
0.213898 0.251767 0.000000
0.278964 0.267645 0.000000
0.354854 0.281881 0.000000
0.433427 0.292930 0.000000
0.512970 0.301837 0.000000
0.589109 0.307416 0.000000
0.648361 0.307963 0.000000
0.696721 0.306581 0.000000
0.732428 0.305787 0.000000
0.758562 0.303353 0.000000
0.779919 0.302374 0.000000
0.792957 0.301726 0.000000
0.799214 0.302009 0.000000
0.803287 0.300421 0.000000
0.807179 0.299356 0.000000
0.809279 0.298288 0.000000
0.808206 0.293772 0.000000
0.806244 0.289570 0.000000
0.804280 0.285356 0.000000
0.801659 0.279715 0.000000
0.799691 0.275468 0.000000
0.797060 0.269793 0.000000
0.795085 0.265510 0.000000
0.000000 0.243803 0.097994
0.000000 0.240341 0.096258
0.000000 0.238070 0.091318
0.000000 0.236023 0.083958
0.000000 0.232716 0.065345
0.000000 0.231296 0.041270
0.000000 0.232742 0.000000
0.000000 0.243507 0.000000
0.049095 0.256539 0.000000
0.139870 0.271222 0.000000
0.211657 0.288945 0.000000
0.284656 0.307193 0.000000
0.363924 0.323279 0.000000
0.445596 0.336863 0.000000
0.527262 0.347962 0.000000
0.605136 0.355155 0.000000
0.667457 0.358101 0.000000
0.717696 0.357255 0.000000
0.753638 0.357490 0.000000
0.781733 0.357601 0.000000
0.803477 0.357689 0.000000
0.816135 0.357542 0.000000
0.822465 0.355697 0.000000
0.827131 0.355004 0.000000
0.830509 0.353467 0.000000
0.831891 0.349776 0.000000
0.831558 0.346185 0.000000
0.829508 0.341320 0.000000
0.826769 0.334818 0.000000
0.824711 0.329928 0.000000
0.822651 0.325026 0.000000
0.819937 0.318745 0.000000
0.817986 0.314608 0.000000
0.000000 0.283562 0.116982
0.000000 0.279787 0.116045
0.000000 0.277631 0.111006
0.000000 0.275941 0.103134
0.000000 0.271886 0.083070
0.000000 0.268586 0.053236
0.000000 0.267429 0.000000
0.000000 0.279422 0.000000
0.000000 0.293823 0.000000
0.120715 0.309750 0.000000
0.206783 0.330433 0.000000
0.286972 0.350845 0.000000
0.370432 0.367443 0.000000
0.456464 0.384415 0.000000
0.541386 0.397443 0.000000
0.622610 0.405104 0.000000
0.685513 0.409406 0.000000
0.739623 0.411504 0.000000
0.775378 0.412035 0.000000
0.803899 0.412407 0.000000
0.826192 0.412771 0.000000
0.838248 0.411599 0.000000
0.846013 0.411338 0.000000
0.850965 0.410918 0.000000
0.853163 0.408417 0.000000
0.855436 0.406085 0.000000
0.855247 0.402398 0.000000
0.852562 0.396016 0.000000
0.850545 0.391224 0.000000
0.848525 0.386427 0.000000
0.845826 0.380022 0.000000
0.843799 0.375209 0.000000
0.841090 0.368775 0.000000
0.000000 0.326372 0.127461
0.000000 0.322673 0.126566
0.000000 0.321247 0.122571
0.000000 0.319238 0.115549
0.000000 0.314504 0.097864
0.000000 0.309961 0.068172
0.000000 0.306182 0.000000
0.000000 0.316001 0.000000
0.000000 0.329990 0.000000
0.089049 0.349966 0.000000
0.200730 0.371458 0.000000
0.287182 0.393213 0.000000
0.377984 0.413965 0.000000
0.465539 0.431315 0.000000
0.556373 0.446964 0.000000
0.638380 0.457931 0.000000
0.705152 0.464692 0.000000
0.759747 0.468304 0.000000
0.796790 0.469587 0.000000
0.825114 0.468759 0.000000
0.847433 0.469397 0.000000
0.860241 0.470041 0.000000
0.868372 0.469916 0.000000
0.872989 0.467471 0.000000
0.875914 0.466021 0.000000
0.877527 0.463564 0.000000
0.876862 0.458109 0.000000
0.875026 0.453116 0.000000
0.873187 0.448122 0.000000
0.870729 0.441457 0.000000
0.868882 0.436455 0.000000
0.866413 0.429779 0.000000
0.864559 0.424766 0.000000
0.000000 0.365803 0.134601
0.000000 0.363384 0.134797
0.000000 0.361803 0.131377
0.000000 0.360767 0.125188
0.000000 0.355808 0.110189
0.000000 0.350527 0.082492
0.000000 0.345196 0.000000
0.000000 0.353042 0.000000
0.000000 0.365997 0.000000
0.000000 0.387949 0.000000
0.188931 0.411437 0.000000
0.285154 0.436665 0.000000
0.381164 0.457473 0.000000
0.475065 0.477471 0.000000
0.566630 0.496376 0.000000
0.652546 0.508493 0.000000
0.722030 0.517097 0.000000
0.778399 0.522078 0.000000
0.815785 0.524238 0.000000
0.845102 0.524101 0.000000
0.867652 0.525076 0.000000
0.881055 0.526032 0.000000
0.889272 0.526051 0.000000
0.894355 0.523968 0.000000
0.897454 0.522208 0.000000
0.898460 0.519858 0.000000
0.898008 0.516182 0.000000
0.895620 0.509556 0.000000
0.893824 0.504585 0.000000
0.892025 0.499613 0.000000
0.889620 0.492981 0.000000
0.887813 0.488005 0.000000
0.885398 0.481366 0.000000
0.000000 0.393293 0.131942
0.000000 0.391672 0.132121
0.000000 0.390225 0.128772
0.000000 0.389557 0.122031
0.000000 0.386898 0.107218
0.000000 0.383797 0.081137
0.000000 0.380268 0.000000
0.000000 0.387011 0.000000
0.000000 0.400089 0.000000
0.000000 0.423715 0.000000
0.173124 0.449313 0.000000
0.281183 0.475883 0.000000
0.383080 0.500075 0.000000
0.481223 0.522364 0.000000
0.579159 0.543271 0.000000
0.665933 0.558921 0.000000
0.737721 0.567907 0.000000
0.796074 0.573877 0.000000
0.834260 0.577015 0.000000
0.863709 0.578920 0.000000
0.886597 0.580196 0.000000
0.899683 0.579322 0.000000
0.908333 0.580398 0.000000
0.913021 0.577912 0.000000
0.916496 0.576611 0.000000
0.917536 0.573039 0.000000
0.917461 0.569780 0.000000
0.915779 0.565126 0.000000
0.913532 0.558920 0.000000
0.911844 0.554263 0.000000
0.910152 0.549607 0.000000
0.907893 0.543400 0.000000
0.905627 0.537190 0.000000
0.000000 0.418772 0.129456
0.000000 0.416965 0.129551
0.000000 0.416172 0.125987
0.000000 0.416498 0.118306
0.000000 0.415713 0.101250
0.000000 0.414242 0.073599
0.000000 0.412195 0.000000
0.000000 0.418200 0.000000
0.000000 0.430274 0.000000
0.000000 0.455550 0.000000
0.154112 0.482590 0.000000
0.278692 0.511304 0.000000
0.383766 0.537136 0.000000
0.485679 0.561529 0.000000
0.587023 0.584291 0.000000
0.675553 0.600730 0.000000
0.749958 0.612611 0.000000
0.809461 0.619750 0.000000
0.849181 0.623645 0.000000
0.879336 0.625378 0.000000
0.903170 0.627809 0.000000
0.916367 0.628870 0.000000
0.925223 0.628885 0.000000
0.929867 0.626909 0.000000
0.933443 0.626403 0.000000
0.935751 0.625344 0.000000
0.935776 0.621142 0.000000
0.934182 0.616630 0.000000
0.932584 0.612119 0.000000
0.930450 0.606105 0.000000
0.928846 0.601594 0.000000
0.927240 0.597083 0.000000
0.925094 0.591070 0.000000
0.000000 0.439280 0.128165
0.000000 0.437469 0.128293
0.000000 0.436566 0.124682
0.000000 0.436945 0.115703
0.000000 0.437137 0.096783
0.000000 0.437506 0.063293
0.000000 0.436623 0.000000
0.000000 0.443352 0.000000
0.000000 0.455533 0.000000
0.000000 0.482642 0.000000
0.128198 0.511827 0.000000
0.272054 0.542749 0.000000
0.384036 0.571359 0.000000
0.489589 0.598698 0.000000
0.593847 0.623213 0.000000
0.684459 0.641399 0.000000
0.760922 0.654969 0.000000
0.820471 0.662312 0.000000
0.861996 0.666066 0.000000
0.894399 0.669103 0.000000
0.918314 0.671536 0.000000
0.930275 0.670979 0.000000
0.939494 0.670649 0.000000
0.945114 0.669430 0.000000
0.947852 0.667268 0.000000
0.949912 0.665862 0.000000
0.950524 0.663580 0.000000
0.948880 0.658830 0.000000
0.947654 0.655273 0.000000
0.946424 0.651719 0.000000
0.944783 0.646978 0.000000
0.943549 0.643424 0.000000
0.941903 0.638684 0.000000
0.000000 0.457419 0.126043
0.000000 0.456081 0.126269
0.000000 0.455548 0.122720
0.000000 0.456414 0.112536
0.000000 0.457799 0.091507
0.000000 0.459153 0.049739
0.000000 0.459246 0.000000
0.000000 0.466299 0.000000
0.000000 0.477796 0.000000
0.000000 0.506532 0.000000
0.098451 0.536760 0.000000
0.264146 0.568228 0.000000
0.386461 0.599301 0.000000
0.493447 0.627333 0.000000
0.599093 0.653341 0.000000
0.693383 0.672609 0.000000
0.769477 0.686086 0.000000
0.830362 0.693607 0.000000
0.871501 0.698768 0.000000
0.905082 0.702717 0.000000
0.929870 0.705782 0.000000
0.942739 0.707258 0.000000
0.951890 0.707130 0.000000
0.958234 0.706735 0.000000
0.961524 0.706200 0.000000
0.963293 0.704592 0.000000
0.964067 0.703172 0.000000
0.963060 0.700358 0.000000
0.961452 0.695610 0.000000
0.960245 0.692050 0.000000
0.958632 0.687303 0.000000
0.957421 0.683743 0.000000
0.956208 0.680184 0.000000
0.000000 0.472594 0.123320
0.000000 0.471254 0.123574
0.000000 0.470666 0.119863
0.000000 0.471477 0.108587
0.000000 0.472831 0.086160
0.000000 0.474535 0.029911
0.000000 0.475720 0.000000
0.000000 0.483463 0.000000
0.000000 0.495357 0.000000
0.000000 0.524827 0.000000
0.033419 0.555878 0.000000
0.257001 0.588924 0.000000
0.385001 0.621964 0.000000
0.498593 0.652853 0.000000
0.605519 0.680248 0.000000
0.699010 0.700402 0.000000
0.778572 0.715396 0.000000
0.838638 0.724034 0.000000
0.880280 0.729338 0.000000
0.914454 0.733420 0.000000
0.939538 0.735572 0.000000
0.953097 0.736708 0.000000
0.962639 0.737557 0.000000
0.968355 0.736719 0.000000
0.971823 0.735203 0.000000
0.973813 0.733553 0.000000
0.974157 0.730712 0.000000
0.973272 0.728283 0.000000
0.972379 0.725834 0.000000
0.971195 0.722596 0.000000
0.970307 0.720166 0.000000
0.969121 0.716929 0.000000
0.968230 0.714501 0.000000
0.000000 0.483274 0.121019
0.000000 0.482523 0.121198
0.000000 0.482417 0.118027
0.000000 0.483821 0.105857
0.000000 0.485830 0.081127
0.000000 0.488254 0.000000
0.000000 0.491143 0.000000
0.000000 0.499881 0.000000
0.000000 0.513352 0.000000
0.000000 0.541720 0.000000
0.000000 0.572800 0.000000
0.250456 0.606361 0.000000
0.383022 0.640246 0.000000
0.499257 0.672172 0.000000
0.607508 0.700112 0.000000
0.702356 0.721206 0.000000
0.783643 0.737061 0.000000
0.844000 0.745773 0.000000
0.887840 0.751882 0.000000
0.921647 0.755767 0.000000
0.947086 0.758605 0.000000
0.961564 0.760241 0.000000
0.971115 0.761449 0.000000
0.976868 0.761997 0.000000
0.980825 0.760907 0.000000
0.983123 0.759434 0.000000
0.983746 0.757042 0.000000
0.983071 0.755234 0.000000
0.982394 0.753425 0.000000
0.981215 0.750163 0.000000
0.980336 0.747730 0.000000
0.979162 0.744488 0.000000
0.978280 0.742057 0.000000
0.000000 0.491802 0.118916
0.000000 0.491049 0.119106
0.000000 0.490837 0.116586
0.000000 0.492243 0.104877
0.000000 0.494551 0.077677
0.000000 0.497239 0.000000
0.000000 0.501066 0.000000
0.000000 0.509942 0.000000
0.000000 0.524393 0.000000
0.000000 0.552651 0.000000
0.000000 0.584301 0.000000
0.248980 0.619817 0.000000
0.381078 0.653830 0.000000
0.499146 0.687055 0.000000
0.608523 0.716077 0.000000
0.704764 0.738761 0.000000
0.787849 0.756318 0.000000
0.848725 0.765966 0.000000
0.893806 0.772416 0.000000
0.928662 0.777246 0.000000
0.954556 0.779603 0.000000
0.968728 0.780851 0.000000
0.978373 0.781720 0.000000
0.983972 0.782458 0.000000
0.987638 0.780769 0.000000
0.990314 0.779588 0.000000
0.991589 0.778154 0.000000
0.990696 0.775738 0.000000
0.990025 0.773926 0.000000
0.989138 0.771521 0.000000
0.988466 0.769711 0.000000
0.987567 0.767297 0.000000
0.986894 0.765488 0.000000
0.000000 0.497432 0.119189
0.000000 0.497001 0.119109
0.000000 0.497075 0.116648
0.000000 0.499104 0.103790
0.000000 0.501828 0.075589
0.000000 0.505057 0.000000
0.000000 0.509547 0.000000
0.000000 0.519136 0.000000
0.000000 0.534821 0.000000
0.000000 0.562805 0.000000
0.000000 0.594721 0.000000
0.244927 0.630346 0.000000
0.379273 0.664555 0.000000
0.498529 0.698110 0.000000
0.608527 0.727201 0.000000
0.705462 0.750351 0.000000
0.789916 0.768583 0.000000
0.850870 0.778722 0.000000
0.897112 0.785202 0.000000
0.933217 0.789909 0.000000
0.958468 0.793175 0.000000
0.973453 0.795193 0.000000
0.983690 0.796379 0.000000
0.989413 0.797079 0.000000
0.993350 0.796726 0.000000
0.996479 0.796427 0.000000
0.998277 0.795979 0.000000
0.997707 0.794546 0.000000
0.997279 0.793471 0.000000
0.996709 0.792040 0.000000
0.996050 0.790235 0.000000
0.995382 0.788423 0.000000
0.994491 0.786006 0.000000
0.000000 0.502316 0.120117
0.000000 0.501885 0.120033
0.000000 0.501886 0.118029
0.000000 0.504301 0.104079
0.000000 0.507368 0.074279
0.000000 0.511050 0.000000
0.000000 0.515040 0.000000
0.000000 0.524341 0.000000
0.000000 0.541206 0.000000
0.000000 0.569743 0.000000
0.000000 0.601822 0.000000
0.242904 0.637326 0.000000
0.381232 0.672688 0.000000
0.498010 0.705908 0.000000
0.608110 0.735503 0.000000
0.707996 0.759919 0.000000
0.793016 0.778802 0.000000
0.853988 0.789830 0.000000
0.900118 0.796821 0.000000
0.937067 0.801825 0.000000
0.962040 0.805774 0.000000
0.977516 0.807898 0.000000
0.988143 0.808863 0.000000
0.994059 0.808577 0.000000
0.998015 0.808620 0.000000
1.001185 0.808582 0.000000
1.003109 0.808165 0.000000
1.002542 0.806731 0.000000
1.002117 0.805655 0.000000
