transforms/MG01_golden_lush_fpe_r709.cube
#  MG_01_FPE_r709.cube
LUT_3D_SIZE 5
0.000000 0.000000 0.000000
0.102502 0.048583 0.000000
0.470038 0.000000 0.000000
0.619224 0.000000 0.000000
0.624104 0.000000 0.000000
0.000000 0.085596 0.042540
0.114386 0.101389 0.027164
0.556495 0.119664 0.000000
0.702274 0.000000 0.000000
0.694000 0.000000 0.000000
0.000000 0.326372 0.127461
0.000000 0.329990 0.000000
0.705152 0.464692 0.000000
0.875914 0.466021 0.000000
0.864559 0.424766 0.000000
0.000000 0.491802 0.118916
0.000000 0.524393 0.000000
0.787849 0.756318 0.000000
0.987638 0.780769 0.000000
0.986894 0.765488 0.000000
0.000000 0.514179 0.120657
0.000000 0.561235 0.000000
0.790397 0.799746 0.000000
1.011937 0.838504 0.000000
1.018289 0.838034 0.000000
0.020332 0.022394 0.087418
0.113418 0.050873 0.083176
0.504668 0.000000 0.000000
0.646384 0.000000 0.000000
0.646479 0.000000 0.000000
0.000000 0.100533 0.108281
0.121548 0.109894 0.092827
0.595382 0.116091 0.000000
0.730998 0.000000 0.000000
0.717338 0.000000 0.000000
0.000000 0.376836 0.207691
0.000000 0.359577 0.074357
0.746658 0.490932 0.000000
0.907327 0.485746 0.000000
0.889168 0.439861 0.000000
0.000000 0.533901 0.231502
0.000000 0.551203 0.000000
0.814864 0.771642 0.000000
1.013501 0.794765 0.000000
1.007091 0.776729 0.000000
0.000000 0.554770 0.247021
0.000000 0.585560 0.000000
0.805358 0.807764 0.000000
1.029234 0.845359 0.000000
1.029587 0.843257 0.000000
0.053849 0.000000 0.311075
0.126525 0.000000 0.325437
0.533486 0.000000 0.345642
0.675154 0.000000 0.333451
0.675011 0.000000 0.294128
0.000000 0.148142 0.378699
0.085614 0.122914 0.379248
0.624073 0.118200 0.399070
0.761320 0.000000 0.375337
0.747613 0.000000 0.322114
0.000000 0.491574 0.538554
0.000000 0.470320 0.482237
0.754578 0.567443 0.454912
0.926739 0.555252 0.424764
0.913772 0.501443 0.364192
0.000000 0.658496 0.602160
0.000000 0.683609 0.545716
0.793573 0.849849 0.457297
1.013003 0.867701 0.413609
1.014695 0.842036 0.339440
0.000000 0.676258 0.620383
0.000000 0.709603 0.561474
0.775419 0.886144 0.486350
1.016166 0.919806 0.451047
1.018198 0.908878 0.377558
0.144202 0.000000 0.452101
0.207091 0.000000 0.491778
0.564609 0.000000 0.574774
0.699699 0.000000 0.582617
0.700654 0.000000 0.568101
0.000000 0.150666 0.552410
0.000000 0.117481 0.593839
0.646850 0.080354 0.673651
0.788166 0.000000 0.673230
0.776807 0.000000 0.639853
0.000000 0.513033 0.710045
0.000000 0.532964 0.736916
0.747611 0.636340 0.809189
0.933675 0.627737 0.809210
0.924086 0.574357 0.774052
0.000000 0.687175 0.784286
0.000000 0.744880 0.807620
0.759672 0.913933 0.848397
0.994938 0.937763 0.850790
0.998779 0.918359 0.819146
0.000000 0.702177 0.793353
0.000000 0.769537 0.819184
0.740674 0.945183 0.860346
1.001806 0.981858 0.865435
1.004857 0.977057 0.837200
0.176157 0.000000 0.490116
0.232815 0.000000 0.536005
0.578821 0.000000 0.642800
0.715013 0.000000 0.663700
0.716664 0.000000 0.659124
0.000000 0.169934 0.607519
0.000000 0.139505 0.661235
0.659912 0.121765 0.764624
0.804890 0.000000 0.774449
0.793397 0.000000 0.751114
0.000000 0.523425 0.756436
0.000000 0.550973 0.798797
0.742562 0.664110 0.914888
0.937655 0.660974 0.927361
0.930268 0.611278 0.910192
0.000000 0.687213 0.823671
0.000000 0.748443 0.863317
0.746149 0.928966 0.956893
0.990125 0.955088 0.971946
0.992678 0.940202 0.963652
0.000000 0.701361 0.831058
0.000000 0.773037 0.872135
0.722898 0.958658 0.960600
0.994911 0.995212 0.978292
1.000130 0.994824 0.973649
