transforms/MG01_golden_lush_fpe_r709.cube
#  MG_01_FPE_r709.cube
LUT_3D_SIZE 9
0.000000 0.000000 0.000000
0.010362 0.005934 0.003881
0.102502 0.048583 0.000000
0.256246 0.060565 0.000000
0.470038 0.000000 0.000000
0.583190 0.000000 0.000000
0.619224 0.000000 0.000000
0.624104 0.000000 0.000000
0.624104 0.000000 0.000000
0.005122 0.010343 0.004974
0.010333 0.010028 0.004257
0.106061 0.060592 0.000000
0.271072 0.082627 0.000000
0.497823 0.000000 0.000000
0.609831 0.000000 0.000000
0.640362 0.000000 0.000000
0.640421 0.000000 0.000000
0.635710 0.000000 0.000000
0.000000 0.085596 0.042540
0.028441 0.082434 0.039296
0.114386 0.101389 0.027164
0.303735 0.135888 0.000000
0.556495 0.119664 0.000000
0.675358 0.049251 0.000000
0.702274 0.000000 0.000000
0.700539 0.000000 0.000000
0.694000 0.000000 0.000000
0.000000 0.172683 0.066416
0.000000 0.165185 0.048804
0.106868 0.188393 0.000000
0.345273 0.243713 0.000000
0.629225 0.262766 0.000000
0.757633 0.255465 0.000000
0.784352 0.250605 0.000000
0.781204 0.234949 0.000000
0.772380 0.215853 0.000000
0.000000 0.326372 0.127461
0.000000 0.314504 0.097864
0.000000 0.329990 0.000000
0.377984 0.413965 0.000000
0.705152 0.464692 0.000000
0.847433 0.469397 0.000000
0.875914 0.466021 0.000000
0.873187 0.448122 0.000000
0.864559 0.424766 0.000000
0.000000 0.439280 0.128165
0.000000 0.437137 0.096783
0.000000 0.455533 0.000000
0.384036 0.571359 0.000000
0.760922 0.654969 0.000000
0.918314 0.671536 0.000000
0.947852 0.667268 0.000000
0.947654 0.655273 0.000000
0.941903 0.638684 0.000000
0.000000 0.491802 0.118916
0.000000 0.494551 0.077677
0.000000 0.524393 0.000000
0.381078 0.653830 0.000000
0.787849 0.756318 0.000000
0.954556 0.779603 0.000000
0.987638 0.780769 0.000000
0.990025 0.773926 0.000000
0.986894 0.765488 0.000000
0.000000 0.509715 0.120920
0.000000 0.515608 0.065982
0.000000 0.553301 0.000000
0.381066 0.683274 0.000000
0.794959 0.790638 0.000000
0.967027 0.819392 0.000000
1.004880 0.823797 0.000000
1.009566 0.822883 0.000000
1.008311 0.820248 0.000000
0.000000 0.514179 0.120657
0.000000 0.520209 0.069047
0.000000 0.561235 0.000000
0.377465 0.690443 0.000000
0.790397 0.799746 0.000000
0.969066 0.831322 0.000000
1.011937 0.838504 0.000000
1.018917 0.839006 0.000000
1.018289 0.838034 0.000000
0.006115 0.005416 0.008203
0.011109 0.006383 0.007930
0.108167 0.050122 0.028346
0.268230 0.062791 0.000000
0.483799 0.000000 0.000000
0.594483 0.000000 0.000000
0.627146 0.000000 0.000000
0.629644 0.000000 0.000000
0.627961 0.000000 0.000000
0.003861 0.010902 0.010504
0.010179 0.010021 0.008652
0.108731 0.060868 0.032598
0.282157 0.080004 0.000000
0.510563 0.000000 0.000000
0.619729 0.000000 0.000000
0.647312 0.000000 0.000000
0.645923 0.000000 0.000000
0.638746 0.000000 0.000000
0.000000 0.089184 0.058845
0.018230 0.083839 0.054248
0.116922 0.102223 0.046123
0.317476 0.135898 0.000000
0.571862 0.116702 0.000000
0.685244 0.038954 0.000000
0.709184 0.000000 0.000000
0.704824 0.000000 0.000000
0.696681 0.000000 0.000000
0.000000 0.182720 0.085383
0.000000 0.171320 0.063316
0.107587 0.193298 0.030814
0.358087 0.249196 0.000000
0.643015 0.266141 0.000000
0.767277 0.257578 0.000000
0.791100 0.252872 0.000000
0.785056 0.236665 0.000000
0.774467 0.217820 0.000000
0.000000 0.340755 0.140014
0.000000 0.331511 0.119289
0.000000 0.340369 0.000000
0.392350 0.426267 0.000000
0.717885 0.473587 0.000000
0.857187 0.476851 0.000000
0.882044 0.470865 0.000000
0.875886 0.449530 0.000000
0.864559 0.424766 0.000000
0.000000 0.452110 0.145479
0.000000 0.447878 0.114017
0.000000 0.465366 0.000000
0.398690 0.581835 0.000000
0.774642 0.663111 0.000000
0.925016 0.676095 0.000000
0.952043 0.670949 0.000000
0.948946 0.656006 0.000000
0.942314 0.639869 0.000000
0.000000 0.502223 0.143085
0.000000 0.502432 0.104872
0.000000 0.530939 0.000000
0.391616 0.660612 0.000000
0.797531 0.760846 0.000000
0.959626 0.782994 0.000000
0.990306 0.782486 0.000000
0.990025 0.773926 0.000000
0.987119 0.766091 0.000000
0.000000 0.519193 0.148909
0.000000 0.522251 0.101541
0.000000 0.558940 0.000000
0.387034 0.687424 0.000000
0.800218 0.792739 0.000000
0.970908 0.820903 0.000000
1.006016 0.824409 0.000000
1.009566 0.822883 0.000000
1.008311 0.820248 0.000000
0.000000 0.522525 0.147739
0.000000 0.526785 0.098951
0.000000 0.566426 0.000000
0.381770 0.692897 0.000000
0.793381 0.800592 0.000000
0.971523 0.832025 0.000000
1.011967 0.838570 0.000000
1.018965 0.839081 0.000000
1.018289 0.838034 0.000000
0.020332 0.022394 0.087418
0.043324 0.025670 0.079978
0.113418 0.050873 0.083176
0.283691 0.062254 0.071266
0.504668 0.000000 0.000000
0.614448 0.000000 0.000000
0.646384 0.000000 0.000000
0.648543 0.000000 0.000000
0.646479 0.000000 0.000000
0.000000 0.051001 0.094161
0.036412 0.045266 0.080263
0.113437 0.063285 0.084012
0.300317 0.079239 0.068712
0.535859 0.000000 0.000000
0.642586 0.000000 0.000000
0.667620 0.000000 0.000000
0.664952 0.000000 0.000000
0.658066 0.000000 0.000000
0.000000 0.100533 0.108281
0.000000 0.090836 0.095289
0.121548 0.109894 0.092827
0.334432 0.142016 0.072340
0.595382 0.116091 0.000000
0.707745 0.000000 0.000000
0.730998 0.000000 0.000000
0.726211 0.000000 0.000000
0.717338 0.000000 0.000000
0.000000 0.207471 0.148829
0.000000 0.189649 0.121044
0.103245 0.208617 0.097403
0.379874 0.263439 0.034974
0.671164 0.277162 0.000000
0.791600 0.266273 0.000000
0.814498 0.258680 0.000000
0.808378 0.245632 0.000000
0.797101 0.224534 0.000000
0.000000 0.376836 0.207691
0.000000 0.363082 0.176839
0.000000 0.359577 0.074357
0.414378 0.448932 0.000000
0.746658 0.490932 0.000000
0.883427 0.492461 0.000000
0.907327 0.485746 0.000000
0.900133 0.465338 0.000000
0.889168 0.439861 0.000000
0.000000 0.486010 0.224600
0.000000 0.479189 0.190210
0.000000 0.487380 0.000000
0.414088 0.604524 0.000000
0.797394 0.678008 0.000000
0.951845 0.691499 0.000000
0.977098 0.686351 0.000000
0.973201 0.669799 0.000000
0.965395 0.651689 0.000000
0.000000 0.533901 0.231502
0.000000 0.531596 0.193724
0.000000 0.551203 0.000000
0.401748 0.679228 0.000000
0.814864 0.771642 0.000000
0.982852 0.795562 0.000000
1.013501 0.794765 0.000000
1.012028 0.785970 0.000000
1.007091 0.776729 0.000000
0.000000 0.552111 0.245763
0.000000 0.551903 0.205113
0.000000 0.577445 0.000000
0.394623 0.704295 0.000000
0.814355 0.802078 0.000000
0.990922 0.830324 0.000000
1.026949 0.833189 0.000000
1.028490 0.830459 0.000000
1.025213 0.826830 0.000000
0.000000 0.554770 0.247021
0.000000 0.555719 0.205841
0.000000 0.585560 0.000000
0.386153 0.710336 0.000000
0.805358 0.807764 0.000000
0.988017 0.839863 0.000000
1.029234 0.845359 0.000000
1.029266 0.845217 0.000000
1.029587 0.843257 0.000000
0.014098 0.000000 0.182732
0.046685 0.000000 0.178549
0.117349 0.018437 0.186078
0.293551 0.046492 0.190185
0.518680 0.000000 0.179974
0.628998 0.000000 0.166163
0.660827 0.000000 0.156038
0.663370 0.000000 0.141786
0.661933 0.000000 0.124883
0.000000 0.041287 0.196076
0.029664 0.034420 0.190274
0.115464 0.054372 0.194702
0.310530 0.070753 0.195406
0.548893 0.000000 0.178115
0.656708 0.000000 0.158719
0.682350 0.000000 0.150909
0.680597 0.000000 0.140106
0.673690 0.000000 0.118697
0.000000 0.119952 0.224934
0.000000 0.106131 0.212431
0.110952 0.119115 0.213064
0.345720 0.149883 0.214100
0.610664 0.118924 0.194844
0.724002 0.000000 0.177436
0.747257 0.000000 0.167696
0.741701 0.000000 0.153205
0.734121 0.000000 0.129896
0.000000 0.261008 0.289791
0.000000 0.239982 0.263586
0.000000 0.231186 0.230222
0.384065 0.283838 0.228289
0.684298 0.296513 0.199751
0.806827 0.283465 0.177487
0.830009 0.275745 0.165002
0.825015 0.260101 0.152062
0.815485 0.237643 0.123220
0.000000 0.442715 0.363130
0.000000 0.427397 0.334923
0.000000 0.398185 0.248451
0.405129 0.481621 0.216565
0.754211 0.520526 0.158671
0.896277 0.521241 0.105305
0.921133 0.512080 0.057276
0.915654 0.491091 0.000000
0.906304 0.463589 0.000000
0.000000 0.550721 0.393476
0.000000 0.544027 0.362893
0.000000 0.535207 0.257546
0.391789 0.638804 0.185702
0.800656 0.709485 0.000000
0.960195 0.719422 0.000000
0.988082 0.713551 0.000000
0.985355 0.695879 0.000000
0.980126 0.676693 0.000000
0.000000 0.597711 0.410463
0.000000 0.595902 0.378321
0.000000 0.601990 0.273079
0.366300 0.713799 0.174417
0.813324 0.801791 0.000000
0.987594 0.822699 0.000000
1.020719 0.820825 0.000000
1.021389 0.809587 0.000000
1.018872 0.798473 0.000000
0.000000 0.615848 0.430881
0.000000 0.616901 0.399938
0.000000 0.627393 0.289658
0.347207 0.738822 0.196726
0.807291 0.830850 0.000000
0.992681 0.857030 0.000000
1.026986 0.858955 0.000000
1.027756 0.854355 0.000000
1.028833 0.847858 0.000000
0.000000 0.618694 0.432529
0.000000 0.621247 0.404335
0.000000 0.634241 0.301151
0.334465 0.746107 0.226249
0.798019 0.839792 0.000000
0.987608 0.868319 0.000000
1.024571 0.873137 0.000000
1.024927 0.871069 0.000000
1.025811 0.865904 0.000000
0.053849 0.000000 0.311075
0.062673 0.000000 0.310450
0.126525 0.000000 0.325437
0.306523 0.000000 0.342463
0.533486 0.000000 0.345642
0.643211 0.000000 0.340246
0.675154 0.000000 0.333451
0.676740 0.000000 0.314788
0.675011 0.000000 0.294128
0.000000 0.005298 0.333098
0.000000 0.000000 0.328407
0.120184 0.000000 0.341050
0.322611 0.000000 0.360893
0.564423 0.000000 0.358879
0.671478 0.000000 0.349500
0.698121 0.000000 0.337161
0.694879 0.000000 0.315534
0.687861 0.000000 0.291421
0.000000 0.148142 0.378699
0.000000 0.126083 0.369579
0.085614 0.122914 0.379248
0.350833 0.153277 0.400871
0.624073 0.118200 0.399070
0.738599 0.000000 0.388224
0.761320 0.000000 0.375337
0.756233 0.000000 0.348499
0.747613 0.000000 0.322114
0.000000 0.297911 0.451992
0.000000 0.281552 0.439460
0.000000 0.267104 0.422090
0.379548 0.314382 0.440655
0.693378 0.324823 0.433770
0.819340 0.312755 0.423337
0.842876 0.303644 0.411952
0.837582 0.287005 0.383840
0.827400 0.260372 0.353615
0.000000 0.491574 0.538554
0.000000 0.483722 0.525431
0.000000 0.470320 0.482237
0.371551 0.526552 0.464368
0.754578 0.567443 0.454912
0.900262 0.563815 0.437178
0.926739 0.555252 0.424764
0.922333 0.531136 0.396385
0.913772 0.501443 0.364192
0.000000 0.610315 0.583945
0.000000 0.611915 0.571547
0.000000 0.620034 0.524756
0.317090 0.688993 0.472422
0.787065 0.758395 0.454361
0.955120 0.768423 0.431019
0.985313 0.761460 0.414872
0.985176 0.741426 0.387449
0.980698 0.719618 0.351267
0.000000 0.658496 0.602160
0.000000 0.663861 0.590911
0.000000 0.683609 0.545716
0.258126 0.762826 0.480639
0.793573 0.849849 0.457297
0.978834 0.870300 0.430963
1.013003 0.867701 0.413609
1.015833 0.855260 0.378502
1.014695 0.842036 0.339440
0.000000 0.674173 0.619637
0.000000 0.682230 0.607376
0.000000 0.705325 0.560683
0.218464 0.787874 0.498391
0.787374 0.879536 0.472871
0.980826 0.905066 0.446180
1.018617 0.906537 0.427893
1.019875 0.899695 0.392785
1.021329 0.891609 0.347201
0.000000 0.676258 0.620383
0.000000 0.683602 0.608056
0.000000 0.709603 0.561474
0.197885 0.792889 0.507686
0.775419 0.886144 0.486350
0.974813 0.914043 0.465291
1.016166 0.919806 0.451047
1.016954 0.915593 0.421289
1.018198 0.908878 0.377558
0.101256 0.000000 0.402744
0.110574 0.000000 0.405907
0.169990 0.000000 0.433951
0.329124 0.000000 0.471107
0.550469 0.000000 0.489615
0.657273 0.000000 0.491565
0.689219 0.000000 0.487858
0.691088 0.000000 0.473088
0.689722 0.000000 0.457956
0.007822 0.000000 0.434330
0.068865 0.000000 0.431844
0.151131 0.000000 0.457364
0.336558 0.000000 0.496553
0.579421 0.000000 0.510211
0.686530 0.000000 0.509164
0.712144 0.000000 0.498619
0.709367 0.000000 0.481125
0.702548 0.000000 0.460779
0.000000 0.146933 0.488390
0.000000 0.124792 0.484241
0.000000 0.119155 0.512494
0.361688 0.149132 0.555026
0.638504 0.103689 0.569580
0.754185 0.000000 0.565820
0.776217 0.000000 0.555564
0.771909 0.000000 0.533816
0.764273 0.000000 0.509498
0.000000 0.313520 0.564047
0.000000 0.299357 0.557489
0.000000 0.297094 0.574703
0.373178 0.341443 0.616309
0.701103 0.353374 0.631700
0.831717 0.343139 0.627905
0.855799 0.334130 0.619487
0.850622 0.315858 0.594843
0.841737 0.289292 0.570171
0.000000 0.505592 0.650504
0.000000 0.502298 0.646498
0.000000 0.512246 0.648274
0.331188 0.567635 0.662548
0.751645 0.607622 0.674176
0.902735 0.607962 0.671296
0.931458 0.599914 0.661275
0.927343 0.571858 0.636573
0.920064 0.541911 0.609408
0.000000 0.633118 0.705683
0.000000 0.639598 0.703671
0.000000 0.667288 0.700412
0.221783 0.731845 0.683321
0.773466 0.801992 0.694365
0.948519 0.812191 0.686902
0.980774 0.806427 0.676640
0.981330 0.787333 0.655198
0.978060 0.767147 0.625943
0.000000 0.685415 0.729245
0.000000 0.695743 0.728246
0.000000 0.730396 0.721499
0.000000 0.803205 0.693455
0.774023 0.890954 0.704085
0.966097 0.912654 0.696317
1.002563 0.911812 0.689173
1.006864 0.900632 0.663153
1.006159 0.888690 0.632758
0.000000 0.699335 0.742120
0.000000 0.712797 0.740782
0.000000 0.750405 0.732511
0.000000 0.825611 0.706105
0.763089 0.918710 0.715902
0.966549 0.946049 0.708808
1.009006 0.948254 0.700020
1.011937 0.941891 0.672689
1.013231 0.935175 0.643005
0.000000 0.701352 0.743152
0.000000 0.715609 0.741155
0.000000 0.754007 0.733948
0.000000 0.829322 0.709726
0.751944 0.924369 0.721828
0.962032 0.953578 0.717255
1.008783 0.957822 0.709001
1.009265 0.955416 0.690247
1.010196 0.950743 0.661040
0.144202 0.000000 0.452101
0.155977 0.000000 0.459464
0.207091 0.000000 0.491778
0.348046 0.000000 0.541773
0.564609 0.000000 0.574774
0.669185 0.000000 0.581770
0.699699 0.000000 0.582617
0.701885 0.000000 0.576181
0.700654 0.000000 0.568101
0.081593 0.000000 0.489609
0.117632 0.000000 0.491746
0.180899 0.000000 0.523223
0.352358 0.000000 0.575677
0.591041 0.000000 0.603989
0.697870 0.000000 0.606563
0.723111 0.000000 0.602250
0.720706 0.000000 0.591063
0.714210 0.000000 0.577527
0.000000 0.150666 0.552410
0.000000 0.128248 0.554318
0.000000 0.117481 0.593839
0.367269 0.144049 0.648700
0.646850 0.080354 0.673651
0.764960 0.000000 0.678119
0.788166 0.000000 0.673230
0.784404 0.000000 0.656775
0.776807 0.000000 0.639853
0.000000 0.323712 0.626912
0.000000 0.311353 0.627297
0.000000 0.316706 0.662340
0.369731 0.361920 0.723257
0.707478 0.373994 0.751369
0.839587 0.363974 0.756588
0.864030 0.356269 0.751890
0.860847 0.338614 0.736710
0.852138 0.309270 0.717044
0.000000 0.513033 0.710045
0.000000 0.511916 0.712273
0.000000 0.532964 0.736916
0.306006 0.592176 0.779165
0.747611 0.636340 0.809189
0.904907 0.636288 0.814041
0.933675 0.627737 0.809210
0.930730 0.603164 0.794387
0.924086 0.574357 0.774052
0.000000 0.636354 0.762675
0.000000 0.644125 0.767435
0.000000 0.682197 0.785742
0.053535 0.753947 0.806034
0.762373 0.827505 0.837156
0.943247 0.838541 0.840872
0.976679 0.835225 0.838058
0.978176 0.818330 0.824906
0.975217 0.799173 0.806091
0.000000 0.687175 0.784286
0.000000 0.697873 0.790559
0.000000 0.744880 0.807620
0.000000 0.824532 0.816449
0.759672 0.913933 0.848397
0.956918 0.937398 0.853271
0.994938 0.937763 0.850790
0.999690 0.928247 0.836233
0.998779 0.918359 0.819146
0.000000 0.700062 0.793200
0.000000 0.715070 0.798985
0.000000 0.764864 0.816937
0.000000 0.845923 0.824743
0.749726 0.940217 0.855831
0.958055 0.967777 0.862141
1.000326 0.971763 0.857478
1.005784 0.967157 0.844790
1.006451 0.963017 0.828017
0.000000 0.702177 0.793353
0.000000 0.718798 0.800207
0.000000 0.769537 0.819184
0.000000 0.850295 0.829213
0.740674 0.945183 0.860346
0.952472 0.975040 0.870448
1.001806 0.981858 0.865435
1.004257 0.979941 0.853109
1.004857 0.977057 0.837200
0.166867 0.000000 0.477211
0.180501 0.000000 0.486868
0.226234 0.000000 0.521646
0.357929 0.000000 0.579689
0.572668 0.000000 0.620610
0.678485 0.000000 0.631701
0.707769 0.000000 0.635423
0.709510 0.000000 0.631922
0.708515 0.000000 0.627052
0.093673 0.000000 0.520988
0.135064 0.000000 0.523490
0.191992 0.000000 0.558472
0.359593 0.000000 0.619818
0.601471 0.000000 0.655235
0.706905 0.000000 0.661474
0.731165 0.000000 0.659718
0.728769 0.000000 0.650652
0.722184 0.000000 0.639842
0.000000 0.158889 0.587916
0.000000 0.139235 0.592638
0.000000 0.124727 0.638232
0.370461 0.151260 0.701571
0.655147 0.089146 0.732736
0.773355 0.000000 0.741101
0.797207 0.000000 0.738840
0.792558 0.000000 0.725944
0.784907 0.000000 0.710629
0.000000 0.335089 0.663381
0.000000 0.323511 0.666283
0.000000 0.329192 0.708050
0.362970 0.376364 0.780217
0.710281 0.392653 0.817326
0.845859 0.384529 0.826857
0.870930 0.375452 0.824310
0.867625 0.354994 0.812409
0.860027 0.327242 0.796851
0.000000 0.519559 0.742093
0.000000 0.518726 0.746788
0.000000 0.543494 0.778351
0.281348 0.606300 0.840392
0.747175 0.651261 0.880119
0.905536 0.651920 0.889326
0.935121 0.645172 0.887906
0.932620 0.621875 0.875333
0.926700 0.594382 0.862292
0.000000 0.638010 0.791905
0.000000 0.646483 0.798310
0.000000 0.687013 0.825974
0.000000 0.765855 0.869855
0.756918 0.841141 0.911203
0.940861 0.853973 0.921814
0.974349 0.850332 0.919793
0.976085 0.833938 0.910391
0.973303 0.817750 0.899645
0.000000 0.686991 0.812952
0.000000 0.698771 0.819698
0.000000 0.747908 0.846137
0.000000 0.835617 0.880542
0.749716 0.924009 0.920786
0.953805 0.949825 0.933331
0.991828 0.949581 0.932627
0.995581 0.941375 0.924122
0.994814 0.933106 0.914527
0.000000 0.699895 0.819330
0.000000 0.714827 0.826252
0.000000 0.767739 0.854355
0.000000 0.855086 0.885474
0.741882 0.949616 0.926489
0.953657 0.978603 0.938966
0.996871 0.982703 0.937653
1.001616 0.980110 0.930620
1.001833 0.976891 0.922066
0.000000 0.702070 0.820310
0.000000 0.719153 0.828282
0.000000 0.772400 0.856267
0.000000 0.858695 0.887542
0.728475 0.954048 0.929075
0.947397 0.985189 0.940756
0.997340 0.991234 0.941316
1.001991 0.990615 0.934671
1.002331 0.989015 0.927138
0.176157 0.000000 0.490116
0.189028 0.000000 0.500212
0.232815 0.000000 0.536005
0.365798 0.000000 0.597982
0.578821 0.000000 0.642800
0.685308 0.000000 0.657952
0.715013 0.000000 0.663700
0.717556 0.000000 0.661997
0.716664 0.000000 0.659124
0.067557 0.000000 0.537840
0.124178 0.000000 0.542627
0.188659 0.000000 0.579887
0.363855 0.000000 0.643322
0.605899 0.000000 0.682079
0.714380 0.000000 0.692265
0.739599 0.000000 0.691945
0.736926 0.000000 0.683864
0.730723 0.000000 0.674597
0.000000 0.169934 0.607519
0.000000 0.151712 0.612625
0.000000 0.139505 0.661235
0.371518 0.165751 0.728582
0.659912 0.121765 0.764624
0.779984 0.000000 0.775002
0.804890 0.000000 0.774449
0.800909 0.000000 0.763511
0.793397 0.000000 0.751114
0.000000 0.343910 0.680967
0.000000 0.335367 0.685438
0.000000 0.342368 0.729468
0.360397 0.390135 0.809635
0.712991 0.408512 0.851380
0.849417 0.399945 0.863141
0.876727 0.393482 0.862523
0.873066 0.374542 0.852826
0.865350 0.344743 0.840895
0.000000 0.523425 0.756436
0.000000 0.524147 0.763000
0.000000 0.550973 0.798797
0.265337 0.618163 0.870364
0.742562 0.664110 0.914888
0.906528 0.666560 0.927307
0.937655 0.660974 0.927361
0.935435 0.635872 0.918292
0.930268 0.611278 0.910192
0.000000 0.639337 0.804464
0.000000 0.647080 0.811955
0.000000 0.689711 0.843767
0.000000 0.771926 0.899285
0.751569 0.847396 0.946316
0.940283 0.862551 0.959711
0.974022 0.858245 0.959468
0.975592 0.844522 0.954598
0.973128 0.828092 0.948893
0.000000 0.687213 0.823671
0.000000 0.698820 0.832078
0.000000 0.748443 0.863317
0.000000 0.839250 0.909645
0.746149 0.928966 0.956893
0.952079 0.955213 0.971494
0.990125 0.955088 0.971946
0.993628 0.947775 0.968127
0.992678 0.940202 0.963652
0.000000 0.699768 0.829808
0.000000 0.714963 0.839726
0.000000 0.768245 0.871078
0.000000 0.858903 0.913228
0.733846 0.953362 0.960299
0.949675 0.983491 0.975530
0.995041 0.987891 0.976731
0.999755 0.985268 0.973120
0.999488 0.983007 0.969533
0.000000 0.701361 0.831058
0.000000 0.719070 0.840989
0.000000 0.773037 0.872135
0.000000 0.861823 0.913460
0.722898 0.958658 0.960600
0.944497 0.989234 0.975944
0.994911 0.995212 0.978292
1.000063 0.995932 0.976790
1.000130 0.994824 0.973649
