transforms/MG02_golden_lush_d65_r709.cube
#  MG_02_D65_r709.cube
LUT_3D_SIZE 9
0.000000 0.000000 0.000000
0.009501 0.000000 0.002207
0.157601 0.000000 0.000000
0.375177 0.000000 0.000000
0.663360 0.000000 0.000000
0.931058 0.000000 0.000000
1.071628 0.000000 0.000000
1.088126 0.000000 0.000000
1.088126 0.000000 0.000000
0.000000 0.016005 0.000000
0.004427 0.012842 0.000000
0.147097 0.000000 0.000000
0.360638 0.000000 0.000000
0.648176 0.000000 0.000000
0.919068 0.000000 0.000000
1.067680 0.000000 0.000000
1.088126 0.000000 0.000000
1.088126 0.000000 0.000000
0.000000 0.148412 0.000000
0.000000 0.134420 0.000000
0.125816 0.119831 0.000000
0.342788 0.082480 0.000000
0.632365 0.000000 0.000000
0.907122 0.000000 0.000000
1.063552 0.000000 0.000000
1.087998 0.000000 0.000000
1.088033 0.000000 0.000000
0.000000 0.318026 0.000000
0.000000 0.299153 0.000000
0.000000 0.279942 0.000000
0.314321 0.258727 0.000000
0.611495 0.213940 0.000000
0.893725 0.094046 0.000000
1.056527 0.000000 0.000000
1.086457 0.000000 0.000000
1.086730 0.000000 0.000000
0.000000 0.551992 0.000000
0.000000 0.531290 0.000000
0.000000 0.509563 0.000000
0.211933 0.489170 0.000000
0.571353 0.458150 0.000000
0.867608 0.417342 0.000000
1.041957 0.372918 0.000000
1.078544 0.343811 0.000000
1.079559 0.319280 0.000000
0.000000 0.782832 0.000000
0.000000 0.764921 0.000000
0.000000 0.747819 0.000000
0.000000 0.731113 0.000000
0.490182 0.706779 0.000000
0.822932 0.676470 0.000000
1.013372 0.647354 0.000000
1.058362 0.624704 0.000000
1.060363 0.604846 0.000000
0.000000 0.943768 0.000000
0.000000 0.932545 0.000000
0.000000 0.921722 0.000000
0.000000 0.909974 0.000000
0.368322 0.893530 0.000000
0.767937 0.871996 0.000000
0.976641 0.850990 0.000000
1.030861 0.834801 0.000000
1.033297 0.819418 0.000000
0.000000 1.015075 0.000000
0.000000 1.012678 0.000000
0.000000 1.009659 0.000000
0.000000 1.006338 0.000000
0.210812 0.998365 0.000000
0.718657 0.986828 0.000000
0.944053 0.974906 0.000000
1.007074 0.965794 0.000000
1.008489 0.958800 0.000000
0.000000 1.017231 0.000000
0.000000 1.017231 0.000000
0.000000 1.017196 0.000000
0.000000 1.016678 0.000000
0.000000 1.014090 0.000000
0.693220 1.008237 0.000000
0.929853 1.002204 0.000000
0.999919 0.999919 0.000000
0.999919 0.999919 0.000000
0.000000 0.000000 0.030590
0.009501 0.000000 0.026534
0.157601 0.000000 0.041094
0.375177 0.000000 0.000000
0.663360 0.000000 0.000000
0.931058 0.000000 0.000000
1.071628 0.000000 0.000000
1.088126 0.000000 0.000000
1.088126 0.000000 0.000000
0.000000 0.016005 0.027319
0.004427 0.012842 0.023028
0.147097 0.000000 0.035427
0.360638 0.000000 0.000000
0.648176 0.000000 0.000000
0.919068 0.000000 0.000000
1.067680 0.000000 0.000000
1.088126 0.000000 0.000000
1.088126 0.000000 0.000000
0.000000 0.148412 0.016701
0.000000 0.134420 0.000000
0.125816 0.119831 0.000000
0.342788 0.082480 0.000000
0.632365 0.000000 0.000000
0.907122 0.000000 0.000000
1.063552 0.000000 0.000000
1.087998 0.000000 0.000000
1.088033 0.000000 0.000000
0.000000 0.318026 0.000000
0.000000 0.299153 0.000000
0.000000 0.279942 0.000000
0.314321 0.258727 0.000000
0.611495 0.213940 0.000000
0.893725 0.094046 0.000000
1.056527 0.000000 0.000000
1.086457 0.000000 0.000000
1.086730 0.000000 0.000000
0.000000 0.551992 0.000000
0.000000 0.531290 0.000000
0.000000 0.509563 0.000000
0.211933 0.489170 0.000000
0.571353 0.458150 0.000000
0.867608 0.417342 0.000000
1.041957 0.372918 0.000000
1.078544 0.343811 0.000000
1.079559 0.319280 0.000000
0.000000 0.782832 0.000000
0.000000 0.764921 0.000000
0.000000 0.747819 0.000000
0.000000 0.731113 0.000000
0.490182 0.706779 0.000000
0.822932 0.676470 0.000000
1.013372 0.647354 0.000000
1.058362 0.624704 0.000000
1.060363 0.604846 0.000000
0.000000 0.943768 0.000000
0.000000 0.932545 0.000000
0.000000 0.921722 0.000000
0.000000 0.909974 0.000000
0.368322 0.893530 0.000000
0.767937 0.871996 0.000000
0.976641 0.850990 0.000000
1.030861 0.834801 0.000000
1.033297 0.819418 0.000000
0.000000 1.015075 0.000000
0.000000 1.012678 0.000000
0.000000 1.009659 0.000000
0.000000 1.006338 0.000000
0.210812 0.998365 0.000000
0.718657 0.986828 0.000000
0.944053 0.974906 0.000000
1.007074 0.965794 0.000000
1.008489 0.958800 0.000000
0.000000 1.017231 0.000000
0.000000 1.017231 0.000000
0.000000 1.017196 0.000000
0.000000 1.016678 0.000000
0.000000 1.014090 0.000000
0.693220 1.008237 0.000000
0.929853 1.002204 0.000000
0.999919 0.999919 0.000000
0.999919 0.999919 0.000000
0.000000 0.000000 0.177060
0.020132 0.000000 0.161647
0.157601 0.000000 0.147237
0.375177 0.000000 0.125356
0.663360 0.000000 0.047387
0.931058 0.000000 0.000000
1.071628 0.000000 0.000000
1.088126 0.000000 0.000000
1.088126 0.000000 0.000000
0.000000 0.033913 0.166074
0.009383 0.027210 0.151614
0.147097 0.000000 0.137367
0.360638 0.000000 0.114549
0.648176 0.000000 0.000000
0.919068 0.000000 0.000000
1.067680 0.000000 0.000000
1.088126 0.000000 0.000000
1.088126 0.000000 0.000000
0.000000 0.148412 0.151682
0.000000 0.134420 0.137784
0.125816 0.119831 0.124105
0.342788 0.082480 0.101863
0.632365 0.000000 0.000000
0.907122 0.000000 0.000000
1.063552 0.000000 0.000000
1.087998 0.000000 0.000000
1.088033 0.000000 0.000000
0.000000 0.318026 0.110661
0.000000 0.299153 0.097312
0.000000 0.279942 0.081925
0.314321 0.258727 0.046810
0.611495 0.213940 0.000000
0.893725 0.094046 0.000000
1.056527 0.000000 0.000000
1.086457 0.000000 0.000000
1.086730 0.000000 0.000000
0.000000 0.551992 0.000000
0.000000 0.531290 0.000000
0.000000 0.509563 0.000000
0.211933 0.489170 0.000000
0.571353 0.458150 0.000000
0.867608 0.417342 0.000000
1.041957 0.372918 0.000000
1.078544 0.343811 0.000000
1.079559 0.319280 0.000000
0.000000 0.782832 0.000000
0.000000 0.764921 0.000000
0.000000 0.747819 0.000000
0.000000 0.731113 0.000000
0.490182 0.706779 0.000000
0.822932 0.676470 0.000000
1.013372 0.647354 0.000000
1.058362 0.624704 0.000000
1.060363 0.604846 0.000000
0.000000 0.943768 0.000000
0.000000 0.932545 0.000000
0.000000 0.921722 0.000000
0.000000 0.909974 0.000000
0.368322 0.893530 0.000000
0.767937 0.871996 0.000000
0.976641 0.850990 0.000000
1.030861 0.834801 0.000000
1.033297 0.819418 0.000000
0.000000 1.015075 0.000000
0.000000 1.012678 0.000000
0.000000 1.009659 0.000000
0.000000 1.006338 0.000000
0.210812 0.998365 0.000000
0.718657 0.986828 0.000000
0.944053 0.974906 0.000000
1.007074 0.965794 0.000000
1.008489 0.958800 0.000000
0.000000 1.017231 0.000000
0.000000 1.017231 0.000000
0.000000 1.017196 0.000000
0.000000 1.016678 0.000000
0.000000 1.014090 0.000000
0.693220 1.008237 0.000000
0.929853 1.002204 0.000000
0.999919 0.999919 0.000000
0.999919 0.999919 0.000000
0.000000 0.000000 0.336980
0.020132 0.000000 0.317634
0.157601 0.000000 0.299432
0.375177 0.000000 0.278754
0.663360 0.000000 0.248920
0.931058 0.000000 0.201901
1.071628 0.000000 0.152144
1.088126 0.000000 0.114745
1.088126 0.000000 0.058846
0.000000 0.033913 0.323534
0.009383 0.027210 0.304266
0.147097 0.000000 0.284934
0.360638 0.000000 0.266165
0.648176 0.000000 0.236020
0.919068 0.000000 0.187398
1.067680 0.000000 0.127659
1.088126 0.000000 0.075761
1.088126 0.000000 0.000000
0.000000 0.148412 0.307059
0.000000 0.134420 0.289563
0.125816 0.119831 0.271048
0.342788 0.082480 0.252562
0.632365 0.000000 0.220972
0.907122 0.000000 0.169543
1.063552 0.000000 0.099341
1.087998 0.000000 0.000000
1.088033 0.000000 0.000000
0.000000 0.318026 0.285596
0.000000 0.299153 0.267587
0.000000 0.279942 0.251056
0.314321 0.258727 0.231399
0.611495 0.213940 0.201100
0.893725 0.094046 0.143571
1.056527 0.000000 0.000000
1.086457 0.000000 0.000000
1.086730 0.000000 0.000000
0.000000 0.551992 0.232026
0.000000 0.531290 0.213024
0.000000 0.509563 0.195640
0.211933 0.489170 0.176141
0.571353 0.458150 0.134182
0.867608 0.417342 0.000000
1.041957 0.372918 0.000000
1.078544 0.343811 0.000000
1.079559 0.319280 0.000000
0.000000 0.782832 0.046820
0.000000 0.764921 0.000000
0.000000 0.747819 0.000000
0.000000 0.731113 0.000000
0.490182 0.706779 0.000000
0.822932 0.676470 0.000000
1.013372 0.647354 0.000000
1.058362 0.624704 0.000000
1.060363 0.604846 0.000000
0.000000 0.943768 0.000000
0.000000 0.932545 0.000000
0.000000 0.921722 0.000000
0.000000 0.909974 0.000000
0.368322 0.893530 0.000000
0.767937 0.871996 0.000000
0.976641 0.850990 0.000000
1.030861 0.834801 0.000000
1.033297 0.819418 0.000000
0.000000 1.015075 0.000000
0.000000 1.012678 0.000000
0.000000 1.009659 0.000000
0.000000 1.006338 0.000000
0.210812 0.998365 0.000000
0.718657 0.986828 0.000000
0.944053 0.974906 0.000000
1.007074 0.965794 0.000000
1.008489 0.958800 0.000000
0.000000 1.017231 0.000000
0.000000 1.017231 0.000000
0.000000 1.017196 0.000000
0.000000 1.016678 0.000000
0.000000 1.014090 0.000000
0.693220 1.008237 0.000000
0.929853 1.002204 0.000000
0.999919 0.999919 0.000000
0.999919 0.999919 0.000000
0.000000 0.000000 0.560952
0.020132 0.000000 0.539661
0.157601 0.000000 0.519175
0.375177 0.000000 0.499151
0.663360 0.000000 0.472291
0.931058 0.000000 0.441022
1.071628 0.000000 0.412789
1.088126 0.000000 0.390718
1.088126 0.000000 0.369486
0.000000 0.033913 0.546279
0.009383 0.027210 0.524425
0.147097 0.000000 0.502326
0.360638 0.000000 0.484256
0.648176 0.000000 0.457760
0.919068 0.000000 0.426193
1.067680 0.000000 0.397325
1.088126 0.000000 0.374812
1.088126 0.000000 0.353450
0.000000 0.148412 0.530418
0.000000 0.134420 0.508595
0.125816 0.119831 0.488405
0.342788 0.082480 0.469264
0.632365 0.000000 0.442887
0.907122 0.000000 0.411141
1.063552 0.000000 0.381535
1.087998 0.000000 0.358576
1.088033 0.000000 0.337375
0.000000 0.318026 0.510883
0.000000 0.299153 0.489407
0.000000 0.279942 0.470081
0.314321 0.258727 0.451263
0.611495 0.213940 0.426823
0.893725 0.094046 0.395000
1.056527 0.000000 0.363066
1.086457 0.000000 0.339909
1.086730 0.000000 0.318754
0.000000 0.551992 0.480357
0.000000 0.531290 0.459480
0.000000 0.509563 0.438963
0.211933 0.489170 0.420465
0.571353 0.458150 0.396347
0.867608 0.417342 0.363588
1.041957 0.372918 0.332089
1.078544 0.343811 0.308169
1.079559 0.319280 0.284729
0.000000 0.782832 0.432136
0.000000 0.764921 0.410428
0.000000 0.747819 0.390325
0.000000 0.731113 0.368787
0.490182 0.706779 0.342748
0.822932 0.676470 0.305745
1.013372 0.647354 0.267878
1.058362 0.624704 0.238396
1.060363 0.604846 0.209607
0.000000 0.943768 0.378791
0.000000 0.932545 0.353025
0.000000 0.921722 0.326418
0.000000 0.909974 0.302358
0.368322 0.893530 0.268669
0.767937 0.871996 0.216096
0.976641 0.850990 0.141881
1.030861 0.834801 0.000000
1.033297 0.819418 0.000000
0.000000 1.015075 0.333315
0.000000 1.012678 0.303449
0.000000 1.009659 0.268730
0.000000 1.006338 0.234234
0.210812 0.998365 0.176895
0.718657 0.986828 0.000000
0.944053 0.974906 0.000000
1.007074 0.965794 0.000000
1.008489 0.958800 0.000000
0.000000 1.017231 0.309477
0.000000 1.017231 0.273947
0.000000 1.017196 0.237031
0.000000 1.016678 0.195372
0.000000 1.014090 0.108291
0.693220 1.008237 0.000000
0.929853 1.002204 0.000000
0.999919 0.999919 0.000000
0.999919 0.999919 0.000000
0.000000 0.000000 0.786202
0.020132 0.000000 0.768815
0.157601 0.000000 0.749898
0.375177 0.000000 0.732533
0.663360 0.000000 0.709758
0.931058 0.000000 0.684474
1.071628 0.000000 0.661180
1.088126 0.000000 0.641197
1.088126 0.000000 0.621445
0.000000 0.033913 0.773146
0.009383 0.027210 0.754342
0.147097 0.000000 0.736446
0.360638 0.000000 0.718924
0.648176 0.000000 0.696228
0.919068 0.000000 0.670314
1.067680 0.000000 0.646733
1.088126 0.000000 0.626458
1.088126 0.000000 0.604736
0.000000 0.148412 0.759660
0.000000 0.134420 0.740730
0.125816 0.119831 0.722473
0.342788 0.082480 0.703563
0.632365 0.000000 0.682068
0.907122 0.000000 0.656003
1.063552 0.000000 0.632162
1.087998 0.000000 0.611320
1.088033 0.000000 0.589615
0.000000 0.318026 0.744093
0.000000 0.299153 0.726245
0.000000 0.279942 0.706733
0.314321 0.258727 0.689390
0.611495 0.213940 0.666254
0.893725 0.094046 0.640266
1.056527 0.000000 0.615917
1.086457 0.000000 0.595024
1.086730 0.000000 0.575092
0.000000 0.551992 0.721725
0.000000 0.531290 0.702602
0.000000 0.509563 0.683364
0.211933 0.489170 0.665888
0.571353 0.458150 0.644767
0.867608 0.417342 0.618620
1.041957 0.372918 0.592392
1.078544 0.343811 0.571539
1.079559 0.319280 0.551579
0.000000 0.782832 0.689772
0.000000 0.764921 0.670524
0.000000 0.747819 0.650380
0.000000 0.731113 0.632814
0.490182 0.706779 0.611512
0.822932 0.676470 0.584694
1.013372 0.647354 0.557638
1.058362 0.624704 0.536056
1.060363 0.604846 0.515972
0.000000 0.943768 0.656180
0.000000 0.932545 0.637002
0.000000 0.921722 0.615686
0.000000 0.909974 0.597289
0.368322 0.893530 0.572562
0.767937 0.871996 0.544071
0.976641 0.850990 0.516639
1.030861 0.834801 0.493072
1.033297 0.819418 0.471698
0.000000 1.015075 0.630929
0.000000 1.012678 0.608025
0.000000 1.009659 0.586817
0.000000 1.006338 0.566167
0.210812 0.998365 0.539388
0.718657 0.986828 0.507917
0.944053 0.974906 0.476900
1.007074 0.965794 0.450045
1.008489 0.958800 0.424718
0.000000 1.017231 0.614507
0.000000 1.017231 0.591078
0.000000 1.017196 0.566939
0.000000 1.016678 0.545510
0.000000 1.014090 0.519382
0.693220 1.008237 0.485783
0.929853 1.002204 0.452145
0.999919 0.999919 0.421696
0.999919 0.999919 0.390189
0.000000 0.000000 0.949658
0.020132 0.000000 0.937081
0.157601 0.000000 0.924751
0.375177 0.000000 0.911885
0.663360 0.000000 0.895932
0.931058 0.000000 0.877209
1.071628 0.000000 0.859938
1.088126 0.000000 0.844182
1.088126 0.000000 0.827520
0.000000 0.033913 0.941155
0.009383 0.027210 0.927892
0.147097 0.000000 0.914565
0.360638 0.000000 0.901608
0.648176 0.000000 0.885725
0.919068 0.000000 0.866761
1.067680 0.000000 0.847206
1.088126 0.000000 0.831364
1.088126 0.000000 0.815237
0.000000 0.148412 0.930601
0.000000 0.134420 0.918435
0.125816 0.119831 0.904275
0.342788 0.082480 0.891154
0.632365 0.000000 0.875379
0.907122 0.000000 0.854094
1.063552 0.000000 0.835677
1.087998 0.000000 0.819336
1.088033 0.000000 0.802694
0.000000 0.318026 0.920545
0.000000 0.299153 0.907176
0.000000 0.279942 0.893599
0.314321 0.258727 0.879518
0.611495 0.213940 0.863135
0.893725 0.094046 0.843006
1.056527 0.000000 0.824614
1.086457 0.000000 0.807411
1.086730 0.000000 0.789493
0.000000 0.551992 0.903965
0.000000 0.531290 0.889622
0.000000 0.509563 0.876425
0.211933 0.489170 0.863364
0.571353 0.458150 0.845514
0.867608 0.417342 0.825631
1.041957 0.372918 0.806290
1.078544 0.343811 0.789223
1.079559 0.319280 0.772800
0.000000 0.782832 0.880590
0.000000 0.764921 0.866341
0.000000 0.747819 0.852827
0.000000 0.731113 0.839040
0.487994 0.706824 0.821408
0.822932 0.676470 0.800782
1.013372 0.647354 0.781094
1.058362 0.624704 0.764055
1.060363 0.604846 0.746878
0.000000 0.943768 0.857782
0.000000 0.932545 0.843048
0.000000 0.921722 0.827968
0.000000 0.909974 0.812541
0.368322 0.893530 0.795364
0.767937 0.871996 0.773673
0.976641 0.850990 0.753371
1.030861 0.834801 0.734815
1.033297 0.819418 0.715764
0.000000 1.015075 0.840269
0.000000 1.012678 0.823464
0.000000 1.009659 0.806168
0.000000 1.006338 0.791060
0.210812 0.998365 0.772096
0.718657 0.986828 0.749227
0.944053 0.974906 0.725430
1.007074 0.965794 0.705342
1.008489 0.958800 0.686703
0.000000 1.017231 0.827059
0.000000 1.017231 0.810829
0.000000 1.017196 0.793190
0.000000 1.016678 0.776757
0.000000 1.014090 0.755734
0.693220 1.008237 0.731723
0.929853 1.002204 0.707858
0.999919 0.999919 0.686500
0.999919 0.999919 0.666045
0.000000 0.000000 1.032306
0.020132 0.000000 1.029013
0.157601 0.000000 1.023905
0.375177 0.000000 1.018752
0.663360 0.000000 1.010824
0.931058 0.000000 1.000124
1.071628 0.000000 0.990821
1.088126 0.000000 0.982060
1.088126 0.000000 0.973128
0.000000 0.033913 1.030017
0.009383 0.027210 1.025234
0.147097 0.000000 1.019721
0.360638 0.000000 1.014452
0.648176 0.000000 1.005713
0.919068 0.000000 0.995033
1.067680 0.000000 0.983922
1.088126 0.000000 0.974616
1.088126 0.000000 0.965688
0.000000 0.148412 1.026605
0.000000 0.134420 1.021219
0.125816 0.119831 1.015767
0.342788 0.082480 1.009119
0.632365 0.000000 1.000480
0.907122 0.000000 0.989375
1.063552 0.000000 0.977226
1.087998 0.000000 0.967866
1.088033 0.000000 0.957750
0.000000 0.318026 1.021193
0.000000 0.299153 1.015998
0.000000 0.279942 1.010021
0.314321 0.258727 1.003382
0.611495 0.213940 0.994368
0.893725 0.094046 0.981982
1.056527 0.000000 0.970623
1.086457 0.000000 0.960672
1.086730 0.000000 0.950048
0.000000 0.551992 1.011557
0.000000 0.531290 1.006480
0.000000 0.509563 0.999472
0.211933 0.489170 0.993169
0.569512 0.458236 0.983896
0.867608 0.417342 0.970877
1.041957 0.372918 0.959400
1.078544 0.343811 0.948401
1.079559 0.319280 0.938044
0.000000 0.782832 0.997107
0.000000 0.764921 0.990925
0.000000 0.747819 0.984057
0.000000 0.731113 0.977014
0.487994 0.706824 0.967421
0.822932 0.676470 0.954688
1.013372 0.647354 0.941759
1.058362 0.624704 0.930907
1.060363 0.604846 0.920255
0.000000 0.943768 0.981672
0.000000 0.932545 0.974629
0.000000 0.921722 0.967483
0.000000 0.909974 0.959520
0.368322 0.893530 0.949012
0.767937 0.871996 0.935483
0.976641 0.850990 0.922302
1.030861 0.834801 0.911027
1.033297 0.819418 0.899170
0.000000 1.015075 0.970812
0.000000 1.012678 0.962934
0.000000 1.009659 0.953117
0.000000 1.006338 0.944543
0.210812 0.998365 0.933485
0.718657 0.986828 0.918636
0.944053 0.974906 0.904713
1.007074 0.965794 0.890318
1.008489 0.958800 0.877814
0.000000 1.017231 0.965162
0.000000 1.017231 0.955610
0.000000 1.017196 0.945545
0.000000 1.016678 0.936455
0.000000 1.014090 0.923911
0.693220 1.008237 0.908613
0.929853 1.002204 0.891898
0.999919 0.999919 0.877481
0.999919 0.999919 0.864299
0.000000 0.000000 1.039747
0.020132 0.000000 1.039746
0.157601 0.000000 1.039672
0.375177 0.000000 1.039145
0.663360 0.000000 1.037381
0.931058 0.000000 1.034399
1.071628 0.000000 1.032241
1.088126 0.000000 1.031874
1.088126 0.000000 1.030931
0.000000 0.033913 1.039738
0.009383 0.027210 1.039741
0.145948 0.000000 1.039681
0.360638 0.000000 1.039198
0.648176 0.000000 1.037508
0.919068 0.000000 1.034563
1.067680 0.000000 1.032308
1.088126 0.000000 1.031103
1.088126 0.000000 1.030075
0.000000 0.148412 1.039441
0.000000 0.134420 1.039505
0.125816 0.119831 1.039503
0.342788 0.082480 1.039101
0.632365 0.000000 1.037516
0.907122 0.000000 1.034632
1.063552 0.000000 1.031708
1.087998 0.000000 1.030285
1.088033 0.000000 1.029270
0.000000 0.318026 1.037840
0.000000 0.299153 1.038100
0.000000 0.279942 1.038291
0.314321 0.258727 1.038062
0.611495 0.213940 1.036692
0.893725 0.094046 1.033707
1.056527 0.000000 1.030424
1.086457 0.000000 1.029017
1.086730 0.000000 1.026727
0.000000 0.551992 1.032559
0.000000 0.531290 1.033192
0.000000 0.509563 1.033776
0.211933 0.489170 1.033906
0.569512 0.458236 1.032978
0.867608 0.417342 1.029458
1.041957 0.372918 1.026402
1.078544 0.343811 1.024153
1.079559 0.319280 1.021448
0.000000 0.782832 1.023015
0.000000 0.764921 1.023929
0.000000 0.747819 1.024738
0.000000 0.731113 1.025149
0.487994 0.706824 1.023764
0.822932 0.676470 1.020641
1.013372 0.647354 1.017081
1.058362 0.624704 1.014028
1.060363 0.604846 1.011654
0.000000 0.943768 1.013368
0.000000 0.932545 1.014128
0.000000 0.921722 1.014819
0.000000 0.909974 1.014706
0.368322 0.893530 1.013043
0.767937 0.871996 1.009759
0.976641 0.850990 1.004736
1.030861 0.834801 1.001562
1.033297 0.819418 0.998425
0.000000 1.015075 1.008219
0.000000 1.012678 1.008401
0.000000 1.009659 1.008164
0.000000 1.006338 1.007119
0.210812 0.998365 1.005152
0.718657 0.986828 0.999797
0.944053 0.974906 0.994244
1.007074 0.965794 0.989798
1.008489 0.958800 0.985004
0.000000 1.017231 1.008054
0.000000 1.017231 1.007877
0.000000 1.017196 1.006799
0.000000 1.016678 1.005580
0.000000 1.014090 1.002230
0.693220 1.008237 0.995729
0.929853 1.002204 0.989659
0.999919 0.999919 0.983250
0.999919 0.999919 0.977925
