transforms/MG02_golden_lush_d65_r709.cube
#  MG_02_D65_r709.cube
LUT_3D_SIZE 33
0.000000 0.000000 0.000000
0.000000 0.000000 0.000773
0.000167 0.000000 0.001473
0.002205 0.000000 0.002091
0.009501 0.000000 0.002207
0.025762 0.000000 0.000000
0.054083 0.000000 0.000000
0.097943 0.000000 0.000000
0.157601 0.000000 0.000000
0.205655 0.000000 0.000000
0.257429 0.000000 0.000000
0.313812 0.000000 0.000000
0.375177 0.000000 0.000000
0.442556 0.000000 0.000000
0.513569 0.000000 0.000000
0.590463 0.000000 0.000000
0.663360 0.000000 0.000000
0.737466 0.000000 0.000000
0.809135 0.000000 0.000000
0.874450 0.000000 0.000000
0.931058 0.000000 0.000000
0.979615 0.000000 0.000000
1.019556 0.000000 0.000000
1.050096 0.000000 0.000000
1.071628 0.000000 0.000000
1.084847 0.000000 0.000000
1.088126 0.000000 0.000000
1.088126 0.000000 0.000000
1.088126 0.000000 0.000000
1.088126 0.000000 0.000000
1.088126 0.000000 0.000000
1.088126 0.000000 0.000000
1.088126 0.000000 0.000000
0.000000 0.000135 0.000803
0.000000 0.000119 0.000713
0.000086 0.000208 0.001396
0.002019 0.000000 0.001916
0.009079 0.000000 0.001948
0.025038 0.000000 0.000000
0.052425 0.000000 0.000000
0.095298 0.000000 0.000000
0.155294 0.000000 0.000000
0.203102 0.000000 0.000000
0.254655 0.000000 0.000000
0.309175 0.000000 0.000000
0.371947 0.000000 0.000000
0.439220 0.000000 0.000000
0.510161 0.000000 0.000000
0.585347 0.000000 0.000000
0.659984 0.000000 0.000000
0.734294 0.000000 0.000000
0.804589 0.000000 0.000000
0.870169 0.000000 0.000000
0.927460 0.000000 0.000000
0.977479 0.000000 0.000000
1.017862 0.000000 0.000000
1.048274 0.000000 0.000000
1.070751 0.000000 0.000000
1.084051 0.000000 0.000000
1.088126 0.000000 0.000000
1.088126 0.000000 0.000000
1.088126 0.000000 0.000000
1.088126 0.000000 0.000000
1.088126 0.000000 0.000000
1.088126 0.000000 0.000000
1.088126 0.000000 0.000000
0.000000 0.001478 0.001531
0.000000 0.001366 0.001354
0.000000 0.001254 0.001243
0.001756 0.001686 0.001748
0.008632 0.000000 0.001709
0.023947 0.000000 0.000000
0.051318 0.000000 0.000000
0.093536 0.000000 0.000000
0.151836 0.000000 0.000000
0.200551 0.000000 0.000000
0.250497 0.000000 0.000000
0.306087 0.000000 0.000000
0.367106 0.000000 0.000000
0.434219 0.000000 0.000000
0.506756 0.000000 0.000000
0.580234 0.000000 0.000000
0.654924 0.000000 0.000000
0.729539 0.000000 0.000000
0.801560 0.000000 0.000000
0.867314 0.000000 0.000000
0.925063 0.000000 0.000000
0.974276 0.000000 0.000000
1.015089 0.000000 0.000000
1.047060 0.000000 0.000000
1.069873 0.000000 0.000000
1.083521 0.000000 0.000000
1.088126 0.000000 0.000000
1.088126 0.000000 0.000000
1.088126 0.000000 0.000000
1.088126 0.000000 0.000000
1.088126 0.000000 0.000000
1.088126 0.000000 0.000000
1.088126 0.000000 0.000000
0.000000 0.006071 0.001040
0.000000 0.005640 0.000909
0.000000 0.005291 0.000677
0.000000 0.004875 0.000392
0.007620 0.006082 0.000000
0.023100 0.005424 0.000000
0.050159 0.000000 0.000000
0.091747 0.000000 0.000000
0.149517 0.000000 0.000000
0.196719 0.000000 0.000000
0.247723 0.000000 0.000000
0.303058 0.000000 0.000000
0.363880 0.000000 0.000000
0.430887 0.000000 0.000000
0.501650 0.000000 0.000000
0.576827 0.000000 0.000000
0.651551 0.000000 0.000000
0.726239 0.000000 0.000000
0.798532 0.000000 0.000000
0.864461 0.000000 0.000000
0.922665 0.000000 0.000000
0.972140 0.000000 0.000000
1.013240 0.000000 0.000000
1.045846 0.000000 0.000000
1.068557 0.000000 0.000000
1.082991 0.000000 0.000000
1.088126 0.000000 0.000000
1.088126 0.000000 0.000000
1.088126 0.000000 0.000000
1.088126 0.000000 0.000000
1.088126 0.000000 0.000000
1.088126 0.000000 0.000000
1.088126 0.000000 0.000000
0.000000 0.016005 0.000000
0.000000 0.015219 0.000000
0.000000 0.014436 0.000000
0.000000 0.013505 0.000000
0.004427 0.012842 0.000000
0.021650 0.015096 0.000000
0.048161 0.014989 0.000000
0.088918 0.000000 0.000000
0.147097 0.000000 0.000000
0.194101 0.000000 0.000000
0.243528 0.000000 0.000000
0.298587 0.000000 0.000000
0.360638 0.000000 0.000000
0.427545 0.000000 0.000000
0.498240 0.000000 0.000000
0.573415 0.000000 0.000000
0.648176 0.000000 0.000000
0.722936 0.000000 0.000000
0.793988 0.000000 0.000000
0.860180 0.000000 0.000000
0.919068 0.000000 0.000000
0.970004 0.000000 0.000000
1.011391 0.000000 0.000000
1.044023 0.000000 0.000000
1.067680 0.000000 0.000000
1.082460 0.000000 0.000000
1.088037 0.000000 0.000000
1.088126 0.000000 0.000000
1.088126 0.000000 0.000000
1.088126 0.000000 0.000000
1.088126 0.000000 0.000000
1.088126 0.000000 0.000000
1.088126 0.000000 0.000000
0.000000 0.033495 0.000000
0.000000 0.032244 0.000000
0.000000 0.030582 0.000000
0.000000 0.029340 0.000000
0.000000 0.028142 0.000000
0.017571 0.026923 0.000000
0.045799 0.030604 0.000000
0.086646 0.031381 0.000000
0.143192 0.022968 0.000000
0.191278 0.000000 0.000000
0.240580 0.000000 0.000000
0.295504 0.000000 0.000000
0.355721 0.000000 0.000000
0.422493 0.000000 0.000000
0.493097 0.000000 0.000000
0.568279 0.000000 0.000000
0.643098 0.000000 0.000000
0.717971 0.000000 0.000000
0.790947 0.000000 0.000000
0.857318 0.000000 0.000000
0.916662 0.000000 0.000000
0.966796 0.000000 0.000000
1.008613 0.000000 0.000000
1.042641 0.000000 0.000000
1.066797 0.000000 0.000000
1.081661 0.000000 0.000000
1.087856 0.000000 0.000000
1.088123 0.000000 0.000000
1.088124 0.000000 0.000000
1.088124 0.000000 0.000000
1.088125 0.000000 0.000000
1.088125 0.000000 0.000000
1.088125 0.000000 0.000000
0.000000 0.060740 0.000000
0.000000 0.058917 0.000000
0.000000 0.056496 0.000000
0.000000 0.054684 0.000000
0.000000 0.052862 0.000000
0.000000 0.050942 0.000000
0.040431 0.048932 0.000000
0.083131 0.054427 0.000000
0.139633 0.056696 0.000000
0.186679 0.045769 0.000000
0.237296 0.014098 0.000000
0.290705 0.000000 0.000000
0.352291 0.000000 0.000000
0.418981 0.000000 0.000000
0.489562 0.000000 0.000000
0.564630 0.000000 0.000000
0.639652 0.000000 0.000000
0.714611 0.000000 0.000000
0.787873 0.000000 0.000000
0.854426 0.000000 0.000000
0.913986 0.000000 0.000000
0.964633 0.000000 0.000000
1.006741 0.000000 0.000000
1.041080 0.000000 0.000000
1.065465 0.000000 0.000000
1.081115 0.000000 0.000000
1.087577 0.000000 0.000000
1.088111 0.000000 0.000000
1.088112 0.000000 0.000000
1.088114 0.000000 0.000000
1.088115 0.000000 0.000000
1.088117 0.000000 0.000000
1.088118 0.000000 0.000000
0.000000 0.099010 0.000000
0.000000 0.095695 0.000000
0.000000 0.093214 0.000000
0.000000 0.090737 0.000000
0.000000 0.088254 0.000000
0.000000 0.085711 0.000000
0.034414 0.082939 0.000000
0.076442 0.079157 0.000000
0.134665 0.086697 0.000000
0.182417 0.080863 0.000000
0.233385 0.070624 0.000000
0.286939 0.053027 0.000000
0.348589 0.000000 0.000000
0.415230 0.000000 0.000000
0.485845 0.000000 0.000000
0.560841 0.000000 0.000000
0.636095 0.000000 0.000000
0.711164 0.000000 0.000000
0.783214 0.000000 0.000000
0.850051 0.000000 0.000000
0.911257 0.000000 0.000000
0.962426 0.000000 0.000000
1.004830 0.000000 0.000000
1.038712 0.000000 0.000000
1.064537 0.000000 0.000000
1.080541 0.000000 0.000000
1.087359 0.000000 0.000000
1.088074 0.000000 0.000000
1.088079 0.000000 0.000000
1.088083 0.000000 0.000000
1.088087 0.000000 0.000000
1.088091 0.000000 0.000000
1.088094 0.000000 0.000000
0.000000 0.148412 0.000000
0.000000 0.145176 0.000000
0.000000 0.141944 0.000000
0.000000 0.138719 0.000000
0.000000 0.134420 0.000000
0.000000 0.131151 0.000000
0.000000 0.127717 0.000000
0.075816 0.124080 0.000000
0.125816 0.119831 0.000000
0.176731 0.114331 0.000000
0.227117 0.107195 0.000000
0.282503 0.096974 0.000000
0.342788 0.082480 0.000000
0.409420 0.051199 0.000000
0.481828 0.000000 0.000000
0.556836 0.000000 0.000000
0.632365 0.000000 0.000000
0.707576 0.000000 0.000000
0.779945 0.000000 0.000000
0.847001 0.000000 0.000000
0.907122 0.000000 0.000000
0.959076 0.000000 0.000000
1.002850 0.000000 0.000000
1.037054 0.000000 0.000000
1.063552 0.000000 0.000000
1.079910 0.000000 0.000000
1.087090 0.000000 0.000000
1.087988 0.000000 0.000000
1.087998 0.000000 0.000000
1.088008 0.000000 0.000000
1.088017 0.000000 0.000000
1.088025 0.000000 0.000000
1.088033 0.000000 0.000000
0.000000 0.185102 0.000000
0.000000 0.181532 0.000000
0.000000 0.176782 0.000000
0.000000 0.173226 0.000000
0.000000 0.169670 0.000000
0.000000 0.166087 0.000000
0.000000 0.162393 0.000000
0.050657 0.157517 0.000000
0.116037 0.153304 0.000000
0.168839 0.149436 0.000000
0.220813 0.143404 0.000000
0.277076 0.135565 0.000000
0.337848 0.126187 0.000000
0.404801 0.109143 0.000000
0.477451 0.082733 0.000000
0.552513 0.000000 0.000000
0.628377 0.000000 0.000000
0.702128 0.000000 0.000000
0.776355 0.000000 0.000000
0.843802 0.000000 0.000000
0.904178 0.000000 0.000000
0.956678 0.000000 0.000000
1.000767 0.000000 0.000000
1.035298 0.000000 0.000000
1.062479 0.000000 0.000000
1.078934 0.000000 0.000000
1.086742 0.000000 0.000000
1.087828 0.000000 0.000000
1.087847 0.000000 0.000000
1.087865 0.000000 0.000000
1.087882 0.000000 0.000000
1.087898 0.000000 0.000000
1.087913 0.000000 0.000000
0.000000 0.223837 0.000000
0.000000 0.219970 0.000000
0.000000 0.216107 0.000000
0.000000 0.212249 0.000000
0.000000 0.207111 0.000000
0.000000 0.203240 0.000000
0.000000 0.199292 0.000000
0.000000 0.195390 0.000000
0.095645 0.191143 0.000000
0.157701 0.186318 0.000000
0.212521 0.180770 0.000000
0.270156 0.175264 0.000000
0.331934 0.166748 0.000000
0.399387 0.155401 0.000000
0.472444 0.139516 0.000000
0.545931 0.116884 0.000000
0.624047 0.072461 0.000000
0.698042 0.000000 0.000000
0.772493 0.000000 0.000000
0.840378 0.000000 0.000000
0.901055 0.000000 0.000000
0.954120 0.000000 0.000000
0.998538 0.000000 0.000000
1.033411 0.000000 0.000000
1.060944 0.000000 0.000000
1.078106 0.000000 0.000000
1.086285 0.000000 0.000000
1.087562 0.000000 0.000000
1.087592 0.000000 0.000000
1.087622 0.000000 0.000000
1.087650 0.000000 0.000000
1.087677 0.000000 0.000000
1.087704 0.000000 0.000000
0.000000 0.268117 0.000000
0.000000 0.263984 0.000000
0.000000 0.259856 0.000000
0.000000 0.255731 0.000000
0.000000 0.250239 0.000000
0.000000 0.246110 0.000000
0.000000 0.241924 0.000000
0.000000 0.237736 0.000000
0.051062 0.233365 0.000000
0.139995 0.228577 0.000000
0.200560 0.223268 0.000000
0.260908 0.218429 0.000000
0.324308 0.211049 0.000000
0.392796 0.201812 0.000000
0.466518 0.189864 0.000000
0.540400 0.174670 0.000000
0.617390 0.152107 0.000000
0.693464 0.122288 0.000000
0.768233 0.068321 0.000000
0.836643 0.000000 0.000000
0.897622 0.000000 0.000000
0.951013 0.000000 0.000000
0.995132 0.000000 0.000000
1.031291 0.000000 0.000000
1.059191 0.000000 0.000000
1.077072 0.000000 0.000000
1.085628 0.000000 0.000000
1.087104 0.000000 0.000000
1.087154 0.000000 0.000000
1.087201 0.000000 0.000000
1.087246 0.000000 0.000000
1.087291 0.000000 0.000000
1.087333 0.000000 0.000000
0.000000 0.318026 0.000000
0.000000 0.313664 0.000000
0.000000 0.307854 0.000000
0.000000 0.303502 0.000000
0.000000 0.299153 0.000000
0.000000 0.294798 0.000000
0.000000 0.290404 0.000000
0.000000 0.284458 0.000000
0.000000 0.279942 0.000000
0.105726 0.276529 0.000000
0.182376 0.271300 0.000000
0.248192 0.265459 0.000000
0.314321 0.258727 0.000000
0.384497 0.250678 0.000000
0.457560 0.240935 0.000000
0.533857 0.228892 0.000000
0.611495 0.213940 0.000000
0.688147 0.195370 0.000000
0.763417 0.169557 0.000000
0.832363 0.138886 0.000000
0.893725 0.094046 0.000000
0.947488 0.000000 0.000000
0.992270 0.000000 0.000000
1.028818 0.000000 0.000000
1.056527 0.000000 0.000000
1.075752 0.000000 0.000000
1.084609 0.000000 0.000000
1.086378 0.000000 0.000000
1.086457 0.000000 0.000000
1.086528 0.000000 0.000000
1.086597 0.000000 0.000000
1.086665 0.000000 0.000000
1.086730 0.000000 0.000000
0.000000 0.371926 0.000000
0.000000 0.365861 0.000000
0.000000 0.361317 0.000000
0.000000 0.356778 0.000000
0.000000 0.352243 0.000000
0.000000 0.347702 0.000000
0.000000 0.341628 0.000000
0.000000 0.336983 0.000000
0.000000 0.332187 0.000000
0.000000 0.327265 0.000000
0.153320 0.323531 0.000000
0.227883 0.317908 0.000000
0.300640 0.311538 0.000000
0.373594 0.304232 0.000000
0.448380 0.295711 0.000000
0.525801 0.285596 0.000000
0.604447 0.273569 0.000000
0.681978 0.257691 0.000000
0.756152 0.241131 0.000000
0.825963 0.221943 0.000000
0.889224 0.200289 0.000000
0.943420 0.176104 0.000000
0.988959 0.145318 0.000000
1.025153 0.111629 0.000000
1.054018 0.059429 0.000000
1.074000 0.000000 0.000000
1.083260 0.000000 0.000000
1.085245 0.000000 0.000000
1.085358 0.000000 0.000000
1.085468 0.000000 0.000000
1.085571 0.000000 0.000000
1.085670 0.000000 0.000000
1.085767 0.000000 0.000000
0.000000 0.427779 0.000000
0.000000 0.423089 0.000000
0.000000 0.418404 0.000000
0.000000 0.413722 0.000000
0.000000 0.409044 0.000000
0.000000 0.402807 0.000000
0.000000 0.398107 0.000000
0.000000 0.393347 0.000000
0.000000 0.388475 0.000000
0.000000 0.383424 0.000000
0.091561 0.379708 0.000000
0.200116 0.374125 0.000000
0.279965 0.368058 0.000000
0.357471 0.361248 0.000000
0.436730 0.353442 0.000000
0.513995 0.344635 0.000000
0.594126 0.334359 0.000000
0.672828 0.320960 0.000000
0.749450 0.307578 0.000000
0.820091 0.292905 0.000000
0.882681 0.275372 0.000000
0.937502 0.258995 0.000000
0.984036 0.242236 0.000000
1.021626 0.225558 0.000000
1.050940 0.209246 0.000000
1.071088 0.194177 0.000000
1.081386 0.181441 0.000000
1.083596 0.171213 0.000000
1.083752 0.161291 0.000000
1.083903 0.150671 0.000000
1.084052 0.139156 0.000000
1.084197 0.126429 0.000000
1.084334 0.112576 0.000000
0.000000 0.488335 0.000000
0.000000 0.481753 0.000000
0.000000 0.476923 0.000000
0.000000 0.472148 0.000000
0.000000 0.467376 0.000000
0.000000 0.462603 0.000000
0.000000 0.457815 0.000000
0.000000 0.452979 0.000000
0.000000 0.448055 0.000000
0.000000 0.442999 0.000000
0.000000 0.437746 0.000000
0.152579 0.432233 0.000000
0.253321 0.427855 0.000000
0.338423 0.421356 0.000000
0.419989 0.414158 0.000000
0.501833 0.404445 0.000000
0.583854 0.395264 0.000000
0.663801 0.385021 0.000000
0.741452 0.373645 0.000000
0.813027 0.359679 0.000000
0.876413 0.346939 0.000000
0.931843 0.333917 0.000000
0.979078 0.320892 0.000000
1.017337 0.308375 0.000000
1.046529 0.296704 0.000000
1.067755 0.285974 0.000000
1.078754 0.277022 0.000000
1.081292 0.269787 0.000000
1.081499 0.262979 0.000000
1.081701 0.256050 0.000000
1.081900 0.248987 0.000000
1.082095 0.241776 0.000000
1.082286 0.234398 0.000000
0.000000 0.551992 0.000000
0.000000 0.545616 0.000000
0.000000 0.540838 0.000000
0.000000 0.534470 0.000000
0.000000 0.531290 0.000000
0.000000 0.524659 0.000000
0.000000 0.519675 0.000000
0.000000 0.514654 0.000000
0.000000 0.509563 0.000000
0.000000 0.504357 0.000000
0.000000 0.500665 0.000000
0.000000 0.495083 0.000000
0.211933 0.489170 0.000000
0.311264 0.482783 0.000000
0.401278 0.475769 0.000000
0.484466 0.468255 0.000000
0.571353 0.458150 0.000000
0.651379 0.449026 0.000000
0.730416 0.438962 0.000000
0.802960 0.428317 0.000000
0.867608 0.417342 0.000000
0.924009 0.404467 0.000000
0.973091 0.393345 0.000000
1.011450 0.382862 0.000000
1.041957 0.372918 0.000000
1.063235 0.363969 0.000000
1.075494 0.356188 0.000000
1.078279 0.349819 0.000000
1.078544 0.343811 0.000000
1.078804 0.337758 0.000000
1.079060 0.331654 0.000000
1.079312 0.325495 0.000000
1.079559 0.319280 0.000000
0.000000 0.612253 0.000000
0.000000 0.607526 0.000000
0.000000 0.602800 0.000000
0.000000 0.598078 0.000000
0.000000 0.593358 0.000000
0.000000 0.587068 0.000000
0.000000 0.582339 0.000000
0.000000 0.577491 0.000000
0.000000 0.572581 0.000000
0.000000 0.567584 0.000000
0.000000 0.562457 0.000000
0.000000 0.558760 0.000000
0.142822 0.553158 0.000000
0.276147 0.547181 0.000000
0.374684 0.540733 0.000000
0.465235 0.533712 0.000000
0.553966 0.524354 0.000000
0.637902 0.517615 0.000000
0.717392 0.506712 0.000000
0.792927 0.496904 0.000000
0.859005 0.485159 0.000000
0.915974 0.476974 0.000000
0.964866 0.465302 0.000000
1.005283 0.455756 0.000000
1.035644 0.448768 0.000000
1.058212 0.438640 0.000000
1.071237 0.431351 0.000000
1.074268 0.427138 0.000000
1.074709 0.419613 0.000000
1.075034 0.413944 0.000000
1.075354 0.408250 0.000000
1.075668 0.402531 0.000000
1.075979 0.396785 0.000000
0.000000 0.672755 0.000000
0.000000 0.668131 0.000000
0.000000 0.663511 0.000000
0.000000 0.658894 0.000000
0.000000 0.654277 0.000000
0.000000 0.648125 0.000000
0.000000 0.643504 0.000000
0.000000 0.638859 0.000000
0.000000 0.634166 0.000000
0.000000 0.629299 0.000000
0.000000 0.625871 0.000000
0.000000 0.620699 0.000000
0.000000 0.615299 0.000000
0.224133 0.609569 0.000000
0.341884 0.603443 0.000000
0.440311 0.596839 0.000000
0.533627 0.589640 0.000000
0.621231 0.580290 0.000000
0.704452 0.571980 0.000000
0.779915 0.563332 0.000000
0.847647 0.552692 0.000000
0.905865 0.543761 0.000000
0.955549 0.534972 0.000000
0.997301 0.526427 0.000000
1.029205 0.518429 0.000000
1.051758 0.511084 0.000000
1.065731 0.504439 0.000000
1.069494 0.498739 0.000000
1.069890 0.493360 0.000000
1.070281 0.487969 0.000000
1.070677 0.482412 0.000000
1.071073 0.476766 0.000000
1.071463 0.471106 0.000000
0.000000 0.730948 0.000000
0.000000 0.726557 0.000000
0.000000 0.720604 0.000000
0.000000 0.716143 0.000000
0.000000 0.711683 0.000000
0.000000 0.707223 0.000000
0.000000 0.702758 0.000000
0.000000 0.696789 0.000000
0.000000 0.692263 0.000000
0.000000 0.689156 0.000000
0.000000 0.684471 0.000000
0.000000 0.679602 0.000000
0.000000 0.674391 0.000000
0.142154 0.668903 0.000000
0.303701 0.663075 0.000000
0.413691 0.656835 0.000000
0.513079 0.650080 0.000000
0.603977 0.642870 0.000000
0.688414 0.633663 0.000000
0.767393 0.625615 0.000000
0.836483 0.617466 0.000000
0.895787 0.609369 0.000000
0.946383 0.601262 0.000000
0.989259 0.591671 0.000000
1.021371 0.584282 0.000000
1.045144 0.577372 0.000000
1.059368 0.571126 0.000000
1.064039 0.565620 0.000000
1.064496 0.560453 0.000000
1.064948 0.555280 0.000000
1.065394 0.550099 0.000000
1.065835 0.544912 0.000000
1.066276 0.539649 0.000000
0.000000 0.782832 0.000000
0.000000 0.778842 0.000000
0.000000 0.774853 0.000000
0.000000 0.769177 0.000000
0.000000 0.764921 0.000000
0.000000 0.760667 0.000000
0.000000 0.756407 0.000000
0.000000 0.752130 0.000000
0.000000 0.747819 0.000000
0.000000 0.743447 0.000000
0.000000 0.739002 0.000000
0.000000 0.734435 0.000000
0.000000 0.731113 0.000000
0.000000 0.726050 0.000000
0.253176 0.720504 0.000000
0.382957 0.713120 0.000000
0.490182 0.706779 0.000000
0.583440 0.700092 0.000000
0.672544 0.692933 0.000000
0.752234 0.684013 0.000000
0.822932 0.676470 0.000000
0.883903 0.668959 0.000000
0.936717 0.661526 0.000000
0.979246 0.654345 0.000000
1.013372 0.647354 0.000000
1.037312 0.640892 0.000000
1.052532 0.634947 0.000000
1.057847 0.629659 0.000000
1.058362 0.624704 0.000000
1.058870 0.619746 0.000000
1.059373 0.614782 0.000000
1.059871 0.609816 0.000000
1.060363 0.604846 0.000000
0.000000 0.831030 0.000000
0.000000 0.826099 0.000000
0.000000 0.822403 0.000000
0.000000 0.818709 0.000000
0.000000 0.814808 0.000000
0.000000 0.810804 0.000000
0.000000 0.805463 0.000000
0.000000 0.801441 0.000000
0.000000 0.797387 0.000000
0.000000 0.793284 0.000000
0.000000 0.790440 0.000000
0.000000 0.786157 0.000000
0.000000 0.781722 0.000000
0.000000 0.777064 0.000000
0.176414 0.772136 0.000000
0.343650 0.766614 0.000000
0.462128 0.760688 0.000000
0.563480 0.752969 0.000000
0.656036 0.746297 0.000000
0.737661 0.739425 0.000000
0.810015 0.732430 0.000000
0.872758 0.723990 0.000000
0.925447 0.717151 0.000000
0.969946 0.710486 0.000000
1.004469 0.704183 0.000000
1.029679 0.698060 0.000000
1.045443 0.692432 0.000000
1.051402 0.687378 0.000000
1.051962 0.682653 0.000000
1.052516 0.677925 0.000000
1.053065 0.673196 0.000000
1.053608 0.668463 0.000000
1.054145 0.663730 0.000000
0.000000 0.873761 0.000000
0.000000 0.869276 0.000000
0.000000 0.865912 0.000000
0.000000 0.862550 0.000000
0.000000 0.859189 0.000000
0.000000 0.855712 0.000000
0.000000 0.850765 0.000000
0.000000 0.847039 0.000000
0.000000 0.843286 0.000000
0.000000 0.839489 0.000000
0.000000 0.836857 0.000000
0.000000 0.832906 0.000000
0.000000 0.828799 0.000000
0.000000 0.824497 0.000000
0.000000 0.819950 0.000000
0.300570 0.815112 0.000000
0.434094 0.809698 0.000000
0.541984 0.802509 0.000000
0.636514 0.796363 0.000000
0.720854 0.789993 0.000000
0.795404 0.782148 0.000000
0.861065 0.775616 0.000000
0.914816 0.769281 0.000000
0.959205 0.763153 0.000000
0.995806 0.757245 0.000000
1.021623 0.751780 0.000000
1.037643 0.746590 0.000000
1.044342 0.741792 0.000000
1.045125 0.737315 0.000000
1.045714 0.732849 0.000000
1.046298 0.728380 0.000000
1.046876 0.723910 0.000000
1.047449 0.719440 0.000000
0.000000 0.910798 0.000000
0.000000 0.907805 0.000000
0.000000 0.904812 0.000000
0.000000 0.901818 0.000000
0.000000 0.897830 0.000000
0.000000 0.894838 0.000000
0.000000 0.891716 0.000000
0.000000 0.888327 0.000000
0.000000 0.884915 0.000000
0.000000 0.881459 0.000000
0.000000 0.877949 0.000000
0.000000 0.875470 0.000000
0.000000 0.871742 0.000000
0.000000 0.867832 0.000000
0.000000 0.863672 0.000000
0.247277 0.859262 0.000000
0.401442 0.853418 0.000000
0.516946 0.848146 0.000000
0.618036 0.842436 0.000000
0.705258 0.836553 0.000000
0.781705 0.829317 0.000000
0.847723 0.823333 0.000000
0.902737 0.817491 0.000000
0.949195 0.811796 0.000000
0.986736 0.806340 0.000000
1.012899 0.801313 0.000000
1.029903 0.796674 0.000000
1.037123 0.792390 0.000000
1.038023 0.788202 0.000000
1.038633 0.784029 0.000000
1.039238 0.779854 0.000000
1.039839 0.775679 0.000000
1.040434 0.771504 0.000000
0.000000 0.943768 0.000000
0.000000 0.941177 0.000000
0.000000 0.938588 0.000000
0.000000 0.935134 0.000000
0.000000 0.932545 0.000000
0.000000 0.929956 0.000000
0.000000 0.927363 0.000000
0.000000 0.924759 0.000000
0.000000 0.921722 0.000000
0.000000 0.918645 0.000000
0.000000 0.915516 0.000000
0.000000 0.912304 0.000000
0.000000 0.909974 0.000000
0.000000 0.906475 0.000000
0.000000 0.902765 0.000000
0.175215 0.897779 0.000000
0.368322 0.893530 0.000000
0.493398 0.888981 0.000000
0.599232 0.884008 0.000000
0.689873 0.877476 0.000000
0.767937 0.871996 0.000000
0.835532 0.866512 0.000000
0.891803 0.861157 0.000000
0.939177 0.855945 0.000000
0.976641 0.850990 0.000000
1.004637 0.846347 0.000000
1.022176 0.842115 0.000000
1.029725 0.838314 0.000000
1.030861 0.834801 0.000000
1.031477 0.830956 0.000000
1.032088 0.827111 0.000000
1.032695 0.823264 0.000000
1.033297 0.819418 0.000000
0.000000 0.971114 0.000000
0.000000 0.968954 0.000000
0.000000 0.966075 0.000000
0.000000 0.963917 0.000000
0.000000 0.961758 0.000000
0.000000 0.959599 0.000000
0.000000 0.957438 0.000000
0.000000 0.955265 0.000000
0.000000 0.953072 0.000000
0.000000 0.950553 0.000000
0.000000 0.947836 0.000000
0.000000 0.945049 0.000000
0.000000 0.942139 0.000000
0.000000 0.939075 0.000000
0.000000 0.935814 0.000000
0.000000 0.932318 0.000000
0.332660 0.928529 0.000000
0.469807 0.924478 0.000000
0.578913 0.919319 0.000000
0.672532 0.914698 0.000000
0.754463 0.909680 0.000000
0.823493 0.904701 0.000000
0.881152 0.899835 0.000000
0.928394 0.895148 0.000000
0.967627 0.890629 0.000000
0.996616 0.886424 0.000000
1.014388 0.882630 0.000000
1.022653 0.879215 0.000000
1.023964 0.876092 0.000000
1.024676 0.871971 0.000000
1.025274 0.868487 0.000000
1.025869 0.865003 0.000000
1.026459 0.861519 0.000000
0.000000 0.992471 0.000000
0.000000 0.990766 0.000000
0.000000 0.988494 0.000000
0.000000 0.986789 0.000000
0.000000 0.985085 0.000000
0.000000 0.983382 0.000000
0.000000 0.981675 0.000000
0.000000 0.979391 0.000000
0.000000 0.977654 0.000000
0.000000 0.976452 0.000000
0.000000 0.974484 0.000000
0.000000 0.972136 0.000000
0.000000 0.969685 0.000000
0.000000 0.967083 0.000000
0.000000 0.964279 0.000000
0.000000 0.961264 0.000000
0.295039 0.957971 0.000000
0.444043 0.954458 0.000000
0.561221 0.949931 0.000000
0.657941 0.945974 0.000000
0.739958 0.941953 0.000000
0.810543 0.937484 0.000000
0.871311 0.932186 0.000000
0.919379 0.927991 0.000000
0.959316 0.923955 0.000000
0.988784 0.920223 0.000000
1.007535 0.916855 0.000000
1.016212 0.913865 0.000000
1.017681 0.911159 0.000000
