transforms/MG02_golden_lush_d65_r709.cube
#  MG_02_D65_r709.cube
LUT_3D_SIZE 5
0.000000 0.000000 0.000000
0.157601 0.000000 0.000000
0.663360 0.000000 0.000000
1.071628 0.000000 0.000000
1.088126 0.000000 0.000000
0.000000 0.148412 0.000000
0.125816 0.119831 0.000000
0.632365 0.000000 0.000000
1.063552 0.000000 0.000000
1.088033 0.000000 0.000000
0.000000 0.551992 0.000000
0.000000 0.509563 0.000000
0.571353 0.458150 0.000000
1.041957 0.372918 0.000000
1.079559 0.319280 0.000000
0.000000 0.943768 0.000000
0.000000 0.921722 0.000000
0.368322 0.893530 0.000000
0.976641 0.850990 0.000000
1.033297 0.819418 0.000000
0.000000 1.017231 0.000000
0.000000 1.017196 0.000000
0.000000 1.014090 0.000000
0.929853 1.002204 0.000000
0.999919 0.999919 0.000000
0.000000 0.000000 0.177060
0.157601 0.000000 0.147237
0.663360 0.000000 0.047387
1.071628 0.000000 0.000000
1.088126 0.000000 0.000000
0.000000 0.148412 0.151682
0.125816 0.119831 0.124105
0.632365 0.000000 0.000000
1.063552 0.000000 0.000000
1.088033 0.000000 0.000000
0.000000 0.551992 0.000000
0.000000 0.509563 0.000000
0.571353 0.458150 0.000000
1.041957 0.372918 0.000000
1.079559 0.319280 0.000000
0.000000 0.943768 0.000000
0.000000 0.921722 0.000000
0.368322 0.893530 0.000000
0.976641 0.850990 0.000000
1.033297 0.819418 0.000000
0.000000 1.017231 0.000000
0.000000 1.017196 0.000000
0.000000 1.014090 0.000000
0.929853 1.002204 0.000000
0.999919 0.999919 0.000000
0.000000 0.000000 0.560952
0.157601 0.000000 0.519175
0.663360 0.000000 0.472291
1.071628 0.000000 0.412789
1.088126 0.000000 0.369486
0.000000 0.148412 0.530418
0.125816 0.119831 0.488405
0.632365 0.000000 0.442887
1.063552 0.000000 0.381535
1.088033 0.000000 0.337375
0.000000 0.551992 0.480357
0.000000 0.509563 0.438963
0.571353 0.458150 0.396347
1.041957 0.372918 0.332089
1.079559 0.319280 0.284729
0.000000 0.943768 0.378791
0.000000 0.921722 0.326418
0.368322 0.893530 0.268669
0.976641 0.850990 0.141881
1.033297 0.819418 0.000000
0.000000 1.017231 0.309477
0.000000 1.017196 0.237031
0.000000 1.014090 0.108291
0.929853 1.002204 0.000000
0.999919 0.999919 0.000000
0.000000 0.000000 0.949658
0.157601 0.000000 0.924751
0.663360 0.000000 0.895932
1.071628 0.000000 0.859938
1.088126 0.000000 0.827520
0.000000 0.148412 0.930601
0.125816 0.119831 0.904275
0.632365 0.000000 0.875379
1.063552 0.000000 0.835677
1.088033 0.000000 0.802694
0.000000 0.551992 0.903965
0.000000 0.509563 0.876425
0.571353 0.458150 0.845514
1.041957 0.372918 0.806290
1.079559 0.319280 0.772800
0.000000 0.943768 0.857782
0.000000 0.921722 0.827968
0.368322 0.893530 0.795364
0.976641 0.850990 0.753371
1.033297 0.819418 0.715764
0.000000 1.017231 0.827059
0.000000 1.017196 0.793190
0.000000 1.014090 0.755734
0.929853 1.002204 0.707858
0.999919 0.999919 0.666045
0.000000 0.000000 1.039747
0.157601 0.000000 1.039672
0.663360 0.000000 1.037381
1.071628 0.000000 1.032241
1.088126 0.000000 1.030931
0.000000 0.148412 1.039441
0.125816 0.119831 1.039503
0.632365 0.000000 1.037516
1.063552 0.000000 1.031708
1.088033 0.000000 1.029270
0.000000 0.551992 1.032559
0.000000 0.509563 1.033776
0.569512 0.458236 1.032978
1.041957 0.372918 1.026402
1.079559 0.319280 1.021448
0.000000 0.943768 1.013368
0.000000 0.921722 1.014819
0.368322 0.893530 1.013043
0.976641 0.850990 1.004736
1.033297 0.819418 0.998425
0.000000 1.017231 1.008054
0.000000 1.017196 1.006799
0.000000 1.014090 1.002230
0.929853 1.002204 0.989659
0.999919 0.999919 0.977925
