transforms/MG03_grit_cold_fpe_r709.cube
#  MG_03_FPE_r709.cube
LUT_3D_SIZE 9
0.000000 0.000000 0.000000
0.002335 0.001812 0.001358
0.037079 0.018973 0.010361
0.098123 0.047464 0.000000
0.201428 0.060533 0.000000
0.360779 0.040638 0.000000
0.493689 0.000000 0.000000
0.576931 0.000000 0.000000
0.617611 0.000000 0.000000
0.003919 0.005402 0.003027
0.005883 0.006949 0.003668
0.049334 0.040079 0.015328
0.128233 0.064773 0.000000
0.264819 0.088736 0.000000
0.456717 0.078376 0.000000
0.589392 0.000000 0.000000
0.661353 0.000000 0.000000
0.695071 0.000000 0.000000
0.000000 0.060572 0.031525
0.013752 0.068761 0.036435
0.071426 0.086941 0.039568
0.170174 0.120936 0.024867
0.347309 0.157531 0.000000
0.562558 0.174814 0.000000
0.689178 0.174155 0.000000
0.749599 0.190148 0.000000
0.780047 0.209821 0.000000
0.000000 0.127901 0.057498
0.000000 0.137468 0.052414
0.070288 0.168504 0.040123
0.220948 0.220711 0.000000
0.439862 0.280383 0.000000
0.666168 0.321550 0.000000
0.786617 0.348680 0.000000
0.842038 0.376177 0.000000
0.869796 0.405497 0.000000
0.000000 0.251285 0.104456
0.000000 0.275784 0.090228
0.000000 0.316910 0.000000
0.276152 0.399110 0.000000
0.555368 0.483870 0.000000
0.781276 0.539984 0.000000
0.890249 0.574842 0.000000
0.935893 0.603268 0.000000
0.956780 0.626997 0.000000
0.000000 0.399544 0.140430
0.000000 0.414745 0.074580
0.000000 0.470094 0.000000
0.334749 0.568002 0.000000
0.653059 0.659040 0.000000
0.867324 0.710385 0.000000
0.958835 0.737425 0.000000
0.992873 0.753820 0.000000
1.007696 0.767154 0.000000
0.000000 0.476543 0.139685
0.000000 0.494799 0.000000
0.000000 0.563842 0.000000
0.396747 0.663098 0.000000
0.718896 0.749688 0.000000
0.913479 0.791605 0.000000
0.992831 0.809559 0.000000
1.019044 0.818049 0.000000
1.028816 0.824595 0.000000
0.000000 0.514338 0.144651
0.000000 0.533516 0.000000
0.000000 0.618722 0.000000
0.464223 0.714146 0.000000
0.772015 0.791987 0.000000
0.944273 0.825853 0.000000
1.009367 0.838529 0.000000
1.029197 0.845297 0.000000
1.028217 0.851586 0.000000
0.000000 0.534431 0.156378
0.000000 0.563164 0.000000
0.150551 0.657597 0.000000
0.531597 0.747191 0.000000
0.814231 0.812215 0.000000
0.960620 0.840889 0.000000
1.017428 0.852740 0.000000
1.026957 0.859130 0.000000
1.025945 0.865115 0.000000
0.004732 0.004137 0.005349
0.006049 0.004724 0.006562
0.040175 0.021621 0.024767
0.107784 0.050196 0.038574
0.221713 0.062605 0.028792
0.388855 0.017394 0.000000
0.521470 0.000000 0.000000
0.602985 0.000000 0.000000
0.641168 0.000000 0.000000
0.005114 0.008488 0.009606
0.008048 0.010118 0.011441
0.052935 0.044275 0.040790
0.138266 0.067540 0.054501
0.289037 0.090644 0.039284
0.490700 0.072479 0.000000
0.619322 0.000000 0.000000
0.686786 0.000000 0.000000
0.718555 0.000000 0.000000
0.000000 0.065885 0.055086
0.000000 0.074223 0.061489
0.078415 0.096252 0.068365
0.186833 0.132907 0.068084
0.377881 0.169469 0.040508
0.596743 0.184673 0.000000
0.719422 0.185557 0.000000
0.775349 0.204041 0.000000
0.802626 0.223144 0.000000
0.000000 0.140133 0.084706
0.000000 0.149739 0.082562
0.065568 0.185396 0.080549
0.239948 0.240059 0.074491
0.474354 0.303216 0.000000
0.699055 0.344133 0.000000
0.814170 0.372193 0.000000
0.866028 0.401454 0.000000
0.890333 0.430250 0.000000
0.000000 0.281562 0.148692
0.000000 0.308416 0.140413
0.000000 0.344277 0.086569
0.293445 0.431795 0.000000
0.585971 0.516417 0.000000
0.809130 0.571012 0.000000
0.912457 0.604161 0.000000
0.953979 0.634905 0.000000
0.972221 0.659571 0.000000
0.000000 0.434217 0.200299
0.000000 0.452995 0.167945
0.000000 0.501272 0.033734
0.344560 0.600313 0.000000
0.669999 0.687491 0.000000
0.881650 0.738092 0.000000
0.972134 0.766126 0.000000
1.003037 0.787231 0.000000
1.014247 0.802454 0.000000
0.000000 0.514227 0.229999
0.000000 0.536418 0.188621
0.000000 0.596874 0.000000
0.397470 0.696031 0.000000
0.727604 0.778573 0.000000
0.921779 0.821046 0.000000
0.997036 0.840827 0.000000
1.021699 0.853556 0.000000
1.025743 0.864448 0.123719
0.000000 0.555907 0.263692
0.000000 0.580505 0.217872
0.000000 0.652573 0.130198
0.457247 0.749180 0.000000
0.772965 0.823878 0.000000
0.945377 0.860499 0.000000
1.006454 0.876067 0.125722
1.022264 0.886343 0.218874
1.020759 0.894794 0.289891
0.000000 0.586919 0.312416
0.000000 0.613946 0.260936
0.000000 0.697761 0.224791
0.515243 0.786003 0.218866
0.810065 0.852848 0.221042
0.956745 0.882398 0.249217
1.011196 0.895117 0.289195
1.019063 0.904163 0.334769
1.017930 0.910333 0.378376
0.019469 0.019175 0.053279
0.024502 0.020977 0.061185
0.053213 0.028551 0.073049
0.114540 0.050767 0.088231
0.234370 0.062232 0.094723
0.406346 0.000000 0.098411
0.539557 0.000000 0.103082
0.620076 0.000000 0.112178
0.655971 0.000000 0.128999
0.000000 0.039022 0.078765
0.022932 0.043520 0.084674
0.067217 0.057381 0.099184
0.144814 0.071087 0.114257
0.306032 0.093250 0.128679
0.512461 0.066649 0.138914
0.638890 0.000000 0.148214
0.703219 0.000000 0.168698
0.733876 0.000000 0.190272
0.000000 0.082180 0.109062
0.000000 0.086930 0.117537
0.072793 0.106945 0.136121
0.192655 0.144329 0.155098
0.396717 0.181841 0.173674
0.613612 0.197813 0.185597
0.737289 0.201479 0.200063
0.790669 0.223986 0.227744
0.817628 0.246080 0.257480
0.000000 0.163679 0.158231
0.000000 0.176221 0.163592
0.000000 0.204756 0.176224
0.239491 0.264396 0.197522
0.490340 0.329597 0.211485
0.715463 0.372319 0.228604
0.827957 0.402845 0.248863
0.877004 0.433310 0.279527
0.900934 0.468197 0.313112
0.000000 0.335934 0.253339
0.000000 0.363329 0.258079
0.000000 0.379960 0.222040
0.278000 0.469010 0.239275
0.591164 0.554937 0.251617
0.815363 0.609214 0.267782
0.916831 0.647424 0.294578
0.957072 0.678541 0.327236
0.974144 0.706013 0.363411
0.000000 0.489601 0.326168
0.000000 0.514596 0.327010
0.000000 0.547887 0.277237
0.304718 0.641411 0.284333
0.664775 0.729962 0.296676
0.880059 0.779925 0.317299
0.970169 0.810560 0.351958
0.999833 0.832037 0.393228
1.008791 0.846685 0.430396
0.000000 0.571918 0.381638
0.000000 0.601363 0.381488
0.000000 0.641435 0.325608
0.351200 0.739130 0.340461
0.717171 0.821941 0.360916
0.912993 0.863918 0.392205
0.989552 0.884963 0.428522
1.012648 0.897978 0.467476
1.018036 0.908268 0.502904
0.000000 0.617820 0.438000
0.000000 0.647788 0.433832
0.000000 0.698392 0.390995
0.415368 0.794378 0.412102
0.761831 0.868965 0.441599
0.935917 0.904468 0.476531
0.996089 0.920502 0.512278
1.014286 0.929734 0.550718
1.013003 0.936406 0.581419
0.000000 0.649906 0.498082
0.000000 0.680756 0.484912
0.000000 0.742761 0.462586
0.479651 0.829559 0.487834
0.792981 0.894706 0.518681
0.945505 0.924027 0.550429
1.001377 0.936475 0.581206
1.011590 0.943669 0.612902
1.010640 0.948497 0.639590
0.015866 0.013283 0.129062
0.022485 0.004698 0.139824
0.058923 0.000000 0.156943
0.121083 0.026360 0.179563
0.244925 0.048415 0.203611
0.424344 0.000000 0.223332
0.556444 0.000000 0.243491
0.635004 0.000000 0.264522
0.671267 0.000000 0.287196
0.000000 0.035205 0.164327
0.000000 0.034119 0.177809
0.065831 0.048831 0.202256
0.154938 0.064924 0.232538
0.320086 0.088885 0.268055
0.532119 0.032346 0.294955
0.654904 0.000000 0.321315
0.719279 0.000000 0.348610
0.748161 0.000000 0.377423
0.000000 0.094834 0.208749
0.000000 0.100934 0.231048
0.000000 0.119682 0.264228
0.194751 0.157157 0.301601
0.408529 0.198119 0.343217
0.630510 0.217719 0.375976
0.752053 0.223815 0.405974
0.806722 0.249169 0.438944
0.832602 0.276953 0.469492
0.000000 0.204155 0.283584
0.000000 0.223128 0.314485
0.000000 0.235916 0.329018
0.224803 0.298326 0.371662
0.497737 0.366831 0.416951
0.727001 0.411195 0.449196
0.839103 0.445965 0.482090
0.887207 0.477438 0.513245
0.910936 0.515343 0.547424
0.000000 0.395006 0.407262
0.000000 0.425834 0.436385
0.000000 0.442797 0.426783
0.225656 0.514632 0.449808
0.585285 0.604344 0.490223
0.818770 0.660610 0.523741
0.918572 0.697115 0.554192
0.957454 0.727909 0.584541
0.973123 0.752473 0.613793
0.000000 0.552664 0.501677
0.000000 0.586259 0.525912
0.000000 0.609513 0.498607
0.209105 0.691120 0.515753
0.650253 0.779061 0.555556
0.873414 0.829098 0.588841
0.962996 0.857409 0.619449
0.992133 0.878584 0.652364
1.000870 0.888613 0.676727
0.000000 0.633512 0.564316
0.000000 0.665623 0.580770
0.000000 0.693852 0.546185
0.273407 0.786082 0.574397
0.701413 0.866255 0.615144
0.903293 0.907035 0.650229
0.979479 0.925115 0.678293
1.002850 0.936300 0.705472
1.010174 0.944153 0.728716
0.000000 0.672458 0.614143
0.000000 0.707070 0.627681
0.000000 0.748234 0.605534
0.362878 0.837391 0.637288
0.745943 0.909104 0.677133
0.925966 0.941798 0.707829
0.985672 0.954599 0.732875
1.006339 0.961657 0.757693
1.007111 0.966090 0.777474
0.000000 0.696603 0.659159
0.000000 0.732863 0.668891
0.000000 0.784127 0.656890
0.447286 0.868008 0.691512
0.779690 0.929182 0.726409
0.935084 0.955815 0.754633
0.992277 0.967034 0.777106
1.005644 0.971755 0.797544
1.005152 0.975631 0.816770
0.024503 0.000000 0.238705
0.034755 0.000000 0.253402
0.066186 0.000000 0.279328
0.130433 0.000000 0.309394
0.262034 0.000000 0.346250
0.445316 0.000000 0.379370
0.575382 0.000000 0.406992
0.652283 0.000000 0.429022
0.687147 0.000000 0.452319
0.000000 0.000000 0.283144
0.000000 0.000000 0.306297
0.065710 0.000000 0.339651
0.162792 0.000000 0.381058
0.338921 0.011240 0.430754
0.550665 0.000000 0.466534
0.675037 0.000000 0.497247
0.737180 0.000000 0.524602
0.765117 0.000000 0.550140
0.000000 0.117342 0.349821
0.000000 0.120161 0.378881
0.000000 0.128500 0.419396
0.189484 0.169777 0.469013
0.425374 0.212833 0.521054
0.648286 0.235344 0.563897
0.768067 0.247579 0.594108
0.823235 0.280549 0.625606
0.847910 0.310234 0.652945
0.000000 0.238670 0.436964
0.000000 0.254932 0.469015
0.000000 0.279610 0.503837
0.193348 0.334635 0.553560
0.506260 0.404728 0.608182
0.738132 0.450532 0.649226
0.848560 0.487057 0.682378
0.897796 0.522778 0.709219
0.918264 0.556259 0.733196
0.000000 0.427620 0.553027
0.000000 0.464023 0.587660
0.000000 0.496842 0.607672
0.110292 0.562664 0.642285
0.582620 0.650356 0.690157
0.822040 0.705652 0.729410
0.918968 0.740370 0.752499
0.956466 0.770232 0.777351
0.971570 0.790705 0.796721
0.000000 0.589546 0.648077
0.000000 0.626110 0.678087
0.000000 0.662976 0.682678
0.000000 0.735389 0.706868
0.640141 0.820006 0.749401
0.868175 0.866160 0.780805
0.956260 0.891042 0.803298
0.985317 0.908686 0.824242
0.995600 0.917383 0.842014
0.000000 0.668235 0.702825
0.000000 0.705459 0.729209
0.000000 0.742244 0.723479
0.179856 0.821935 0.751957
0.691943 0.898845 0.793917
0.896649 0.936034 0.823154
0.971223 0.952607 0.844445
0.995574 0.960705 0.861639
1.003455 0.965915 0.873966
0.000000 0.699410 0.736800
0.000000 0.739718 0.759622
0.000000 0.786032 0.759513
0.323100 0.866790 0.792515
0.740589 0.935754 0.834021
0.919769 0.964258 0.858781
0.979847 0.975649 0.877064
0.998757 0.981127 0.888896
1.003434 0.983670 0.898165
0.000000 0.716934 0.763055
0.000000 0.760816 0.786926
0.000000 0.814351 0.795965
0.424592 0.892991 0.831747
0.775001 0.950622 0.863699
0.929130 0.973864 0.884416
0.987396 0.984368 0.898566
1.000138 0.987388 0.908926
1.002500 0.988301 0.915618
0.061176 0.000000 0.344372
0.070107 0.000000 0.358351
0.101950 0.000000 0.384005
0.168072 0.000000 0.418610
0.290444 0.000000 0.461183
0.468400 0.000000 0.498215
0.595533 0.000000 0.525222
0.667788 0.000000 0.545191
0.701292 0.000000 0.565240
0.000000 0.000000 0.391651
0.028987 0.000000 0.409571
0.094340 0.000000 0.443843
0.183067 0.000000 0.489828
0.357440 0.000000 0.546102
0.568646 0.000000 0.587093
0.692251 0.000000 0.617464
0.751623 0.000000 0.640728
0.779372 0.000000 0.662375
0.000000 0.115965 0.457544
0.000000 0.119081 0.481737
0.000000 0.137232 0.528857
0.187917 0.178859 0.585446
0.437775 0.227590 0.644445
0.663485 0.252925 0.687769
0.781571 0.269865 0.716260
0.834538 0.304671 0.741882
0.857298 0.336305 0.762835
0.000000 0.252243 0.536234
0.000000 0.273520 0.566954
0.000000 0.308569 0.616210
0.165176 0.363142 0.674260
0.513301 0.434603 0.731819
0.747312 0.482067 0.772341
0.857884 0.519177 0.800130
0.903561 0.555803 0.821831
0.923328 0.586588 0.840208
0.000000 0.443670 0.642462
0.000000 0.482825 0.675708
0.000000 0.528060 0.714280
0.000000 0.594180 0.757196
0.580647 0.680141 0.809718
0.821681 0.734016 0.844272
0.921987 0.767267 0.867356
0.957436 0.794281 0.881538
0.970632 0.812447 0.892150
0.000000 0.600576 0.724491
0.000000 0.638399 0.753398
0.000000 0.687348 0.779972
0.000000 0.759272 0.813072
0.636302 0.842339 0.859405
0.865207 0.887199 0.886512
0.953946 0.909878 0.902101
0.983654 0.924471 0.915467
0.992574 0.931496 0.923928
0.000000 0.673262 0.767438
0.000000 0.714489 0.795614
0.000000 0.765212 0.816920
0.120715 0.841625 0.847034
0.689325 0.915785 0.887569
0.894391 0.950060 0.912025
0.968238 0.965385 0.926239
0.992994 0.972399 0.936843
0.999633 0.976726 0.943765
0.000000 0.703249 0.792080
0.000000 0.747667 0.820024
0.000000 0.803671 0.839923
0.308613 0.881971 0.874146
0.737616 0.947323 0.911538
0.918022 0.974929 0.932424
0.977162 0.985918 0.946156
0.996293 0.990082 0.953149
1.001213 0.991048 0.958042
0.000000 0.719465 0.809589
0.000000 0.767396 0.837751
0.000000 0.828114 0.860825
0.418206 0.904618 0.898001
0.770702 0.959705 0.930046
0.926628 0.983227 0.947428
0.983471 0.992466 0.956664
0.997411 0.993787 0.961968
1.000645 0.995330 0.965720
0.109313 0.000000 0.412621
0.119491 0.000000 0.422024
0.150894 0.000000 0.446367
0.204712 0.000000 0.481205
0.313698 0.000000 0.527281
0.486302 0.000000 0.569747
0.610750 0.000000 0.595432
0.678788 0.000000 0.612283
0.711436 0.000000 0.628278
0.076845 0.000000 0.454916
0.096482 0.000000 0.473440
0.128275 0.000000 0.507508
0.198971 0.000000 0.556435
0.373495 0.000000 0.615530
0.582230 0.000000 0.658474
0.704385 0.000000 0.686695
0.761758 0.000000 0.707631
0.789326 0.000000 0.727030
0.000000 0.113036 0.523778
0.000000 0.126310 0.547294
0.000000 0.144110 0.595437
0.186383 0.190272 0.654540
0.449076 0.241952 0.715060
0.674799 0.271810 0.759789
0.791695 0.295173 0.787761
0.844109 0.327894 0.808130
0.865958 0.360836 0.824388
0.000000 0.266372 0.596368
0.000000 0.289947 0.625664
0.000000 0.327043 0.677967
0.139190 0.385693 0.743834
0.520234 0.458378 0.803457
0.755771 0.506165 0.842409
0.862621 0.541147 0.865495
0.908520 0.577332 0.882083
0.926971 0.608461 0.895036
0.000000 0.456177 0.691648
0.000000 0.494791 0.724041
0.000000 0.545265 0.770135
0.000000 0.615171 0.822184
0.584251 0.702613 0.874977
0.823949 0.752836 0.905958
0.923123 0.787274 0.924690
0.958104 0.808746 0.934775
0.971286 0.827403 0.943858
0.000000 0.606686 0.765288
0.000000 0.644649 0.793048
0.000000 0.700765 0.828897
0.000000 0.773160 0.869019
0.638202 0.856088 0.914852
0.866493 0.898943 0.940328
0.953445 0.921272 0.954056
0.981512 0.933005 0.961070
0.991208 0.938768 0.965090
0.000000 0.676380 0.800217
0.000000 0.717603 0.828576
0.000000 0.774094 0.859287
0.112681 0.853405 0.897746
0.691744 0.924293 0.936906
0.892798 0.957694 0.957450
0.967199 0.972092 0.968293
0.991417 0.978341 0.973051
0.998595 0.981255 0.976397
0.000000 0.703948 0.818962
0.000000 0.750027 0.848119
0.000000 0.811097 0.878501
0.308625 0.890319 0.916980
0.737665 0.953338 0.951340
0.916855 0.980660 0.969289
0.975939 0.989931 0.977801
0.994933 0.994014 0.981921
1.000023 0.995168 0.984777
0.000000 0.720647 0.832391
0.000000 0.770248 0.863766
0.000000 0.834474 0.893100
0.424806 0.911193 0.931896
0.771489 0.964945 0.961676
0.926464 0.986783 0.976306
0.981983 0.994486 0.983513
0.997272 0.996336 0.986139
1.000418 0.997793 0.988759
0.146592 0.000000 0.454579
0.155886 0.000000 0.462759
0.182807 0.000000 0.483336
0.228251 0.000000 0.516402
0.327930 0.000000 0.567240
0.501129 0.000000 0.612583
0.622166 0.000000 0.638353
0.689393 0.000000 0.654936
0.721446 0.000000 0.668309
0.109981 0.000000 0.495749
0.118354 0.000000 0.510485
0.136492 0.000000 0.545312
0.208674 0.000000 0.598071
0.384963 0.000000 0.660977
0.595221 0.000000 0.704793
0.714554 0.000000 0.729619
0.771581 0.000000 0.749156
0.798124 0.000000 0.766400
0.000000 0.125311 0.564493
0.000000 0.138191 0.587058
0.000000 0.157327 0.636310
0.181521 0.207407 0.699359
0.458860 0.260341 0.760420
0.683207 0.291408 0.802567
0.799978 0.316746 0.828651
0.850337 0.350672 0.846455
0.873581 0.385919 0.860855
0.000000 0.280956 0.636159
0.000000 0.304349 0.662162
0.000000 0.345007 0.715739
0.131472 0.405494 0.784764
0.525459 0.478145 0.842848
0.762480 0.527185 0.881908
0.867882 0.562346 0.902584
0.912246 0.598266 0.916263
0.931602 0.629375 0.926181
0.000000 0.468654 0.721937
0.000000 0.507698 0.753190
0.000000 0.559847 0.800665
0.000000 0.632179 0.858498
0.586685 0.718708 0.910876
0.825875 0.767227 0.939366
0.925377 0.799264 0.954347
0.959042 0.821227 0.961508
0.972362 0.838254 0.967573
0.000000 0.612007 0.787166
0.000000 0.651116 0.814776
0.000000 0.708401 0.855117
0.000000 0.784787 0.899704
0.640230 0.865492 0.943803
0.867535 0.907781 0.966960
0.953357 0.927393 0.977379
0.981439 0.937854 0.982880
0.990716 0.944126 0.986301
0.000000 0.677041 0.817337
0.000000 0.721018 0.846891
0.000000 0.779331 0.881247
0.123512 0.859248 0.921837
0.697688 0.930317 0.960460
0.894930 0.962490 0.978969
0.967870 0.975943 0.987370
0.990511 0.981138 0.990864
0.997768 0.984057 0.992802
0.000000 0.705429 0.833091
0.000000 0.752827 0.862994
0.000000 0.814941 0.896054
0.313397 0.894051 0.936441
0.739863 0.956637 0.970950
0.915059 0.983173 0.986818
0.975570 0.992337 0.992586
0.994086 0.995929 0.996128
0.999471 0.997354 0.997298
0.000000 0.721972 0.843972
0.000000 0.771607 0.875235
0.000000 0.836785 0.908628
0.430340 0.913656 0.947955
0.777086 0.967548 0.976833
0.927495 0.989567 0.990570
0.981885 0.996549 0.996336
0.996113 0.998427 0.998610
0.999980 0.999777 0.999424
0.166281 0.000000 0.476369
0.174402 0.000000 0.483884
0.198711 0.000000 0.504394
0.240247 0.000000 0.536792
0.339118 0.000000 0.590014
0.511852 0.000000 0.636724
0.631705 0.000000 0.663109
0.698336 0.000000 0.679494
0.728890 0.000000 0.691556
0.114528 0.000000 0.519541
0.109078 0.000000 0.535556
0.126796 0.000000 0.570548
0.206381 0.000000 0.626278
0.393462 0.000000 0.687651
0.604180 0.000000 0.731663
0.725504 0.000000 0.757470
0.781260 0.000000 0.775791
0.806946 0.000000 0.790151
0.000000 0.141895 0.589798
0.000000 0.154190 0.610476
0.000000 0.177159 0.660428
0.184092 0.226494 0.725580
0.470696 0.281180 0.786776
0.693996 0.316574 0.827970
0.806918 0.344639 0.851306
0.857419 0.377095 0.867787
0.879120 0.413102 0.880551
0.000000 0.293768 0.656534
0.000000 0.321641 0.683329
0.000000 0.364396 0.738336
0.125592 0.424621 0.808254
0.535850 0.499066 0.865580
0.767850 0.546876 0.900930
0.871722 0.583636 0.920312
0.916512 0.616443 0.932220
0.933977 0.645219 0.940062
0.000000 0.479260 0.739181
0.000000 0.517919 0.768618
0.000000 0.571503 0.817675
0.000000 0.645889 0.875866
0.592425 0.728575 0.925728
0.827240 0.778044 0.954494
0.925863 0.807735 0.967316
0.959105 0.829240 0.972952
0.973411 0.845872 0.977270
0.000000 0.616959 0.798482
0.000000 0.656214 0.825484
0.000000 0.711709 0.866245
0.000000 0.792044 0.914137
0.647372 0.870414 0.956529
0.864568 0.908730 0.976793
0.953430 0.928429 0.986198
0.981991 0.939004 0.989346
0.991440 0.947463 0.992061
0.000000 0.680809 0.827451
0.000000 0.722863 0.854092
0.000000 0.782036 0.890322
0.181683 0.864181 0.933572
0.701215 0.933270 0.970230
0.893757 0.964654 0.986630
0.967994 0.977249 0.993211
0.990814 0.981691 0.995681
0.997386 0.985465 0.997430
0.000000 0.707486 0.840067
0.000000 0.753683 0.870002
0.000000 0.816164 0.903724
0.335900 0.896374 0.943915
0.743729 0.957386 0.976589
0.913887 0.983737 0.990814
0.977466 0.993596 0.996336
0.993631 0.996221 0.998623
0.999323 0.998027 0.999030
0.000000 0.723580 0.849825
0.000000 0.773271 0.880482
0.000000 0.839263 0.914238
0.446036 0.915551 0.954069
0.784301 0.968630 0.981416
0.930330 0.990255 0.993627
0.982421 0.997120 0.998062
0.995941 0.998813 1.000029
0.999947 0.999930 0.999917
