transforms/MG03_grit_cold_fpe_r709.cube
#  MG_03_FPE_r709.cube
LUT_3D_SIZE 5
0.000000 0.000000 0.000000
0.037079 0.018973 0.010361
0.201428 0.060533 0.000000
0.493689 0.000000 0.000000
0.617611 0.000000 0.000000
0.000000 0.060572 0.031525
0.071426 0.086941 0.039568
0.347309 0.157531 0.000000
0.689178 0.174155 0.000000
0.780047 0.209821 0.000000
0.000000 0.251285 0.104456
0.000000 0.316910 0.000000
0.555368 0.483870 0.000000
0.890249 0.574842 0.000000
0.956780 0.626997 0.000000
0.000000 0.476543 0.139685
0.000000 0.563842 0.000000
0.718896 0.749688 0.000000
0.992831 0.809559 0.000000
1.028816 0.824595 0.000000
0.000000 0.534431 0.156378
0.150551 0.657597 0.000000
0.814231 0.812215 0.000000
1.017428 0.852740 0.000000
1.025945 0.865115 0.000000
0.019469 0.019175 0.053279
0.053213 0.028551 0.073049
0.234370 0.062232 0.094723
0.539557 0.000000 0.103082
0.655971 0.000000 0.128999
0.000000 0.082180 0.109062
0.072793 0.106945 0.136121
0.396717 0.181841 0.173674
0.737289 0.201479 0.200063
0.817628 0.246080 0.257480
0.000000 0.335934 0.253339
0.000000 0.379960 0.222040
0.591164 0.554937 0.251617
0.916831 0.647424 0.294578
0.974144 0.706013 0.363411
0.000000 0.571918 0.381638
0.000000 0.641435 0.325608
0.717171 0.821941 0.360916
0.989552 0.884963 0.428522
1.018036 0.908268 0.502904
0.000000 0.649906 0.498082
0.000000 0.742761 0.462586
0.792981 0.894706 0.518681
1.001377 0.936475 0.581206
1.010640 0.948497 0.639590
0.024503 0.000000 0.238705
0.066186 0.000000 0.279328
0.262034 0.000000 0.346250
0.575382 0.000000 0.406992
0.687147 0.000000 0.452319
0.000000 0.117342 0.349821
0.000000 0.128500 0.419396
0.425374 0.212833 0.521054
0.768067 0.247579 0.594108
0.847910 0.310234 0.652945
0.000000 0.427620 0.553027
0.000000 0.496842 0.607672
0.582620 0.650356 0.690157
0.918968 0.740370 0.752499
0.971570 0.790705 0.796721
0.000000 0.668235 0.702825
0.000000 0.742244 0.723479
0.691943 0.898845 0.793917
0.971223 0.952607 0.844445
1.003455 0.965915 0.873966
0.000000 0.716934 0.763055
0.000000 0.814351 0.795965
0.775001 0.950622 0.863699
0.987396 0.984368 0.898566
1.002500 0.988301 0.915618
0.109313 0.000000 0.412621
0.150894 0.000000 0.446367
0.313698 0.000000 0.527281
0.610750 0.000000 0.595432
0.711436 0.000000 0.628278
0.000000 0.113036 0.523778
0.000000 0.144110 0.595437
0.449076 0.241952 0.715060
0.791695 0.295173 0.787761
0.865958 0.360836 0.824388
0.000000 0.456177 0.691648
0.000000 0.545265 0.770135
0.584251 0.702613 0.874977
0.923123 0.787274 0.924690
0.971286 0.827403 0.943858
0.000000 0.676380 0.800217
0.000000 0.774094 0.859287
0.691744 0.924293 0.936906
0.967199 0.972092 0.968293
0.998595 0.981255 0.976397
0.000000 0.720647 0.832391
0.000000 0.834474 0.893100
0.771489 0.964945 0.961676
0.981983 0.994486 0.983513
1.000418 0.997793 0.988759
0.166281 0.000000 0.476369
0.198711 0.000000 0.504394
0.339118 0.000000 0.590014
0.631705 0.000000 0.663109
0.728890 0.000000 0.691556
0.000000 0.141895 0.589798
0.000000 0.177159 0.660428
0.470696 0.281180 0.786776
0.806918 0.344639 0.851306
0.879120 0.413102 0.880551
0.000000 0.479260 0.739181
0.000000 0.571503 0.817675
0.592425 0.728575 0.925728
0.925863 0.807735 0.967316
0.973411 0.845872 0.977270
0.000000 0.680809 0.827451
0.000000 0.782036 0.890322
0.701215 0.933270 0.970230
0.967994 0.977249 0.993211
0.997386 0.985465 0.997430
0.000000 0.723580 0.849825
0.000000 0.839263 0.914238
0.784301 0.968630 0.981416
0.982421 0.997120 0.998062
0.999947 0.999930 0.999917
