transforms/MG03_grit_cold_fpe_r709.cube
#  MG_03_FPE_r709.cube
LUT_3D_SIZE 33
0.000000 0.000000 0.000000
0.000000 0.000000 0.000000
0.000000 0.000000 0.000000
0.000362 0.000293 0.000223
0.002335 0.001812 0.001358
0.006210 0.004269 0.003071
0.012852 0.007758 0.005298
0.023000 0.012635 0.007767
0.037079 0.018973 0.010361
0.048554 0.025144 0.010837
0.061113 0.033285 0.009841
0.076062 0.041713 0.004547
0.098123 0.047464 0.000000
0.121270 0.053347 0.000000
0.143959 0.056067 0.000000
0.167122 0.058544 0.000000
0.201428 0.060533 0.000000
0.236907 0.062014 0.000000
0.278579 0.059537 0.000000
0.318902 0.054689 0.000000
0.360779 0.040638 0.000000
0.400851 0.000000 0.000000
0.434429 0.000000 0.000000
0.465507 0.000000 0.000000
0.493689 0.000000 0.000000
0.517529 0.000000 0.000000
0.541372 0.000000 0.000000
0.559098 0.000000 0.000000
0.576931 0.000000 0.000000
0.589773 0.000000 0.000000
0.601158 0.000000 0.000000
0.610241 0.000000 0.000000
0.617611 0.000000 0.000000
0.000000 0.000000 0.000000
0.000000 0.000000 0.000000
0.000000 0.000000 0.000000
0.000597 0.000482 0.000367
0.002681 0.002062 0.001541
0.006868 0.004621 0.003300
0.013878 0.008225 0.005569
0.024885 0.013461 0.008064
0.039342 0.019897 0.010698
0.051306 0.027022 0.011128
0.064534 0.035879 0.010347
0.081986 0.043876 0.000000
0.103474 0.049181 0.000000
0.127128 0.054603 0.000000
0.151175 0.057434 0.000000
0.176921 0.060194 0.000000
0.212832 0.063395 0.000000
0.251041 0.066105 0.000000
0.294169 0.063199 0.000000
0.338276 0.057578 0.000000
0.382383 0.042255 0.000000
0.422296 0.000000 0.000000
0.455960 0.000000 0.000000
0.488081 0.000000 0.000000
0.516743 0.000000 0.000000
0.541717 0.000000 0.000000
0.564636 0.000000 0.000000
0.580898 0.000000 0.000000
0.597515 0.000000 0.000000
0.608846 0.000000 0.000000
0.619318 0.000000 0.000000
0.627905 0.000000 0.000000
0.634654 0.000000 0.000000
0.000257 0.000251 0.000177
0.000317 0.000310 0.000218
0.000378 0.000369 0.000260
0.000807 0.000732 0.000508
0.003071 0.002594 0.001771
0.007673 0.005661 0.003610
0.015589 0.010147 0.006032
0.027072 0.016798 0.008739
0.042487 0.025341 0.011617
0.055229 0.033905 0.011766
0.069828 0.043750 0.010400
0.089235 0.050041 0.000000
0.111774 0.053987 0.000000
0.136825 0.057861 0.000000
0.162561 0.060562 0.000000
0.192152 0.064135 0.000000
0.228532 0.069537 0.000000
0.268991 0.072933 0.000000
0.314882 0.069160 0.000000
0.361132 0.061953 0.000000
0.404884 0.048597 0.000000
0.447165 0.012696 0.000000
0.479621 0.000000 0.000000
0.512904 0.000000 0.000000
0.539956 0.000000 0.000000
0.565547 0.000000 0.000000
0.586851 0.000000 0.000000
0.603050 0.000000 0.000000
0.618631 0.000000 0.000000
0.628831 0.000000 0.000000
0.639925 0.000000 0.000000
0.647217 0.000000 0.000000
0.654116 0.000000 0.000000
0.001637 0.001766 0.001156
0.001737 0.001890 0.001231
0.001872 0.002058 0.001331
0.002183 0.002209 0.001400
0.003598 0.003396 0.002073
0.008690 0.007155 0.004115
0.017319 0.012962 0.006821
0.029355 0.021333 0.009865
0.045830 0.032187 0.012803
0.059453 0.041378 0.013023
0.075716 0.051561 0.012424
0.096982 0.056091 0.000000
0.119912 0.059344 0.000000
0.146634 0.063173 0.000000
0.174510 0.066655 0.000000
0.207910 0.071796 0.000000
0.246666 0.078575 0.000000
0.289293 0.081391 0.000000
0.336764 0.078924 0.000000
0.385173 0.073194 0.000000
0.430272 0.062926 0.000000
0.471486 0.044467 0.000000
0.506046 0.000000 0.000000
0.538212 0.000000 0.000000
0.564285 0.000000 0.000000
0.590062 0.000000 0.000000
0.608736 0.000000 0.000000
0.625044 0.000000 0.000000
0.638743 0.000000 0.000000
0.649846 0.000000 0.000000
0.659933 0.000000 0.000000
0.667434 0.000000 0.000000
0.674503 0.000000 0.000000
0.003919 0.005402 0.003027
0.004048 0.005673 0.003149
0.004191 0.005948 0.003288
0.004850 0.006498 0.003530
0.005883 0.006949 0.003668
0.009760 0.009655 0.004872
0.019018 0.017109 0.007988
0.031383 0.027340 0.011630
0.049334 0.040079 0.015328
0.064649 0.049212 0.016277
0.082392 0.058413 0.016483
0.104848 0.061616 0.011253
0.128233 0.064773 0.000000
0.157024 0.069449 0.000000
0.187215 0.074214 0.000000
0.224052 0.081105 0.000000
0.264819 0.088736 0.000000
0.310458 0.091165 0.000000
0.359933 0.090817 0.000000
0.410314 0.086456 0.000000
0.456717 0.078376 0.000000
0.497480 0.066692 0.000000
0.532220 0.045255 0.000000
0.563749 0.000000 0.000000
0.589392 0.000000 0.000000
0.615926 0.000000 0.000000
0.632483 0.000000 0.000000
0.648835 0.000000 0.000000
0.661353 0.000000 0.000000
0.672231 0.000000 0.000000
0.681266 0.000000 0.000000
0.687975 0.000000 0.000000
0.695071 0.000000 0.000000
0.006515 0.012239 0.005977
0.006507 0.012801 0.006356
0.006771 0.013606 0.006840
0.008075 0.014304 0.007135
0.010273 0.015103 0.007428
0.013662 0.016049 0.007601
0.020373 0.021413 0.009772
0.033158 0.033102 0.014591
0.053121 0.047726 0.019581
0.070348 0.057321 0.021639
0.090289 0.065623 0.022240
0.113495 0.070062 0.018418
0.137977 0.075032 0.009706
0.168855 0.081529 0.000000
0.200509 0.087570 0.000000
0.241307 0.095484 0.000000
0.283758 0.103352 0.000000
0.333951 0.105589 0.000000
0.384820 0.106331 0.000000
0.436913 0.102629 0.000000
0.485598 0.096789 0.000000
0.524446 0.087580 0.000000
0.558979 0.075917 0.000000
0.589589 0.060707 0.000000
0.615140 0.041342 0.000000
0.640010 0.000000 0.000000
0.656162 0.000000 0.000000
0.672731 0.000000 0.000000
0.683959 0.000000 0.000000
0.694716 0.000000 0.000000
0.702994 0.000000 0.000000
0.710252 0.000000 0.000000
0.716428 0.000000 0.000000
0.006181 0.023470 0.011361
0.005397 0.024368 0.012000
0.006295 0.025597 0.012701
0.009497 0.026674 0.013230
0.014887 0.027862 0.013617
0.021214 0.029085 0.013885
0.025412 0.030658 0.014554
0.034394 0.038386 0.018241
0.056679 0.054715 0.024463
0.076487 0.065455 0.027643
0.097305 0.073324 0.027921
0.122277 0.080185 0.024606
0.148219 0.086766 0.017800
0.180655 0.094876 0.000000
0.215575 0.102554 0.000000
0.259754 0.111500 0.000000
0.304971 0.119871 0.000000
0.356866 0.123033 0.000000
0.410538 0.125006 0.000000
0.464330 0.123538 0.000000
0.513967 0.121388 0.000000
0.550802 0.116275 0.000000
0.585929 0.111058 0.000000
0.614906 0.105745 0.000000
0.641660 0.102013 0.000000
0.664111 0.098027 0.000000
0.679604 0.096378 0.000000
0.696179 0.096178 0.000000
0.706148 0.097344 0.000000
0.716826 0.100575 0.000000
0.724513 0.104144 0.000000
0.732169 0.110224 0.000000
0.737990 0.114292 0.000000
0.000000 0.039508 0.019242
0.000000 0.040816 0.020424
0.000000 0.042155 0.021325
0.000000 0.043603 0.022122
0.017793 0.045341 0.022839
0.028772 0.047124 0.023457
0.034829 0.049784 0.024556
0.040290 0.052656 0.025692
0.060318 0.066043 0.030133
0.082517 0.079260 0.033647
0.105842 0.088513 0.033075
0.129777 0.095806 0.029787
0.159288 0.104293 0.022215
0.193964 0.112877 0.000000
0.232761 0.121761 0.000000
0.278568 0.130352 0.000000
0.326074 0.137449 0.000000
0.381322 0.141824 0.000000
0.435379 0.145232 0.000000
0.488192 0.145968 0.000000
0.538757 0.145240 0.000000
0.575130 0.143232 0.000000
0.610107 0.140065 0.000000
0.638565 0.139341 0.000000
0.665228 0.137750 0.000000
0.686796 0.139414 0.000000
0.703144 0.141425 0.000000
0.717794 0.143515 0.000000
0.728117 0.148054 0.000000
0.738352 0.151266 0.000000
0.746207 0.157013 0.000000
0.753424 0.161347 0.000000
0.759066 0.165743 0.000000
0.000000 0.060572 0.031525
0.000000 0.062316 0.032953
0.000000 0.064008 0.034196
0.000000 0.065655 0.035084
0.013752 0.068761 0.036435
0.035530 0.071521 0.037344
0.044551 0.076129 0.038733
0.053971 0.080965 0.039950
0.071426 0.086941 0.039568
0.088826 0.093547 0.039296
0.112422 0.102524 0.037667
0.137872 0.110990 0.033803
0.170174 0.120936 0.024867
0.207164 0.130716 0.000000
0.249388 0.140859 0.000000
0.297293 0.150213 0.000000
0.347309 0.157531 0.000000
0.402331 0.163653 0.000000
0.459478 0.169002 0.000000
0.513079 0.172354 0.000000
0.562558 0.174814 0.000000
0.599271 0.174260 0.000000
0.635197 0.173503 0.000000
0.662444 0.174442 0.000000
0.689178 0.174155 0.000000
0.709189 0.177829 0.000000
0.724815 0.181471 0.000000
0.739458 0.186468 0.000000
0.749599 0.190148 0.000000
0.759573 0.193934 0.000000
0.767084 0.199463 0.000000
0.774104 0.203653 0.000000
0.780047 0.209821 0.000000
0.000000 0.077240 0.042099
0.000000 0.078922 0.043361
0.000000 0.080196 0.043738
0.000000 0.081390 0.043922
0.000000 0.084659 0.044523
0.028091 0.087418 0.044648
0.041101 0.092789 0.044946
0.055004 0.098441 0.044865
0.075565 0.105458 0.043742
0.094589 0.112335 0.042083
0.119538 0.120658 0.039046
0.145772 0.129469 0.034201
0.181402 0.140435 0.020793
0.220938 0.151477 0.000000
0.265196 0.162402 0.000000
0.314904 0.172995 0.000000
0.368926 0.181371 0.000000
0.425386 0.188687 0.000000
0.481948 0.194992 0.000000
0.537864 0.199911 0.000000
0.584957 0.202418 0.000000
0.622033 0.204170 0.000000
0.658037 0.204654 0.000000
0.684870 0.206471 0.000000
0.711822 0.206954 0.000000
0.730406 0.212989 0.000000
0.746639 0.218432 0.000000
0.759501 0.223516 0.000000
0.770707 0.229865 0.000000
0.780020 0.234828 0.000000
0.787770 0.241317 0.000000
0.794473 0.246300 0.000000
0.800564 0.253398 0.000000
0.000000 0.092016 0.047614
0.000000 0.093555 0.048619
0.000000 0.094865 0.048696
0.000000 0.096705 0.048707
0.000000 0.099145 0.048961
0.000000 0.103812 0.049105
0.021521 0.110189 0.048575
0.051394 0.116426 0.047489
0.076223 0.123704 0.045742
0.099334 0.130688 0.043235
0.126406 0.139914 0.039254
0.153665 0.148617 0.033401
0.193441 0.161131 0.000000
0.235569 0.173497 0.000000
0.283260 0.186186 0.000000
0.334823 0.198722 0.000000
0.390052 0.208302 0.000000
0.450038 0.217800 0.000000
0.508112 0.225780 0.000000
0.563457 0.232700 0.000000
0.609567 0.236900 0.000000
0.648392 0.240687 0.000000
0.682296 0.243396 0.000000
0.709755 0.247645 0.000000
0.736355 0.250830 0.000000
0.753347 0.257479 0.000000
0.769981 0.262784 0.000000
0.782566 0.269327 0.000000
0.793218 0.274524 0.000000
0.801805 0.279833 0.000000
0.809325 0.286880 0.000000
0.816164 0.292546 0.000000
0.822039 0.299496 0.000000
0.000000 0.107344 0.052861
0.000000 0.108987 0.053717
0.000000 0.110911 0.053338
0.000000 0.112976 0.052757
0.000000 0.116546 0.052569
0.000000 0.121845 0.051913
0.000000 0.128981 0.050410
0.039718 0.137154 0.048020
0.074529 0.144649 0.045011
0.103060 0.153953 0.040322
0.132894 0.164071 0.032676
0.163930 0.175647 0.014022
0.206504 0.189247 0.000000
0.251102 0.204443 0.000000
0.301854 0.217337 0.000000
0.355696 0.231255 0.000000
0.414556 0.243033 0.000000
0.477040 0.254414 0.000000
0.536332 0.262282 0.000000
0.593057 0.270217 0.000000
0.638056 0.276417 0.000000
0.676561 0.280435 0.000000
0.708919 0.285907 0.000000
0.735328 0.290474 0.000000
0.760475 0.296663 0.000000
0.777017 0.301784 0.000000
0.793888 0.307236 0.000000
0.805690 0.314753 0.000000
0.816504 0.320781 0.000000
0.825356 0.328766 0.000000
0.832380 0.335496 0.000000
0.839671 0.343636 0.000000
0.844958 0.349514 0.000000
0.000000 0.127901 0.057498
0.000000 0.129868 0.057806
0.000000 0.131541 0.056088
0.000000 0.133980 0.054280
0.000000 0.137468 0.052414
0.000000 0.143127 0.050783
0.000000 0.150065 0.048784
0.000000 0.159147 0.045208
0.070288 0.168504 0.040123
0.105753 0.179008 0.031210
0.139643 0.191855 0.000000
0.176149 0.205009 0.000000
0.220948 0.220711 0.000000
0.267440 0.236040 0.000000
0.321628 0.251768 0.000000
0.378300 0.267902 0.000000
0.439862 0.280383 0.000000
0.504784 0.294457 0.000000
0.566072 0.305223 0.000000
0.625916 0.315552 0.000000
0.666168 0.321550 0.000000
0.705755 0.328891 0.000000
0.735969 0.334815 0.000000
0.763719 0.342647 0.000000
0.786617 0.348680 0.000000
0.804047 0.356125 0.000000
0.820366 0.362156 0.000000
0.830781 0.368236 0.000000
0.842038 0.376177 0.000000
0.849840 0.383090 0.000000
0.857820 0.391879 0.000000
0.863855 0.398123 0.000000
0.869796 0.405497 0.000000
0.000000 0.149448 0.061675
0.000000 0.151405 0.061189
0.000000 0.154197 0.059146
0.000000 0.157787 0.056617
0.000000 0.161998 0.053411
0.000000 0.169769 0.049692
0.000000 0.177157 0.043965
0.000000 0.187405 0.037432
0.053597 0.198783 0.026292
0.103257 0.211628 0.000000
0.142413 0.226546 0.000000
0.184885 0.241795 0.000000
0.233639 0.259943 0.000000
0.285282 0.277136 0.000000
0.344908 0.294564 0.000000
0.405359 0.311812 0.000000
0.467796 0.327281 0.000000
0.533714 0.341777 0.000000
0.595780 0.353922 0.000000
0.655293 0.365551 0.000000
0.695723 0.372288 0.000000
0.735927 0.380590 0.000000
0.764572 0.387523 0.000000
0.792994 0.396122 0.000000
0.813426 0.402372 0.000000
0.831093 0.410278 0.000000
0.846013 0.416830 0.000000
0.857068 0.425342 0.000000
0.867219 0.432033 0.000000
0.874607 0.439583 0.000000
0.882910 0.448954 0.000000
0.888366 0.455024 0.000000
0.893873 0.462293 0.000000
0.000000 0.179133 0.073488
0.000000 0.182295 0.073369
0.000000 0.186895 0.071730
0.000000 0.190884 0.066989
0.000000 0.194824 0.060425
0.000000 0.201572 0.049492
0.000000 0.208630 0.031952
0.000000 0.221830 0.003811
0.000000 0.233437 0.000000
0.097079 0.249472 0.000000
0.142902 0.263637 0.000000
0.192765 0.281734 0.000000
0.246265 0.300496 0.000000
0.303820 0.320899 0.000000
0.366906 0.340233 0.000000
0.430738 0.357764 0.000000
0.497473 0.376107 0.000000
0.565245 0.393614 0.000000
0.627686 0.407420 0.000000
0.682638 0.418375 0.000000
0.724784 0.428284 0.000000
0.764171 0.436349 0.000000
0.793318 0.446012 0.000000
0.821677 0.453941 0.000000
0.840874 0.460960 0.000000
0.857973 0.469429 0.000000
0.871964 0.477874 0.000000
0.882091 0.484489 0.000000
0.892459 0.492962 0.000000
0.900023 0.500336 0.000000
0.907413 0.507563 0.000000
0.912966 0.514863 0.000000
0.917224 0.520068 0.000000
0.000000 0.211170 0.086922
0.000000 0.215837 0.086951
0.000000 0.222690 0.086348
0.000000 0.227474 0.080380
0.000000 0.232095 0.072855
0.000000 0.238042 0.050363
0.000000 0.245503 0.000000
0.000000 0.260506 0.000000
0.000000 0.273712 0.000000
0.075563 0.291637 0.000000
0.141328 0.308421 0.000000
0.202109 0.327723 0.000000
0.262001 0.349647 0.000000
0.325263 0.371433 0.000000
0.389249 0.391203 0.000000
0.456815 0.411712 0.000000
0.525813 0.430902 0.000000
0.594517 0.448838 0.000000
0.656981 0.462191 0.000000
0.711547 0.475383 0.000000
0.753397 0.486291 0.000000
0.791759 0.495459 0.000000
0.821648 0.505663 0.000000
0.850784 0.514194 0.000000
0.867471 0.521220 0.000000
0.883976 0.529463 0.000000
0.896101 0.535901 0.000000
0.906703 0.543679 0.000000
0.915638 0.549841 0.000000
0.923147 0.557901 0.000000
0.929593 0.564129 0.000000
0.933658 0.569011 0.000000
0.938071 0.575283 0.000000
0.000000 0.251285 0.104456
0.000000 0.257974 0.105604
0.000000 0.265858 0.106773
0.000000 0.271981 0.102028
0.000000 0.275784 0.090228
0.000000 0.278198 0.051214
0.000000 0.285838 0.000000
0.000000 0.301198 0.000000
0.000000 0.316910 0.000000
0.015287 0.336787 0.000000
0.134740 0.354432 0.000000
0.209427 0.375685 0.000000
0.276152 0.399110 0.000000
0.344080 0.420836 0.000000
0.413611 0.445420 0.000000
0.484239 0.465240 0.000000
0.555368 0.483870 0.000000
0.622956 0.502740 0.000000
0.686192 0.516954 0.000000
0.738534 0.530173 0.000000
0.781276 0.539984 0.000000
0.818160 0.550647 0.000000
0.847465 0.560238 0.000000
0.874105 0.568047 0.000000
0.890249 0.574842 0.000000
0.906701 0.583243 0.000000
0.917535 0.589624 0.000000
0.928133 0.597582 0.000000
0.935893 0.603268 0.000000
0.942408 0.608975 0.000000
0.948529 0.615903 0.000000
0.952357 0.620622 0.000000
0.956780 0.626997 0.000000
0.000000 0.292286 0.121114
0.000000 0.301098 0.122931
0.000000 0.309412 0.123155
0.000000 0.314053 0.115268
0.000000 0.316770 0.098632
0.000000 0.317729 0.050528
0.000000 0.326146 0.000000
0.000000 0.341674 0.000000
0.000000 0.358633 0.000000
0.000000 0.379777 0.000000
0.139184 0.399941 0.000000
0.220641 0.422953 0.000000
0.291081 0.447855 0.000000
0.363573 0.471564 0.000000
0.434163 0.495285 0.000000
0.507969 0.515485 0.000000
0.582245 0.536654 0.000000
0.649860 0.553156 0.000000
0.716717 0.570166 0.000000
0.764283 0.582808 0.000000
0.807199 0.593048 0.000000
0.841789 0.603119 0.000000
0.870425 0.610617 0.000000
0.894924 0.618773 0.000000
0.911446 0.625420 0.000000
0.927624 0.633231 0.000000
0.937360 0.639141 0.000000
0.947341 0.646003 0.000000
0.954015 0.651043 0.000000
0.960335 0.657008 0.000000
0.965047 0.661404 0.000000
0.968697 0.665627 0.000000
0.972353 0.670691 0.000000
0.000000 0.334737 0.132858
0.000000 0.341194 0.131027
0.000000 0.347815 0.126779
0.000000 0.350618 0.116322
0.000000 0.353069 0.095169
0.000000 0.354757 0.044121
0.000000 0.365206 0.000000
0.000000 0.379443 0.000000
0.000000 0.399247 0.000000
0.000000 0.420972 0.000000
0.140786 0.442853 0.000000
0.229518 0.468068 0.000000
0.304949 0.492676 0.000000
0.380648 0.516309 0.000000
0.453672 0.540116 0.000000
0.530676 0.560600 0.000000
0.606945 0.582005 0.000000
0.677228 0.600003 0.000000
0.742325 0.615561 0.000000
0.788222 0.627092 0.000000
0.831211 0.637861 0.000000
0.861935 0.645691 0.000000
0.891860 0.654537 0.000000
0.912931 0.661377 0.000000
0.929697 0.668973 0.000000
0.944235 0.675036 0.000000
0.954199 0.681683 0.000000
0.963550 0.686892 0.000000
0.969665 0.691974 0.000000
0.975926 0.698193 0.000000
0.980123 0.702499 0.000000
0.983738 0.707549 0.000000
0.986547 0.710866 0.000000
0.000000 0.373514 0.141364
0.000000 0.377283 0.136149
0.000000 0.380439 0.127949
0.000000 0.382645 0.114950
0.000000 0.384862 0.086329
0.000000 0.387299 0.000000
0.000000 0.399115 0.000000
0.000000 0.412525 0.000000
0.000000 0.435492 0.000000
0.000000 0.456806 0.000000
0.143137 0.481132 0.000000
0.239528 0.506391 0.000000
0.319819 0.532538 0.000000
0.397803 0.555647 0.000000
0.475945 0.580225 0.000000
0.552792 0.602263 0.000000
0.632081 0.623541 0.000000
0.700661 0.641593 0.000000
0.765115 0.658556 0.000000
0.809758 0.669592 0.000000
0.852346 0.678944 0.000000
0.882296 0.687942 0.000000
0.910626 0.695144 0.000000
0.930247 0.702027 0.000000
0.945786 0.707258 0.000000
0.959086 0.712876 0.000000
0.968159 0.717019 0.000000
0.976613 0.721108 0.000000
0.982593 0.726426 0.000000
0.988154 0.730788 0.000000
0.992128 0.734947 0.000000
0.995299 0.737938 0.000000
0.997870 0.740919 0.000000
0.000000 0.399544 0.140430
0.000000 0.403688 0.135190
0.000000 0.407242 0.125332
0.000000 0.411267 0.110417
0.000000 0.414745 0.074580
0.000000 0.418593 0.000000
0.000000 0.432101 0.000000
0.000000 0.445697 0.000000
0.000000 0.470094 0.000000
0.000000 0.492840 0.000000
0.147655 0.517011 0.000000
0.250436 0.542506 0.000000
0.334749 0.568002 0.000000
0.415228 0.592082 0.000000
0.495610 0.615380 0.000000
0.574035 0.637549 0.000000
0.653059 0.659040 0.000000
0.721126 0.676020 0.000000
0.781610 0.690097 0.000000
0.826229 0.700477 0.000000
0.867324 0.710385 0.000000
0.897372 0.718117 0.000000
0.926656 0.726513 0.000000
0.943434 0.731750 0.000000
0.958835 0.737425 0.000000
0.970292 0.741353 0.000000
0.979156 0.744789 0.000000
0.987178 0.749464 0.000000
0.992873 0.753820 0.000000
0.998633 0.758923 0.000000
1.002202 0.761931 0.000000
1.006002 0.765645 0.000000
1.007696 0.767154 0.000000
0.000000 0.424721 0.139427
0.000000 0.428565 0.134273
0.000000 0.432052 0.122313
0.000000 0.435424 0.105778
0.000000 0.439066 0.059926
0.000000 0.443665 0.000000
0.000000 0.457485 0.000000
0.000000 0.472844 0.000000
0.000000 0.497227 0.000000
0.000000 0.519978 0.000000
0.156414 0.545393 0.000000
0.262904 0.570764 0.000000
0.350069 0.596210 0.000000
0.432459 0.620677 0.000000
0.512657 0.645037 0.000000
0.594893 0.668958 0.000000
0.672285 0.688859 0.000000
0.739451 0.705262 0.000000
0.796712 0.719227 0.000000
0.841925 0.730002 0.000000
0.880547 0.739112 0.000000
0.911528 0.748050 0.000000
0.940481 0.755306 0.000000
0.955156 0.759612 0.000000
0.970443 0.763587 0.000000
0.980334 0.766206 0.000000
0.989132 0.769209 0.000000
0.995965 0.772021 0.000000
1.001598 0.776111 0.000000
1.006445 0.779375 0.000000
1.009883 0.782207 0.000000
1.013094 0.784437 0.000000
1.014472 0.786005 0.000000
0.000000 0.443792 0.139575
0.000000 0.448140 0.133750
0.000000 0.452234 0.119400
0.000000 0.456404 0.099985
0.000000 0.461171 0.023789
0.000000 0.467652 0.000000
0.000000 0.481604 0.000000
0.000000 0.499261 0.000000
0.000000 0.524138 0.000000
0.000000 0.547655 0.000000
0.166870 0.572866 0.000000
0.276459 0.597807 0.000000
0.365772 0.622631 0.000000
0.449887 0.647713 0.000000
0.531672 0.671434 0.000000
0.614386 0.694654 0.000000
0.688387 0.713801 0.000000
0.755074 0.728843 0.000000
0.810987 0.741289 0.000000
0.854899 0.750914 0.000000
0.892496 0.759150 0.000000
0.922464 0.766563 0.000000
0.947984 0.772597 0.000000
0.963834 0.777260 0.000000
0.979656 0.781457 0.000000
0.988587 0.784382 0.000000
0.997186 0.786761 0.000000
1.003532 0.790045 0.000000
1.008560 0.793038 0.000000
1.012910 0.795946 0.000000
1.016235 0.798712 0.000000
1.019314 0.801029 0.000000
1.020566 0.803039 0.000000
0.000000 0.462964 0.139744
0.000000 0.466860 0.132831
0.000000 0.471068 0.116992
0.000000 0.475710 0.091154
0.000000 0.479710 0.000000
0.000000 0.487308 0.000000
0.000000 0.500795 0.000000
0.000000 0.520093 0.000000
0.000000 0.544547 0.000000
0.000000 0.568770 0.000000
0.188261 0.593002 0.000000
0.290222 0.617396 0.000000
0.379800 0.642533 0.000000
0.464570 0.668585 0.000000
0.549547 0.691819 0.000000
0.632697 0.714829 0.000000
0.705199 0.733213 0.000000
0.772278 0.749543 0.000000
0.824894 0.760700 0.000000
0.868909 0.770263 0.000000
0.903976 0.778312 0.000000
0.932923 0.784646 0.000000
0.956175 0.790654 0.000000
0.972473 0.794989 0.000000
0.987566 0.798591 0.000000
0.996095 0.800858 0.000000
1.004469 0.802761 0.000000
1.009763 0.805323 0.000000
1.014447 0.807509 0.000000
1.018392 0.809835 0.000000
1.021251 0.811539 0.000000
1.023889 0.813572 0.000000
1.025012 0.814786 0.000000
0.000000 0.476543 0.139685
0.000000 0.480330 0.131846
0.000000 0.485050 0.113601
0.000000 0.489850 0.082978
0.000000 0.494799 0.000000
0.000000 0.504172 0.000000
0.000000 0.517734 0.000000
0.000000 0.539175 0.000000
0.000000 0.563842 0.000000
0.000000 0.588659 0.000000
0.204442 0.612313 0.000000
0.307510 0.638034 0.000000
0.396747 0.663098 0.000000
0.481781 0.688956 0.000000
0.567397 0.711320 0.000000
0.650443 0.733116 0.000000
0.718896 0.749688 0.000000
0.787960 0.766021 0.000000
0.835955 0.776136 0.000000
0.881045 0.784998 0.000000
0.913479 0.791605 0.000000
0.942230 0.797285 0.000000
0.962953 0.802090 0.000000
0.979077 0.805991 0.000000
0.992831 0.809559 0.000000
1.001547 0.811690 0.000000
1.009977 0.814003 0.000000
1.014580 0.816101 0.000000
1.019044 0.818049 0.000000
1.022366 0.819944 0.000000
1.025164 0.821459 0.000000
1.027449 0.823202 0.000000
1.028816 0.824595 0.000000
0.000000 0.490621 0.139679
0.000000 0.494117 0.130210
0.000000 0.498193 0.110427
0.000000 0.502781 0.070539
0.000000 0.507786 0.000000
0.000000 0.518554 0.000000
0.000000 0.531837 0.000000
0.000000 0.555341 0.000000
0.000000 0.580449 0.000000
0.000000 0.603960 0.000000
0.225727 0.628464 0.000000
0.325732 0.653441 0.000000
0.414478 0.678038 0.000000
0.499490 0.702946 0.000000
0.584444 0.725457 0.000000
0.663967 0.746506 0.000000
0.733466 0.762724 0.000000
0.801802 0.778739 0.000000
0.847081 0.788246 0.000000
0.892219 0.797400 0.000000
0.922447 0.803386 0.000000
0.951312 0.809123 0.000000
0.969605 0.813186 0.000000
0.985614 0.817054 0.000000
0.997761 0.820270 0.000000
1.006672 0.822361 0.000000
1.014734 0.824362 0.000000
1.018978 0.825890 0.000000
1.023461 0.827794 0.000000
1.026132 0.828923 0.000000
1.028319 0.830345 0.000000
1.029486 0.831330 0.000000
1.030338 0.832446 0.000000
0.000000 0.499526 0.140991
0.000000 0.502847 0.130082
0.000000 0.507195 0.108188
0.000000 0.512028 0.057170
0.000000 0.517096 0.000000
0.000000 0.529185 0.000000
0.000000 0.543323 0.000000
0.000000 0.569680 0.000000
0.000000 0.594579 0.000000
0.095287 0.619478 0.000000
0.246295 0.644158 0.000000
0.343899 0.668569 0.000000
0.432188 0.693080 0.000000
0.516962 0.716959 0.000000
0.598358 0.738468 0.000000
0.678182 0.759139 0.000000
0.747246 0.774594 0.000000
0.810672 0.788853 0.000000
0.857424 0.798367 0.000000
0.900825 0.807012 0.000000
0.929706 0.812148 0.000000
0.958701 0.817502 0.000000
0.975606 0.821060 0.000000
0.990748 0.824529 0.000000
1.001992 0.827017 0.000000
1.010785 0.829059 0.000000
1.018053 0.830972 0.000000
1.022623 0.832706 0.000000
1.027035 0.834714 0.000000
