transforms/MG04_grit_cold_d65_r709.cube
#  MG_04_D65_r709.cube
LUT_3D_SIZE 5
0.000000 0.000000 0.000000
0.039296 0.026629 0.010798
0.360390 0.062838 0.000000
0.598763 0.000000 0.000000
0.642005 0.000000 0.000000
0.000000 0.087947 0.043427
0.044292 0.097332 0.040502
0.450525 0.170352 0.000000
0.707983 0.160192 0.000000
0.747498 0.166412 0.000000
0.000000 0.261167 0.106706
0.000000 0.266015 0.000000
0.562546 0.431658 0.000000
0.851208 0.480816 0.000000
0.889676 0.499946 0.000000
0.000000 0.474382 0.122977
0.000000 0.487197 0.000000
0.655107 0.719128 0.000000
0.959197 0.778763 0.000000
0.991998 0.787016 0.000000
0.000000 0.514179 0.120657
0.000000 0.532734 0.000000
0.686691 0.775222 0.000000
0.983215 0.833716 0.000000
1.015188 0.839244 0.000000
0.014615 0.030686 0.072542
0.051174 0.038121 0.070437
0.393932 0.052317 0.066396
0.636758 0.000000 0.000000
0.675579 0.000000 0.000000
0.000000 0.101279 0.101375
0.018849 0.106781 0.097529
0.488537 0.179755 0.077584
0.747478 0.161794 0.000000
0.784248 0.170182 0.000000
0.000000 0.310699 0.186823
0.000000 0.307702 0.138692
0.606614 0.469013 0.000000
0.894413 0.513756 0.000000
0.929162 0.531527 0.000000
0.000000 0.522771 0.241961
0.000000 0.536039 0.172997
0.678866 0.747676 0.000000
0.991426 0.806076 0.000000
1.023757 0.815047 0.000000
0.000000 0.568278 0.286536
0.000000 0.587731 0.206032
0.693104 0.800994 0.000000
1.003062 0.859552 0.000000
1.025676 0.866697 0.000000
0.052350 0.000000 0.377964
0.093024 0.000000 0.395344
0.431519 0.000000 0.478970
0.675237 0.000000 0.509749
0.715184 0.000000 0.521205
0.000000 0.150114 0.454704
0.000000 0.142295 0.476002
0.514469 0.207484 0.578685
0.785408 0.197634 0.614434
0.822248 0.214433 0.630956
0.000000 0.427082 0.591573
0.000000 0.447379 0.611579
0.588847 0.574860 0.677904
0.903749 0.622846 0.713673
0.941089 0.643596 0.727066
0.000000 0.666483 0.706385
0.000000 0.700837 0.722507
0.605674 0.863405 0.736783
0.965996 0.921092 0.763062
1.000824 0.929685 0.777013
0.000000 0.701366 0.740532
0.000000 0.743793 0.756055
0.612130 0.911173 0.776073
0.971435 0.968813 0.803811
1.005327 0.974788 0.814752
0.156456 0.000000 0.503127
0.183972 0.000000 0.521035
0.458080 0.000000 0.643354
0.701161 0.000000 0.685317
0.740743 0.000000 0.695875
0.000000 0.166823 0.600679
0.000000 0.165435 0.627759
0.526166 0.239550 0.775122
0.806923 0.242738 0.817346
0.844560 0.267011 0.829043
0.000000 0.449795 0.721876
0.000000 0.477607 0.751140
0.571902 0.627112 0.894265
0.905942 0.673686 0.932315
0.944764 0.693617 0.940367
0.000000 0.670784 0.814692
0.000000 0.708623 0.841493
0.564870 0.894313 0.944209
0.954584 0.953300 0.978315
0.992062 0.959505 0.982854
0.000000 0.701504 0.830415
0.000000 0.749820 0.860452
0.576787 0.935253 0.954165
0.958361 0.992388 0.986719
0.998410 0.997034 0.989599
0.159457 0.000000 0.511659
0.182033 0.000000 0.530787
0.463400 0.000000 0.657238
0.705542 0.000000 0.701030
0.745768 0.000000 0.710483
0.000000 0.174477 0.611983
0.000000 0.178457 0.639136
0.531716 0.254832 0.789972
0.810551 0.266456 0.831802
0.849089 0.288079 0.844412
0.000000 0.455570 0.730765
0.000000 0.481057 0.758177
0.570051 0.629710 0.904132
0.905264 0.680527 0.944163
0.944736 0.700203 0.951760
0.000000 0.670852 0.822077
0.000000 0.708290 0.846665
0.558985 0.894812 0.954504
0.952277 0.953908 0.988975
0.991570 0.961093 0.994204
0.000000 0.700808 0.834695
0.000000 0.749789 0.866000
0.575720 0.935218 0.963982
0.957764 0.994279 0.995972
0.996537 0.998967 1.000045
