transforms/MG04_grit_cold_d65_r709.cube
#  MG_04_D65_r709.cube
LUT_3D_SIZE 9
0.000000 0.000000 0.000000
0.002877 0.003271 0.002067
0.039296 0.026629 0.010798
0.162627 0.062760 0.000000
0.360390 0.062838 0.000000
0.522039 0.000000 0.000000
0.598763 0.000000 0.000000
0.627837 0.000000 0.000000
0.642005 0.000000 0.000000
0.000000 0.018313 0.008383
0.000000 0.018313 0.008383
0.038923 0.042844 0.017327
0.180980 0.088892 0.000000
0.403094 0.105086 0.000000
0.575816 0.055344 0.000000
0.652291 0.000000 0.000000
0.680021 0.000000 0.000000
0.692349 0.000000 0.000000
0.000000 0.087947 0.043427
0.000000 0.087947 0.043427
0.044292 0.097332 0.040502
0.202653 0.139857 0.000000
0.450525 0.170352 0.000000
0.630240 0.165004 0.000000
0.707983 0.160192 0.000000
0.735058 0.163574 0.000000
0.747498 0.166412 0.000000
0.000000 0.143617 0.056599
0.000000 0.143617 0.056599
0.000000 0.155088 0.044142
0.222669 0.214713 0.000000
0.500264 0.266813 0.000000
0.691128 0.280721 0.000000
0.771675 0.289670 0.000000
0.798236 0.298562 0.000000
0.810332 0.305255 0.000000
0.000000 0.261167 0.106706
0.000000 0.261167 0.106706
0.000000 0.266015 0.000000
0.232101 0.350575 0.000000
0.562546 0.431658 0.000000
0.769705 0.465318 0.000000
0.851208 0.480816 0.000000
0.878693 0.492792 0.000000
0.889676 0.499946 0.000000
0.000000 0.402219 0.130905
0.000000 0.402219 0.130905
0.000000 0.406682 0.000000
0.218347 0.504102 0.000000
0.619971 0.612803 0.000000
0.838818 0.657158 0.000000
0.920740 0.674543 0.000000
0.946377 0.682660 0.000000
0.956199 0.687520 0.000000
0.000000 0.474382 0.122977
0.000000 0.474382 0.122977
0.000000 0.487197 0.000000
0.198944 0.596012 0.000000
0.655107 0.719128 0.000000
0.876936 0.764249 0.000000
0.959197 0.778763 0.000000
0.982455 0.784878 0.000000
0.991998 0.787016 0.000000
0.000000 0.501885 0.120033
0.000000 0.501885 0.120033
0.000000 0.519233 0.000000
0.212928 0.636468 0.000000
0.673949 0.759878 0.000000
0.894496 0.805954 0.000000
0.975741 0.819211 0.000000
0.999261 0.823479 0.000000
1.007706 0.824969 0.000000
0.000000 0.514179 0.120657
0.000000 0.514179 0.120657
0.000000 0.532734 0.000000
0.248605 0.656990 0.000000
0.686691 0.775222 0.000000
0.903015 0.821109 0.000000
0.983215 0.833716 0.000000
1.007016 0.838240 0.000000
1.015188 0.839244 0.000000
0.002827 0.003368 0.002802
0.002827 0.003368 0.002802
0.039771 0.027118 0.014893
0.167136 0.060376 0.000000
0.368791 0.059388 0.000000
0.532183 0.000000 0.000000
0.608265 0.000000 0.000000
0.636431 0.000000 0.000000
0.649636 0.000000 0.000000
0.000000 0.018601 0.011389
0.000000 0.018601 0.011389
0.039274 0.043376 0.023391
0.185385 0.088428 0.000000
0.412728 0.105130 0.000000
0.587767 0.044021 0.000000
0.662594 0.000000 0.000000
0.689368 0.000000 0.000000
0.700765 0.000000 0.000000
0.000000 0.089492 0.050673
0.000000 0.089492 0.050673
0.045394 0.097204 0.047557
0.207498 0.140410 0.000000
0.459154 0.170665 0.000000
0.642532 0.162808 0.000000
0.718617 0.157807 0.000000
0.744878 0.161371 0.000000
0.756713 0.165975 0.000000
0.000000 0.147312 0.063036
0.000000 0.147312 0.063036
0.000000 0.156662 0.048225
0.229195 0.217893 0.000000
0.511615 0.270621 0.000000
0.705188 0.283492 0.000000
0.782345 0.291639 0.000000
0.808678 0.301368 0.000000
0.820919 0.309597 0.000000
0.000000 0.267879 0.111396
0.000000 0.267879 0.111396
0.000000 0.273470 0.000000
0.241211 0.359043 0.000000
0.577160 0.441532 0.000000
0.784345 0.474384 0.000000
0.864301 0.489144 0.000000
0.890701 0.500969 0.000000
0.901064 0.507039 0.000000
0.000000 0.409386 0.137433
0.000000 0.409386 0.137433
0.000000 0.413681 0.000000
0.226782 0.514509 0.000000
0.634949 0.622247 0.000000
0.852918 0.665764 0.000000
0.932453 0.682552 0.000000
0.958042 0.690671 0.000000
0.966921 0.694598 0.000000
0.000000 0.480668 0.132819
0.000000 0.480668 0.132819
0.000000 0.493502 0.000000
0.206886 0.603441 0.000000
0.668186 0.725551 0.000000
0.889685 0.770579 0.000000
0.969999 0.785054 0.000000
0.993143 0.790139 0.000000
1.002828 0.792174 0.000000
0.000000 0.508122 0.134259
0.000000 0.508122 0.134259
0.000000 0.525360 0.000000
0.218957 0.642107 0.000000
0.684752 0.765716 0.000000
0.905575 0.810994 0.000000
0.985646 0.823232 0.000000
1.008826 0.828272 0.000000
1.017563 0.828794 0.000000
0.000000 0.520424 0.140660
0.000000 0.520424 0.140660
0.000000 0.539001 0.000000
0.257035 0.662155 0.000000
0.693486 0.778113 0.000000
0.911411 0.823350 0.000000
0.992284 0.836556 0.000000
1.016119 0.840866 0.000000
1.024289 0.841095 0.000000
0.014615 0.030686 0.072542
0.014615 0.030686 0.072542
0.051174 0.038121 0.070437
0.179482 0.060798 0.081887
0.393932 0.052317 0.066396
0.561724 0.000000 0.000000
0.636758 0.000000 0.000000
0.663257 0.000000 0.000000
0.675579 0.000000 0.000000
0.000000 0.055333 0.080009
0.000000 0.055333 0.080009
0.048232 0.059393 0.080790
0.200289 0.094084 0.092463
0.441087 0.105911 0.073041
0.616655 0.000000 0.030093
0.690336 0.000000 0.000000
0.716307 0.000000 0.000000
0.728096 0.000000 0.000000
0.000000 0.101279 0.101375
0.000000 0.101279 0.101375
0.018849 0.106781 0.097529
0.221036 0.151613 0.102159
0.488537 0.179755 0.077584
0.673572 0.169428 0.000000
0.747478 0.161794 0.000000
0.772759 0.164312 0.000000
0.784248 0.170182 0.000000
0.000000 0.167418 0.128208
0.000000 0.167418 0.128208
0.000000 0.171968 0.112149
0.242256 0.235538 0.107538
0.542336 0.287523 0.044901
0.737040 0.300428 0.000000
0.812743 0.307424 0.000000
0.837268 0.315451 0.000000
0.848292 0.324732 0.000000
0.000000 0.310699 0.186823
0.000000 0.310699 0.186823
0.000000 0.307702 0.138692
0.249666 0.387373 0.077119
0.606614 0.469013 0.000000
0.815288 0.497483 0.000000
0.894413 0.513756 0.000000
0.919695 0.525547 0.000000
0.929162 0.531527 0.000000
0.000000 0.451631 0.225617
0.000000 0.451631 0.225617
0.000000 0.456687 0.165060
0.219787 0.546012 0.000000
0.655377 0.649391 0.000000
0.877586 0.688269 0.000000
0.960413 0.704731 0.000000
0.984085 0.713541 0.000000
0.992880 0.718816 0.000000
0.000000 0.522771 0.241961
0.000000 0.522771 0.241961
0.000000 0.536039 0.172997
0.182156 0.634999 0.000000
0.678866 0.747676 0.000000
0.908146 0.791160 0.000000
0.991426 0.806076 0.000000
1.015081 0.811724 0.000000
1.023757 0.815047 0.000000
0.000000 0.551635 0.260705
0.000000 0.551635 0.260705
0.000000 0.568071 0.184059
0.177467 0.671503 0.000000
0.687644 0.784609 0.000000
0.918308 0.829493 0.000000
1.002145 0.843337 0.000000
1.025560 0.848283 0.000000
1.028250 0.851386 0.000000
0.000000 0.568278 0.286536
0.000000 0.568278 0.286536
0.000000 0.587731 0.206032
0.208418 0.693108 0.000000
0.693104 0.800994 0.000000
0.918422 0.844331 0.000000
1.003062 0.859552 0.000000
1.026085 0.864203 0.000000
1.025676 0.866697 0.000000
0.000000 0.000000 0.196565
0.000000 0.000000 0.196565
0.052048 0.000000 0.208825
0.184576 0.038130 0.235889
0.409998 0.000000 0.254319
0.578298 0.000000 0.260308
0.653763 0.000000 0.266387
0.681837 0.000000 0.271983
0.694001 0.000000 0.277958
0.000000 0.062326 0.218436
0.000000 0.062326 0.218436
0.028507 0.063521 0.232572
0.204108 0.092160 0.263644
0.457099 0.099316 0.283575
0.633063 0.000000 0.290220
0.708603 0.000000 0.298480
0.734185 0.000000 0.305011
0.746117 0.000000 0.312644
0.000000 0.127542 0.248740
0.000000 0.127542 0.248740
0.000000 0.124943 0.259024
0.217822 0.166412 0.291109
0.502316 0.195182 0.311900
0.689935 0.185680 0.318734
0.764241 0.179906 0.328174
0.790928 0.184195 0.336745
0.801849 0.190486 0.344757
0.000000 0.222036 0.298149
0.000000 0.222036 0.298149
0.000000 0.222016 0.300276
0.224006 0.265627 0.316296
0.550144 0.318385 0.336035
0.749982 0.331535 0.341641
0.826842 0.340679 0.351909
0.852190 0.351701 0.360510
0.863249 0.360607 0.369332
0.000000 0.390534 0.383982
0.000000 0.390534 0.383982
0.000000 0.394982 0.375921
0.180328 0.431658 0.343844
0.605262 0.516616 0.357840
0.820588 0.543443 0.359738
0.901435 0.560702 0.366994
0.926905 0.573665 0.376323
0.936799 0.581968 0.386066
0.000000 0.533547 0.440117
0.000000 0.533547 0.440117
0.000000 0.549840 0.430407
0.000000 0.598470 0.363174
0.637239 0.702690 0.365159
0.872609 0.741975 0.363475
0.957047 0.758882 0.369457
0.982423 0.769111 0.380477
0.991534 0.774680 0.388520
0.000000 0.605773 0.474239
0.000000 0.605773 0.474239
0.000000 0.628392 0.460189
0.000000 0.689235 0.383852
0.649472 0.802254 0.380712
0.895631 0.844943 0.377907
0.984204 0.861407 0.385616
1.007528 0.867485 0.397712
1.015758 0.871083 0.405600
0.000000 0.635358 0.501143
0.000000 0.635358 0.501143
0.000000 0.660717 0.486953
0.000000 0.728137 0.413457
0.655181 0.841377 0.411945
0.902509 0.885401 0.411092
0.990625 0.900442 0.416516
1.014929 0.905738 0.428388
1.018220 0.908759 0.439117
0.000000 0.651123 0.530927
0.000000 0.651123 0.530927
0.000000 0.679685 0.512809
0.000000 0.749801 0.449624
0.655850 0.856953 0.452397
0.900739 0.901578 0.453654
0.989616 0.915068 0.459186
1.014123 0.920897 0.468449
1.015266 0.924580 0.480248
0.052350 0.000000 0.377964
0.052350 0.000000 0.377964
0.093024 0.000000 0.395344
0.210715 0.000000 0.442619
0.431519 0.000000 0.478970
0.600711 0.000000 0.499055
0.675237 0.000000 0.509749
0.702355 0.000000 0.516889
0.715184 0.000000 0.521205
0.000000 0.026627 0.411915
0.000000 0.026627 0.411915
0.000000 0.000000 0.431578
0.209926 0.000000 0.486693
0.473316 0.000000 0.528842
0.654301 0.000000 0.549619
0.731256 0.000000 0.562262
0.756050 0.000000 0.569468
0.767347 0.000000 0.575578
0.000000 0.150114 0.454704
0.000000 0.150114 0.454704
0.000000 0.142295 0.476002
0.204414 0.176771 0.534346
0.514469 0.207484 0.578685
0.707097 0.198874 0.601100
0.785408 0.197634 0.614434
0.811304 0.204940 0.623915
0.822248 0.214433 0.630956
0.000000 0.258668 0.509114
0.000000 0.258668 0.509114
0.000000 0.264899 0.529403
0.166480 0.304675 0.582257
0.555366 0.360565 0.631568
0.761456 0.374812 0.652172
0.842469 0.388810 0.667317
0.868773 0.400813 0.676439
0.878824 0.409604 0.682326
0.000000 0.427082 0.591573
0.000000 0.427082 0.591573
0.000000 0.447379 0.611579
0.000000 0.491619 0.635484
0.588847 0.574860 0.677904
0.820001 0.605357 0.701149
0.903749 0.622846 0.713673
0.930339 0.634763 0.720845
0.941089 0.643596 0.727066
0.000000 0.588068 0.668216
0.000000 0.588068 0.668216
0.000000 0.618205 0.685766
0.000000 0.668893 0.678878
0.600471 0.766655 0.714950
0.859081 0.807157 0.734461
0.947350 0.822477 0.743882
0.973794 0.831413 0.752489
0.984016 0.836858 0.757842
0.000000 0.666483 0.706385
0.000000 0.666483 0.706385
0.000000 0.700837 0.722507
0.000000 0.756494 0.704434
0.605674 0.863405 0.736783
0.873388 0.906620 0.755466
0.965996 0.921092 0.763062
0.992059 0.926460 0.771984
1.000824 0.929685 0.777013
0.000000 0.693613 0.726115
0.000000 0.693613 0.726115
0.000000 0.729953 0.740629
0.000000 0.790440 0.722680
0.606243 0.898293 0.753470
0.877564 0.942365 0.773787
0.971225 0.956710 0.783756
0.997704 0.960862 0.789626
1.006460 0.962586 0.795833
0.000000 0.701366 0.740532
0.000000 0.701366 0.740532
0.000000 0.743793 0.756055
0.000000 0.806134 0.742711
0.612130 0.911173 0.776073
0.875423 0.954135 0.793394
0.971435 0.968813 0.803811
0.998306 0.972910 0.810222
1.005327 0.974788 0.814752
0.134761 0.000000 0.466586
0.134761 0.000000 0.466586
0.163415 0.000000 0.485707
0.247627 0.000000 0.540138
0.449063 0.000000 0.596178
0.617364 0.000000 0.622295
0.690403 0.000000 0.633185
0.716825 0.000000 0.639967
0.728645 0.000000 0.644738
0.007269 0.000000 0.509281
0.007269 0.000000 0.509281
0.029297 0.000000 0.532262
0.217823 0.000000 0.600452
0.486144 0.000000 0.656312
0.668539 0.000000 0.682668
0.744908 0.000000 0.695984
0.771573 0.000000 0.703440
0.782791 0.000000 0.708813
0.000000 0.153484 0.557165
0.000000 0.153484 0.557165
0.000000 0.150078 0.584467
0.192931 0.183469 0.658415
0.522667 0.219224 0.717994
0.718974 0.212962 0.744799
0.797992 0.214589 0.759522
0.824942 0.226078 0.767292
0.835163 0.236345 0.772197
0.000000 0.273565 0.610417
0.000000 0.273565 0.610417
0.000000 0.285308 0.637677
0.062548 0.329770 0.716512
0.555315 0.387523 0.778251
0.768716 0.406134 0.805315
0.851266 0.420027 0.819816
0.877592 0.432409 0.826440
0.887445 0.440605 0.831324
0.000000 0.439901 0.685529
0.000000 0.439901 0.685529
0.000000 0.464971 0.712732
0.000000 0.523205 0.775964
0.578692 0.608025 0.836517
0.818361 0.638229 0.862217
0.905409 0.655501 0.874623
0.932809 0.669127 0.880999
0.942093 0.675407 0.883904
0.000000 0.594599 0.753830
0.000000 0.594599 0.753830
0.000000 0.626982 0.778503
0.000000 0.695139 0.819953
0.579648 0.795122 0.874146
0.847903 0.834517 0.898001
0.942072 0.850180 0.908364
0.969076 0.858330 0.912864
0.978060 0.863289 0.915112
0.000000 0.669719 0.787923
0.000000 0.669719 0.787923
0.000000 0.707968 0.812067
0.000000 0.782018 0.842383
0.578663 0.887314 0.890839
0.859210 0.930241 0.913800
0.957719 0.945168 0.923186
0.984270 0.949748 0.929075
0.994205 0.952535 0.931295
0.000000 0.694462 0.800705
0.000000 0.694462 0.800705
0.000000 0.736280 0.826130
0.000000 0.813170 0.854469
0.581065 0.919895 0.900159
0.864025 0.962818 0.923650
0.962080 0.977513 0.933666
0.989674 0.981676 0.937728
0.998997 0.983295 0.939738
0.000000 0.702152 0.807495
0.000000 0.702152 0.807495
0.000000 0.749967 0.836319
0.000000 0.827419 0.864406
0.586055 0.929634 0.909183
0.863783 0.972635 0.931779
0.961912 0.987239 0.940757
0.990958 0.991565 0.945352
0.999996 0.992074 0.946296
0.156456 0.000000 0.503127
0.156456 0.000000 0.503127
0.183972 0.000000 0.521035
0.258737 0.000000 0.579141
0.458080 0.000000 0.643354
0.626866 0.000000 0.673155
0.701161 0.000000 0.685317
0.728460 0.000000 0.691503
0.740743 0.000000 0.695875
0.005842 0.000000 0.551556
0.005842 0.000000 0.551556
0.030499 0.000000 0.574223
0.216136 0.000000 0.648776
0.492132 0.000000 0.710295
0.678119 0.000000 0.737863
0.755174 0.000000 0.751569
0.782188 0.000000 0.758656
0.794234 0.000000 0.763930
0.000000 0.166823 0.600679
0.000000 0.166823 0.600679
0.000000 0.165435 0.627759
0.181003 0.200440 0.710009
0.526166 0.239550 0.775122
0.725697 0.237993 0.802999
0.806923 0.242738 0.817346
0.833371 0.255544 0.824271
0.844560 0.267011 0.829043
0.000000 0.288893 0.652819
0.000000 0.288893 0.652819
0.000000 0.300445 0.679096
0.000000 0.348791 0.768225
0.554120 0.409459 0.835163
0.772425 0.430668 0.864781
0.856595 0.443810 0.877680
0.883181 0.457441 0.883848
0.894896 0.468294 0.888077
0.000000 0.449795 0.721876
0.000000 0.449795 0.721876
0.000000 0.477607 0.751140
0.000000 0.539222 0.826219
0.571902 0.627112 0.894265
0.815877 0.658237 0.921466
0.905942 0.673686 0.932315
0.933968 0.686292 0.937355
0.944764 0.693617 0.940367
0.000000 0.598076 0.784666
0.000000 0.598076 0.784666
0.000000 0.631939 0.810683
0.000000 0.704489 0.867487
0.568614 0.806205 0.929694
0.843161 0.846231 0.955329
0.939764 0.862365 0.965071
0.967399 0.870190 0.968326
0.977528 0.873938 0.970307
0.000000 0.670784 0.814692
0.000000 0.670784 0.814692
0.000000 0.708623 0.841493
0.000000 0.787567 0.887840
0.564870 0.894313 0.944209
0.853861 0.937881 0.969124
0.954584 0.953300 0.978315
0.981768 0.957187 0.980966
0.992062 0.959505 0.982854
0.000000 0.693721 0.825363
0.000000 0.693721 0.825363
0.000000 0.737047 0.853637
0.000000 0.818288 0.896568
0.567439 0.925469 0.950751
0.856334 0.969295 0.974567
0.957436 0.983516 0.983764
0.986396 0.987655 0.986146
0.997084 0.989173 0.988211
0.000000 0.701504 0.830415
0.000000 0.701504 0.830415
0.000000 0.749820 0.860452
0.000000 0.831012 0.902235
0.576787 0.935253 0.954165
0.857221 0.978733 0.977251
0.958361 0.992388 0.986719
0.987960 0.995621 0.989308
0.998410 0.997034 0.989599
0.159457 0.000000 0.511659
0.159457 0.000000 0.511659
0.182033 0.000000 0.530787
0.258476 0.000000 0.591451
0.463400 0.000000 0.657238
0.629061 0.000000 0.687144
0.705542 0.000000 0.701030
0.733081 0.000000 0.706546
0.745768 0.000000 0.710483
0.000000 0.000000 0.564639
0.000000 0.000000 0.564639
0.017275 0.000000 0.587749
0.218270 0.000000 0.662825
0.497718 0.000000 0.725944
0.680485 0.000000 0.754078
0.759469 0.000000 0.768236
0.787280 0.000000 0.774927
0.798590 0.000000 0.778560
0.000000 0.174477 0.611983
0.000000 0.174477 0.611983
0.000000 0.178457 0.639136
0.183018 0.215906 0.723499
0.531716 0.254832 0.789972
0.728457 0.259923 0.818621
0.810551 0.266456 0.831802
0.837984 0.278004 0.839505
0.849089 0.288079 0.844412
0.000000 0.296297 0.663390
0.000000 0.296297 0.663390
0.000000 0.310291 0.689835
0.000000 0.360347 0.781790
0.554077 0.421501 0.848427
0.772327 0.444806 0.878883
0.858138 0.459105 0.891357
0.885853 0.471599 0.897953
0.897469 0.481956 0.902628
0.000000 0.455570 0.730765
0.000000 0.455570 0.730765
0.000000 0.481057 0.758177
0.000000 0.543683 0.837451
0.570051 0.629710 0.904132
0.812616 0.662387 0.932420
0.905264 0.680527 0.944163
0.934078 0.690840 0.948108
0.944736 0.700203 0.951760
0.000000 0.599998 0.790960
0.000000 0.599998 0.790960
0.000000 0.633778 0.818154
0.000000 0.706602 0.877486
0.564622 0.809574 0.940288
0.837982 0.847729 0.966763
0.937597 0.863618 0.976491
0.966490 0.871998 0.979963
0.977398 0.876764 0.981558
0.000000 0.670852 0.822077
0.000000 0.670852 0.822077
0.000000 0.708290 0.846665
0.000000 0.787746 0.896112
0.558985 0.894812 0.954504
0.848053 0.938585 0.980245
0.952277 0.953908 0.988975
0.980283 0.958446 0.991509
0.991570 0.961093 0.994204
0.000000 0.694258 0.832117
0.000000 0.694258 0.832117
0.000000 0.736053 0.858654
0.000000 0.816835 0.904412
0.562168 0.924215 0.959611
0.852292 0.969016 0.983921
0.956035 0.983735 0.992665
0.985239 0.988072 0.996040
0.995637 0.989589 0.997863
0.000000 0.700808 0.834695
0.000000 0.700808 0.834695
0.000000 0.749789 0.866000
0.000000 0.831193 0.910335
0.575720 0.935218 0.963982
0.856825 0.979556 0.987286
0.957764 0.994279 0.995972
0.987380 0.997518 0.998562
0.996537 0.998967 1.000045
0.159457 0.000000 0.511659
0.159457 0.000000 0.511659
0.182033 0.000000 0.530787
0.258476 0.000000 0.591451
0.463400 0.000000 0.657238
0.629061 0.000000 0.687144
0.705542 0.000000 0.701030
0.733081 0.000000 0.706546
0.745768 0.000000 0.710483
0.000000 0.000000 0.564639
0.000000 0.000000 0.564639
0.017275 0.000000 0.587749
0.218270 0.000000 0.662825
0.497718 0.000000 0.725944
0.680485 0.000000 0.754078
0.759469 0.000000 0.768236
0.787280 0.000000 0.774927
0.798590 0.000000 0.778560
0.000000 0.174477 0.611983
0.000000 0.174477 0.611983
0.000000 0.178457 0.639136
0.183018 0.215906 0.723499
0.531716 0.254832 0.789972
0.728457 0.259923 0.818621
0.810551 0.266456 0.831802
0.837984 0.278004 0.839505
0.849089 0.288079 0.844412
0.000000 0.296297 0.663390
0.000000 0.296297 0.663390
0.000000 0.310291 0.689835
0.000000 0.360347 0.781790
0.554077 0.421501 0.848427
0.772327 0.444806 0.878883
0.858138 0.459105 0.891357
0.885853 0.471599 0.897953
0.897469 0.481956 0.902628
0.000000 0.455570 0.730765
0.000000 0.455570 0.730765
0.000000 0.481057 0.758177
0.000000 0.543683 0.837451
0.570051 0.629710 0.904132
0.812616 0.662387 0.932420
0.905264 0.680527 0.944163
0.934078 0.690840 0.948108
0.944736 0.700203 0.951760
0.000000 0.599998 0.790960
0.000000 0.599998 0.790960
0.000000 0.633778 0.818154
0.000000 0.706602 0.877486
0.564622 0.809574 0.940288
0.837982 0.847729 0.966763
0.937597 0.863618 0.976491
0.966490 0.871998 0.979963
0.977398 0.876764 0.981558
0.000000 0.670852 0.822077
0.000000 0.670852 0.822077
0.000000 0.708290 0.846665
0.000000 0.787746 0.896112
0.558985 0.894812 0.954504
0.848053 0.938585 0.980245
0.952277 0.953908 0.988975
0.980283 0.958446 0.991509
0.991570 0.961093 0.994204
0.000000 0.694258 0.832117
0.000000 0.694258 0.832117
0.000000 0.736053 0.858654
0.000000 0.816835 0.904412
0.562168 0.924215 0.959611
0.852292 0.969016 0.983921
0.956035 0.983735 0.992665
0.985239 0.988072 0.996040
0.995637 0.989589 0.997863
0.000000 0.700808 0.834695
0.000000 0.700808 0.834695
0.000000 0.749789 0.866000
0.000000 0.831193 0.910335
0.575720 0.935218 0.963982
0.856825 0.979556 0.987286
0.957764 0.994279 0.995972
0.987380 0.997518 0.998562
0.996537 0.998967 1.000045
