transforms/MG04_grit_cold_d65_r709.cube
#  MG_04_D65_r709.cube
LUT_3D_SIZE 33
0.000000 0.000000 0.000000
0.000640 0.000729 0.000460
0.001358 0.001544 0.000975
0.002107 0.002395 0.001514
0.002877 0.003271 0.002067
0.004072 0.004218 0.002622
0.007825 0.006819 0.003978
0.019898 0.014446 0.007489
0.039296 0.026629 0.010798
0.062722 0.041851 0.008922
0.092910 0.053489 0.000000
0.127112 0.058338 0.000000
0.162627 0.062760 0.000000
0.203191 0.068191 0.000000
0.251096 0.074901 0.000000
0.305866 0.071426 0.000000
0.360390 0.062838 0.000000
0.411734 0.044257 0.000000
0.454568 0.000000 0.000000
0.491398 0.000000 0.000000
0.522039 0.000000 0.000000
0.547068 0.000000 0.000000
0.568364 0.000000 0.000000
0.584203 0.000000 0.000000
0.598763 0.000000 0.000000
0.607826 0.000000 0.000000
0.616901 0.000000 0.000000
0.622809 0.000000 0.000000
0.627837 0.000000 0.000000
0.632450 0.000000 0.000000
0.635822 0.000000 0.000000
0.639034 0.000000 0.000000
0.642005 0.000000 0.000000
0.000911 0.001284 0.000710
0.000911 0.001284 0.000710
0.001931 0.002720 0.001505
0.002996 0.004220 0.002335
0.004092 0.005763 0.003189
0.005737 0.007449 0.004053
0.008835 0.009330 0.004825
0.020336 0.017128 0.007923
0.039377 0.030894 0.011836
0.063727 0.046043 0.011151
0.095089 0.057240 0.000000
0.130039 0.061913 0.000000
0.167137 0.067610 0.000000
0.209024 0.074120 0.000000
0.257975 0.081735 0.000000
0.314199 0.079099 0.000000
0.370296 0.072054 0.000000
0.422913 0.058407 0.000000
0.466650 0.027882 0.000000
0.504085 0.000000 0.000000
0.534863 0.000000 0.000000
0.559708 0.000000 0.000000
0.580919 0.000000 0.000000
0.596782 0.000000 0.000000
0.611363 0.000000 0.000000
0.620444 0.000000 0.000000
0.629527 0.000000 0.000000
0.635286 0.000000 0.000000
0.640126 0.000000 0.000000
0.644554 0.000000 0.000000
0.647720 0.000000 0.000000
0.650770 0.000000 0.000000
0.653625 0.000000 0.000000
0.002363 0.004308 0.002114
0.002363 0.004308 0.002114
0.002363 0.004308 0.002114
0.003667 0.006684 0.003281
0.005009 0.009129 0.004481
0.007330 0.011744 0.005648
0.011680 0.014699 0.006703
0.020700 0.019958 0.008254
0.039272 0.035342 0.012766
0.064733 0.050414 0.013037
0.097351 0.061130 0.000000
0.133104 0.065525 0.000000
0.171861 0.072663 0.000000
0.215088 0.080234 0.000000
0.265063 0.088659 0.000000
0.322934 0.086775 0.000000
0.380633 0.081045 0.000000
0.434565 0.070513 0.000000
0.479207 0.051562 0.000000
0.517268 0.000000 0.000000
0.548148 0.000000 0.000000
0.572798 0.000000 0.000000
0.593930 0.000000 0.000000
0.609818 0.000000 0.000000
0.624417 0.000000 0.000000
0.633510 0.000000 0.000000
0.642607 0.000000 0.000000
0.648196 0.000000 0.000000
0.652835 0.000000 0.000000
0.657072 0.000000 0.000000
0.660028 0.000000 0.000000
0.662903 0.000000 0.000000
0.665649 0.000000 0.000000
0.003464 0.009741 0.004580
0.003464 0.009741 0.004580
0.003464 0.009741 0.004580
0.003464 0.009741 0.004580
0.004731 0.013303 0.006255
0.007660 0.017095 0.007884
0.013886 0.021202 0.009421
0.023470 0.025864 0.010712
0.039160 0.039121 0.014976
0.066085 0.054865 0.016458
0.100076 0.066626 0.009568
0.136499 0.072154 0.000000
0.176421 0.080482 0.000000
0.221464 0.089038 0.000000
0.273312 0.098214 0.000000
0.332621 0.097282 0.000000
0.391741 0.092963 0.000000
0.446985 0.084859 0.000000
0.492355 0.071922 0.000000
0.530814 0.048927 0.000000
0.561897 0.000000 0.000000
0.586552 0.000000 0.000000
0.607680 0.000000 0.000000
0.623600 0.000000 0.000000
0.638226 0.000000 0.000000
0.647330 0.000000 0.000000
0.656441 0.000000 0.000000
0.661858 0.000000 0.000000
0.666303 0.000000 0.000000
0.670392 0.000000 0.000000
0.673354 0.000000 0.000000
0.676189 0.000000 0.000000
0.678829 0.000000 0.000000
0.000000 0.018313 0.008383
0.000000 0.018313 0.008383
0.000000 0.018313 0.008383
0.000000 0.018313 0.008383
0.000000 0.018313 0.008383
0.005616 0.023518 0.010609
0.015190 0.028967 0.012736
0.027987 0.034802 0.014629
0.038923 0.042844 0.017327
0.067501 0.059301 0.019987
0.102897 0.072200 0.015510
0.139976 0.079422 0.000000
0.180980 0.088892 0.000000
0.227713 0.098369 0.000000
0.281764 0.108297 0.000000
0.342582 0.108223 0.000000
0.403094 0.105086 0.000000
0.459657 0.098730 0.000000
0.505763 0.089095 0.000000
0.544573 0.074503 0.000000
0.575816 0.055344 0.000000
0.600517 0.016977 0.000000
0.621687 0.000000 0.000000
0.637636 0.000000 0.000000
0.652291 0.000000 0.000000
0.661406 0.000000 0.000000
0.670529 0.000000 0.000000
0.675772 0.000000 0.000000
0.680021 0.000000 0.000000
0.683962 0.000000 0.000000
0.686928 0.000000 0.000000
0.689766 0.000000 0.000000
0.692349 0.000000 0.000000
0.000000 0.030303 0.014204
0.000000 0.030303 0.014204
0.000000 0.030303 0.014204
0.000000 0.030303 0.014204
0.000000 0.030303 0.014204
0.000000 0.030474 0.014097
0.013958 0.037574 0.016946
0.031240 0.045109 0.019632
0.043271 0.054147 0.022546
0.068544 0.066363 0.023581
0.105620 0.080529 0.020445
0.143669 0.089377 0.000000
0.186213 0.099569 0.000000
0.234305 0.109421 0.000000
0.290585 0.119648 0.000000
0.352989 0.120910 0.000000
0.414815 0.119530 0.000000
0.472418 0.115414 0.000000
0.518997 0.108403 0.000000
0.557902 0.098505 0.000000
0.589565 0.087639 0.000000
0.614556 0.075933 0.000000
0.635640 0.063194 0.000000
0.651527 0.050178 0.000000
0.666121 0.029464 0.000000
0.675184 0.000000 0.000000
0.684194 0.000000 0.000000
0.689560 0.000000 0.000000
0.693797 0.000000 0.000000
0.697626 0.000000 0.000000
0.700599 0.000000 0.000000
0.703441 0.000000 0.000000
0.705958 0.000000 0.000000
0.000000 0.046277 0.022699
0.000000 0.046277 0.022699
0.000000 0.046277 0.022699
0.000000 0.046277 0.022699
0.000000 0.046277 0.022699
0.000000 0.046372 0.022417
0.004968 0.046895 0.022115
0.032861 0.056829 0.025843
0.047300 0.068641 0.029283
0.069031 0.075265 0.027374
0.107965 0.091806 0.025117
0.147558 0.102038 0.000000
0.191747 0.112728 0.000000
0.241622 0.122764 0.000000
0.300011 0.132575 0.000000
0.364067 0.135343 0.000000
0.427173 0.135821 0.000000
0.485656 0.134026 0.000000
0.532729 0.129673 0.000000
0.571496 0.122917 0.000000
0.603304 0.116066 0.000000
0.628765 0.109431 0.000000
0.650119 0.103442 0.000000
0.665803 0.099103 0.000000
0.680181 0.094695 0.000000
0.689075 0.091466 0.000000
0.697915 0.088403 0.000000
0.703334 0.088740 0.000000
0.707749 0.090233 0.000000
0.711753 0.091203 0.000000
0.714732 0.090464 0.000000
0.717582 0.089753 0.000000
0.720042 0.089892 0.000000
0.000000 0.066573 0.033755
0.000000 0.066573 0.033755
0.000000 0.066573 0.033755
0.000000 0.066573 0.033755
0.000000 0.066573 0.033755
0.000000 0.066553 0.033133
0.000000 0.067239 0.032767
0.032910 0.069237 0.032716
0.050232 0.084380 0.036529
0.075731 0.092100 0.034309
0.110061 0.102702 0.029307
0.151130 0.114199 0.014125
0.196921 0.125340 0.000000
0.248680 0.135479 0.000000
0.309139 0.144879 0.000000
0.374513 0.148903 0.000000
0.438984 0.151004 0.000000
0.498380 0.151176 0.000000
0.545868 0.148749 0.000000
0.584500 0.143993 0.000000
0.616486 0.139401 0.000000
0.642398 0.135189 0.000000
0.663967 0.131809 0.000000
0.679483 0.129894 0.000000
0.693687 0.128096 0.000000
0.702355 0.127313 0.000000
0.711012 0.126574 0.000000
0.716513 0.127460 0.000000
0.721083 0.128950 0.000000
0.725256 0.130059 0.000000
0.728239 0.129683 0.000000
0.731097 0.129314 0.000000
0.733555 0.129556 0.000000
0.000000 0.087947 0.043427
0.000000 0.087947 0.043427
0.000000 0.087947 0.043427
0.000000 0.087947 0.043427
0.000000 0.087947 0.043427
0.000000 0.088131 0.042681
0.000000 0.089362 0.042122
0.022845 0.092288 0.042032
0.044292 0.097332 0.040502
0.075484 0.105566 0.037702
0.112048 0.115973 0.031776
0.154413 0.127989 0.016030
0.202653 0.139857 0.000000
0.256110 0.151110 0.000000
0.317716 0.161635 0.000000
0.384696 0.166855 0.000000
0.450525 0.170352 0.000000
0.510864 0.171912 0.000000
0.559019 0.170925 0.000000
0.598146 0.167731 0.000000
0.630240 0.165004 0.000000
0.656239 0.162670 0.000000
0.678009 0.161074 0.000000
0.693681 0.160602 0.000000
0.707983 0.160192 0.000000
0.716637 0.160318 0.000000
0.725296 0.160591 0.000000
0.730604 0.161914 0.000000
0.735058 0.163574 0.000000
0.739162 0.164985 0.000000
0.742134 0.165478 0.000000
0.744975 0.165974 0.000000
0.747498 0.166412 0.000000
0.000000 0.098349 0.047304
0.000000 0.098349 0.047304
0.000000 0.098349 0.047304
0.000000 0.098349 0.047304
0.000000 0.098349 0.047304
0.000000 0.098725 0.046551
0.000000 0.100370 0.045899
0.000000 0.103959 0.045711
0.032841 0.109513 0.043985
0.073871 0.118219 0.040550
0.113373 0.128960 0.034004
0.157339 0.141426 0.016965
0.208075 0.153991 0.000000
0.262927 0.166029 0.000000
0.325845 0.177897 0.000000
0.394372 0.184321 0.000000
0.461525 0.189010 0.000000
0.522676 0.191611 0.000000
0.571470 0.191701 0.000000
0.611108 0.189651 0.000000
0.643475 0.188213 0.000000
0.669518 0.187281 0.000000
0.691416 0.187034 0.000000
0.707295 0.187657 0.000000
0.721722 0.188178 0.000000
0.730380 0.188900 0.000000
0.739043 0.189757 0.000000
0.744244 0.191403 0.000000
0.748490 0.193332 0.000000
0.752483 0.195021 0.000000
0.755443 0.196024 0.000000
0.758268 0.197143 0.000000
0.760842 0.197995 0.000000
0.000000 0.110859 0.051429
0.000000 0.110859 0.051429
0.000000 0.110859 0.051429
0.000000 0.110859 0.051429
0.000000 0.110859 0.051429
0.000000 0.111394 0.050567
0.000000 0.113331 0.049641
0.000000 0.117480 0.049108
0.000000 0.123616 0.047168
0.070116 0.132936 0.043047
0.114336 0.144215 0.035332
0.160277 0.157307 0.014128
0.213412 0.170880 0.000000
0.270561 0.183858 0.000000
0.335129 0.197134 0.000000
0.405314 0.204997 0.000000
0.473881 0.210913 0.000000
0.536130 0.214699 0.000000
0.585704 0.215884 0.000000
0.625907 0.214970 0.000000
0.658579 0.214701 0.000000
0.684634 0.215007 0.000000
0.706672 0.215849 0.000000
0.722807 0.217383 0.000000
0.737440 0.218887 0.000000
0.746098 0.220232 0.000000
0.754763 0.221609 0.000000
0.759884 0.223542 0.000000
0.763993 0.225666 0.000000
0.767795 0.227592 0.000000
0.770733 0.229139 0.000000
0.773545 0.230620 0.000000
0.776100 0.232037 0.000000
0.000000 0.126515 0.054040
0.000000 0.126515 0.054040
0.000000 0.126515 0.054040
0.000000 0.126515 0.054040
0.000000 0.126515 0.054040
0.000000 0.127063 0.052561
0.000000 0.128780 0.050426
0.000000 0.132525 0.048492
0.000000 0.138693 0.046107
0.062252 0.148801 0.040733
0.113902 0.161442 0.029749
0.162170 0.176104 0.000000
0.217962 0.191811 0.000000
0.277783 0.206399 0.000000
0.345028 0.220553 0.000000
0.416514 0.230009 0.000000
0.486581 0.237820 0.000000
0.550440 0.243275 0.000000
0.600970 0.245822 0.000000
0.641571 0.246032 0.000000
0.674319 0.246832 0.000000
0.700227 0.248103 0.000000
0.722386 0.249689 0.000000
0.738953 0.251619 0.000000
0.753974 0.253512 0.000000
0.762643 0.255200 0.000000
0.771316 0.256925 0.000000
0.776435 0.259049 0.000000
0.780534 0.261339 0.000000
0.784329 0.263430 0.000000
0.787270 0.264952 0.000000
0.790084 0.266409 0.000000
0.792638 0.267833 0.000000
0.000000 0.143617 0.056599
0.000000 0.143617 0.056599
0.000000 0.143617 0.056599
0.000000 0.143617 0.056599
0.000000 0.143617 0.056599
0.000000 0.144150 0.054439
0.000000 0.145590 0.050755
0.000000 0.148846 0.047159
0.000000 0.155088 0.044142
0.049562 0.166161 0.036852
0.112650 0.180273 0.017479
0.163682 0.196521 0.000000
0.222669 0.214713 0.000000
0.285456 0.230851 0.000000
0.355305 0.245836 0.000000
0.428544 0.257121 0.000000
0.500264 0.266813 0.000000
0.565865 0.273904 0.000000
0.617323 0.277699 0.000000
0.658353 0.278940 0.000000
0.691128 0.280721 0.000000
0.716875 0.282873 0.000000
0.739253 0.285102 0.000000
0.756297 0.287407 0.000000
0.771675 0.289670 0.000000
0.780354 0.291662 0.000000
0.789038 0.293714 0.000000
0.794147 0.296082 0.000000
0.798236 0.298562 0.000000
0.802021 0.300796 0.000000
0.804964 0.302315 0.000000
0.807780 0.303768 0.000000
0.810332 0.305255 0.000000
0.000000 0.167333 0.064386
0.000000 0.167333 0.064386
0.000000 0.167333 0.064386
0.000000 0.167333 0.064386
0.000000 0.167333 0.064386
0.000000 0.168061 0.061667
0.000000 0.169369 0.054905
0.000000 0.172024 0.046220
0.000000 0.178417 0.037767
0.000000 0.191057 0.023607
0.105365 0.206469 0.000000
0.162190 0.223994 0.000000
0.226767 0.244287 0.000000
0.293783 0.262483 0.000000
0.367139 0.278988 0.000000
0.442198 0.292031 0.000000
0.515375 0.303414 0.000000
0.582236 0.311812 0.000000
0.635073 0.317108 0.000000
0.677190 0.319764 0.000000
0.710305 0.322381 0.000000
0.736084 0.325201 0.000000
0.758467 0.328062 0.000000
0.775714 0.330799 0.000000
0.791286 0.333530 0.000000
0.799965 0.335988 0.000000
0.808642 0.338560 0.000000
0.813938 0.340979 0.000000
0.818156 0.343522 0.000000
0.821982 0.345865 0.000000
0.824753 0.347579 0.000000
0.827396 0.349226 0.000000
0.829910 0.350686 0.000000
0.000000 0.193306 0.074204
0.000000 0.193306 0.074204
0.000000 0.193306 0.074204
0.000000 0.193306 0.074204
0.000000 0.193306 0.074204
0.000000 0.194300 0.071028
0.000000 0.195554 0.061356
0.000000 0.197578 0.044985
0.000000 0.204121 0.025050
0.000000 0.218477 0.000000
0.090672 0.235287 0.000000
0.158052 0.253735 0.000000
0.229631 0.276003 0.000000
0.301437 0.296029 0.000000
0.378876 0.314463 0.000000
0.455842 0.329226 0.000000
0.530485 0.342156 0.000000
0.598457 0.351647 0.000000
0.652491 0.358226 0.000000
0.695930 0.362338 0.000000
0.729618 0.365848 0.000000
0.755513 0.369185 0.000000
0.777991 0.372527 0.000000
0.795297 0.375674 0.000000
0.810911 0.378855 0.000000
0.819581 0.381829 0.000000
0.828250 0.384921 0.000000
0.833718 0.387465 0.000000
0.838158 0.389991 0.000000
0.842105 0.392369 0.000000
0.844667 0.394303 0.000000
0.847083 0.396189 0.000000
0.849479 0.397716 0.000000
0.000000 0.224239 0.088169
0.000000 0.224239 0.088169
0.000000 0.224239 0.088169
0.000000 0.224239 0.088169
0.000000 0.224239 0.088169
0.000000 0.225505 0.084579
0.000000 0.226747 0.073545
0.000000 0.227707 0.050387
0.000000 0.232815 0.000000
0.000000 0.248399 0.000000
0.059169 0.267015 0.000000
0.151370 0.286933 0.000000
0.231534 0.311016 0.000000
0.308281 0.332902 0.000000
0.389812 0.353374 0.000000
0.469452 0.369853 0.000000
0.546110 0.384497 0.000000
0.615445 0.395419 0.000000
0.670283 0.403120 0.000000
0.714634 0.408520 0.000000
0.749332 0.412942 0.000000
0.775673 0.416764 0.000000
0.797992 0.420456 0.000000
0.815146 0.423901 0.000000
0.830705 0.427355 0.000000
0.839378 0.430656 0.000000
0.848059 0.433959 0.000000
0.853536 0.436642 0.000000
0.858108 0.439176 0.000000
0.862195 0.441516 0.000000
0.864672 0.443428 0.000000
0.867046 0.445217 0.000000
0.869159 0.446907 0.000000
0.000000 0.261167 0.106706
0.000000 0.261167 0.106706
0.000000 0.261167 0.106706
0.000000 0.261167 0.106706
0.000000 0.261167 0.106706
0.000000 0.262729 0.102717
0.000000 0.263924 0.090406
0.000000 0.263774 0.064037
0.000000 0.266015 0.000000
0.000000 0.282016 0.000000
0.000000 0.302344 0.000000
0.140222 0.324706 0.000000
0.232101 0.350575 0.000000
0.314750 0.374374 0.000000
0.400197 0.397015 0.000000
0.483199 0.415260 0.000000
0.562546 0.431658 0.000000
0.633497 0.444313 0.000000
0.689365 0.453456 0.000000
0.734313 0.460092 0.000000
0.769705 0.465318 0.000000
0.796790 0.469587 0.000000
0.819282 0.473601 0.000000
0.835992 0.477214 0.000000
0.851208 0.480816 0.000000
0.859914 0.484172 0.000000
0.868628 0.487528 0.000000
0.874115 0.490240 0.000000
0.878693 0.492792 0.000000
0.882793 0.495112 0.000000
0.885292 0.496806 0.000000
0.887685 0.498383 0.000000
0.889676 0.499946 0.000000
0.000000 0.298701 0.120718
0.000000 0.298701 0.120718
0.000000 0.298701 0.120718
0.000000 0.298701 0.120718
0.000000 0.298701 0.120718
0.000000 0.300273 0.116298
0.000000 0.301307 0.104294
0.000000 0.300318 0.077103
0.000000 0.300336 0.000000
0.000000 0.315516 0.000000
0.000000 0.336839 0.000000
0.124054 0.361350 0.000000
0.230948 0.389203 0.000000
0.319759 0.414484 0.000000
0.409066 0.438822 0.000000
0.495642 0.458937 0.000000
0.577788 0.477111 0.000000
0.650349 0.491409 0.000000
0.707270 0.501605 0.000000
0.752831 0.509104 0.000000
0.788456 0.515095 0.000000
0.815826 0.519807 0.000000
0.838627 0.524098 0.000000
0.855010 0.527839 0.000000
0.869949 0.531495 0.000000
0.878699 0.534807 0.000000
0.887466 0.538058 0.000000
0.892699 0.540519 0.000000
0.897074 0.542874 0.000000
0.901121 0.545149 0.000000
0.903633 0.546747 0.000000
0.906039 0.548275 0.000000
0.908112 0.549692 0.000000
0.000000 0.341195 0.131029
0.000000 0.341195 0.131029
0.000000 0.341195 0.131029
0.000000 0.341195 0.131029
0.000000 0.341195 0.131029
0.000000 0.342474 0.126078
0.000000 0.343037 0.114718
0.000000 0.341414 0.090113
0.000000 0.339548 0.000000
0.000000 0.353153 0.000000
0.000000 0.374578 0.000000
0.096038 0.400886 0.000000
0.227710 0.431023 0.000000
0.323962 0.458020 0.000000
0.417372 0.483438 0.000000
0.508050 0.505624 0.000000
0.593469 0.525841 0.000000
0.667793 0.541874 0.000000
0.725924 0.553214 0.000000
0.772228 0.561265 0.000000
0.808043 0.567776 0.000000
0.835286 0.572938 0.000000
0.857918 0.577545 0.000000
0.874109 0.581393 0.000000
0.888907 0.585086 0.000000
0.897735 0.588167 0.000000
0.906574 0.591190 0.000000
0.911462 0.593226 0.000000
0.915415 0.595150 0.000000
0.919076 0.597035 0.000000
0.921592 0.598646 0.000000
0.924001 0.600185 0.000000
0.926148 0.601607 0.000000
0.000000 0.374680 0.133827
0.000000 0.374680 0.133827
0.000000 0.374680 0.133827
0.000000 0.374680 0.133827
0.000000 0.374680 0.133827
0.000000 0.376031 0.128391
0.000000 0.377131 0.116023
0.000000 0.376021 0.092081
0.000000 0.374664 0.000000
0.000000 0.387081 0.000000
0.000000 0.408825 0.000000
0.040153 0.436894 0.000000
0.223421 0.468718 0.000000
0.327235 0.497741 0.000000
0.424823 0.524720 0.000000
0.519140 0.548700 0.000000
0.607247 0.570389 0.000000
0.682703 0.587195 0.000000
0.741549 0.599259 0.000000
0.788161 0.607626 0.000000
0.824567 0.614227 0.000000
0.852053 0.619458 0.000000
0.874722 0.624257 0.000000
0.890873 0.628180 0.000000
0.905505 0.631893 0.000000
0.914134 0.634753 0.000000
0.922651 0.637567 0.000000
0.927765 0.639353 0.000000
0.931656 0.640921 0.000000
0.935142 0.642447 0.000000
0.937521 0.643922 0.000000
0.939784 0.645319 0.000000
0.941849 0.646659 0.000000
0.000000 0.402219 0.130905
0.000000 0.402219 0.130905
0.000000 0.402219 0.130905
0.000000 0.402219 0.130905
0.000000 0.402219 0.130905
0.000000 0.403889 0.124938
0.000000 0.405786 0.111111
0.000000 0.406177 0.083774
0.000000 0.406682 0.000000
0.000000 0.418750 0.000000
0.000000 0.440994 0.000000
0.000000 0.470860 0.000000
0.218347 0.504102 0.000000
0.329742 0.534847 0.000000
0.431693 0.564078 0.000000
0.529425 0.589795 0.000000
0.619971 0.612803 0.000000
0.696228 0.629832 0.000000
0.755436 0.642090 0.000000
0.802085 0.650615 0.000000
0.838818 0.657158 0.000000
0.866872 0.662161 0.000000
0.889896 0.666855 0.000000
0.906139 0.670830 0.000000
0.920740 0.674543 0.000000
0.928883 0.677193 0.000000
0.936915 0.679792 0.000000
0.942157 0.681355 0.000000
0.946377 0.682660 0.000000
0.950098 0.683936 0.000000
0.952268 0.685189 0.000000
0.954342 0.686392 0.000000
0.956199 0.687520 0.000000
0.000000 0.424195 0.129150
0.000000 0.424195 0.129150
0.000000 0.424195 0.129150
0.000000 0.424195 0.129150
0.000000 0.424195 0.129150
0.000000 0.425954 0.122434
0.000000 0.428459 0.106583
0.000000 0.430152 0.073573
0.000000 0.431403 0.000000
0.000000 0.443943 0.000000
0.000000 0.466655 0.000000
0.000000 0.497808 0.000000
0.212509 0.532394 0.000000
0.332177 0.564598 0.000000
0.439262 0.595673 0.000000
0.538754 0.622316 0.000000
0.630594 0.646040 0.000000
0.707486 0.663222 0.000000
0.766975 0.675452 0.000000
0.813624 0.683867 0.000000
0.850222 0.690632 0.000000
0.878304 0.695809 0.000000
0.901529 0.700257 0.000000
0.917910 0.703906 0.000000
0.932625 0.707346 0.000000
0.940637 0.709765 0.000000
0.948662 0.712127 0.000000
0.953588 0.713841 0.000000
0.957751 0.715221 0.000000
0.961486 0.716438 0.000000
0.963673 0.717284 0.000000
0.965765 0.718117 0.000000
0.967507 0.718911 0.000000
0.000000 0.444115 0.127805
0.000000 0.444115 0.127805
0.000000 0.444115 0.127805
0.000000 0.444115 0.127805
0.000000 0.444115 0.127805
0.000000 0.445885 0.120189
0.000000 0.448904 0.102021
0.000000 0.451915 0.060455
0.000000 0.453615 0.000000
0.000000 0.466660 0.000000
0.000000 0.490087 0.000000
0.000000 0.522161 0.000000
0.205768 0.558077 0.000000
0.334042 0.591722 0.000000
0.447082 0.624464 0.000000
0.547862 0.651705 0.000000
0.640437 0.675853 0.000000
0.717902 0.693165 0.000000
0.777636 0.705340 0.000000
0.824272 0.713527 0.000000
0.860722 0.720403 0.000000
0.888576 0.725945 0.000000
0.911757 0.730340 0.000000
0.928309 0.733464 0.000000
0.943172 0.736431 0.000000
0.951255 0.738606 0.000000
0.959353 0.740724 0.000000
0.964080 0.742583 0.000000
0.967948 0.744234 0.000000
0.971460 0.745595 0.000000
0.973732 0.745984 0.000000
0.975897 0.746395 0.000000
0.977646 0.746750 0.000000
0.000000 0.460094 0.125587
0.000000 0.460094 0.125587
0.000000 0.460094 0.125587
0.000000 0.460094 0.125587
0.000000 0.460094 0.125587
0.000000 0.461866 0.117014
0.000000 0.464895 0.096851
0.000000 0.468504 0.044368
0.000000 0.471407 0.000000
0.000000 0.485276 0.000000
0.000000 0.509165 0.000000
0.000000 0.541612 0.000000
0.201889 0.578174 0.000000
0.336083 0.612625 0.000000
0.452760 0.646476 0.000000
0.554898 0.674273 0.000000
0.648219 0.698894 0.000000
0.726060 0.716582 0.000000
0.786082 0.728928 0.000000
0.832872 0.737099 0.000000
0.869288 0.743613 0.000000
0.896999 0.748842 0.000000
0.920111 0.753182 0.000000
0.936749 0.756174 0.000000
0.951638 0.758951 0.000000
0.959596 0.760889 0.000000
0.967504 0.762766 0.000000
0.972088 0.764401 0.000000
0.975713 0.765975 0.000000
0.979025 0.767302 0.000000
0.981314 0.767635 0.000000
0.983504 0.767954 0.000000
0.985345 0.768222 0.000000
0.000000 0.474382 0.122977
0.000000 0.474382 0.122977
0.000000 0.474382 0.122977
0.000000 0.474382 0.122977
0.000000 0.474382 0.122977
0.000000 0.476157 0.113365
0.000000 0.479193 0.090887
0.000000 0.482970 0.000000
0.000000 0.487197 0.000000
0.000000 0.502061 0.000000
0.000000 0.526449 0.000000
0.000000 0.558976 0.000000
0.198944 0.596012 0.000000
0.338542 0.631100 0.000000
0.457738 0.665790 0.000000
0.561034 0.694061 0.000000
0.655107 0.719128 0.000000
0.733256 0.737240 0.000000
0.793511 0.749810 0.000000
0.840497 0.758031 0.000000
0.876936 0.764249 0.000000
0.904544 0.768947 0.000000
0.927622 0.773013 0.000000
0.944313 0.776024 0.000000
0.959197 0.778763 0.000000
0.966952 0.780473 0.000000
0.974659 0.782121 0.000000
0.979038 0.783530 0.000000
0.982455 0.784878 0.000000
0.985600 0.786028 0.000000
0.987895 0.786363 0.000000
0.990090 0.786682 0.000000
0.991998 0.787016 0.000000
0.000000 0.483776 0.120900
0.000000 0.483776 0.120900
0.000000 0.483776 0.120900
0.000000 0.483776 0.120900
0.000000 0.483776 0.120900
0.000000 0.485555 0.111230
0.000000 0.488766 0.086940
0.000000 0.492935 0.000000
0.000000 0.498108 0.000000
0.000000 0.513942 0.000000
0.000000 0.538791 0.000000
0.000000 0.571369 0.000000
0.199850 0.608851 0.000000
0.341849 0.644191 0.000000
0.462131 0.679143 0.000000
0.566056 0.707593 0.000000
0.660419 0.732786 0.000000
0.738483 0.751027 0.000000
0.798757 0.763869 0.000000
0.845822 0.772373 0.000000
0.882381 0.778512 0.000000
0.910057 0.782876 0.000000
0.933012 0.786746 0.000000
0.949519 0.789778 0.000000
0.964279 0.792535 0.000000
0.971992 0.794184 0.000000
0.979703 0.795831 0.000000
0.984104 0.796821 0.000000
0.987529 0.797760 0.000000
0.990656 0.798634 0.000000
0.992917 0.799175 0.000000
0.995089 0.799660 0.000000
0.996986 0.800072 0.000000
0.000000 0.491802 0.118916
0.000000 0.491802 0.118916
0.000000 0.491802 0.118916
0.000000 0.491802 0.118916
0.000000 0.491802 0.118916
0.000000 0.493584 0.109497
0.000000 0.496969 0.083760
0.000000 0.501658 0.000000
0.000000 0.507717 0.000000
0.000000 0.524455 0.000000
0.000000 0.549759 0.000000
0.000000 0.582379 0.000000
0.202050 0.620300 0.000000
0.345597 0.655877 0.000000
0.466450 0.690892 0.000000
0.570767 0.719393 0.000000
0.665313 0.744637 0.000000
0.743192 0.762930 0.000000
0.803399 0.775978 0.000000
0.850511 0.784823 0.000000
0.887160 0.790946 0.000000
0.914953 0.795037 0.000000
0.937840 0.798771 0.000000
0.954088 0.801828 0.000000
0.968648 0.804606 0.000000
0.976375 0.806260 0.000000
0.984097 0.807911 0.000000
0.988572 0.808536 0.000000
0.992090 0.808993 0.000000
