transforms/MG05_silver_sat_fpe_r709.cube
#  MG_05_FPE_r709.cube
LUT_3D_SIZE 33
0.000000 0.000000 0.000000
0.000000 0.000008 0.000026
0.000000 0.000016 0.000055
0.000000 0.000025 0.000085
0.000259 0.000000 0.000110
0.003514 0.000000 0.000000
0.014413 0.000000 0.000000
0.037614 0.000000 0.000000
0.075492 0.000000 0.000000
0.113187 0.000000 0.000000
0.154141 0.000000 0.000000
0.199277 0.000000 0.000000
0.253267 0.000000 0.000000
0.318456 0.000000 0.000000
0.392980 0.000000 0.000000
0.474492 0.000000 0.000000
0.563001 0.000000 0.000000
0.653237 0.000000 0.000000
0.737466 0.000000 0.000000
0.812167 0.000000 0.000000
0.877086 0.000000 0.000000
0.935857 0.000000 0.000000
0.986027 0.000000 0.000000
1.027249 0.000000 0.000000
1.057993 0.000000 0.000000
1.078484 0.000000 0.000000
1.087062 0.000000 0.000000
1.088126 0.000000 0.000000
1.088126 0.000000 0.000000
1.088126 0.000000 0.000000
1.088126 0.000000 0.000000
1.088126 0.000000 0.000000
1.088126 0.000000 0.000000
0.000000 0.000236 0.000000
0.000000 0.000236 0.000000
0.000000 0.000500 0.000000
0.000000 0.000776 0.000000
0.000000 0.001059 0.000000
0.003482 0.001134 0.000000
0.014406 0.000000 0.000000
0.037611 0.000000 0.000000
0.075491 0.000000 0.000000
0.113187 0.000000 0.000000
0.154140 0.000000 0.000000
0.199276 0.000000 0.000000
0.253267 0.000000 0.000000
0.318456 0.000000 0.000000
0.392980 0.000000 0.000000
0.474491 0.000000 0.000000
0.563001 0.000000 0.000000
0.653237 0.000000 0.000000
0.737466 0.000000 0.000000
0.812167 0.000000 0.000000
0.877086 0.000000 0.000000
0.935857 0.000000 0.000000
0.986027 0.000000 0.000000
1.027249 0.000000 0.000000
1.057993 0.000000 0.000000
1.078484 0.000000 0.000000
1.087062 0.000000 0.000000
1.088126 0.000000 0.000000
1.088126 0.000000 0.000000
1.088126 0.000000 0.000000
1.088126 0.000000 0.000000
1.088126 0.000000 0.000000
1.088126 0.000000 0.000000
0.000000 0.001917 0.000000
0.000000 0.001917 0.000000
0.000000 0.001917 0.000000
0.000000 0.002975 0.000000
0.000000 0.004063 0.000000
0.002529 0.005144 0.000000
0.014233 0.005591 0.000000
0.037544 0.000000 0.000000
0.075455 0.000000 0.000000
0.113166 0.000000 0.000000
0.154127 0.000000 0.000000
0.199267 0.000000 0.000000
0.253261 0.000000 0.000000
0.318451 0.000000 0.000000
0.392976 0.000000 0.000000
0.474489 0.000000 0.000000
0.562999 0.000000 0.000000
0.653235 0.000000 0.000000
0.737464 0.000000 0.000000
0.812166 0.000000 0.000000
0.877084 0.000000 0.000000
0.935856 0.000000 0.000000
0.986026 0.000000 0.000000
1.027248 0.000000 0.000000
1.057992 0.000000 0.000000
1.078483 0.000000 0.000000
1.087061 0.000000 0.000000
1.088125 0.000000 0.000000
1.088125 0.000000 0.000000
1.088125 0.000000 0.000000
1.088125 0.000000 0.000000
1.088125 0.000000 0.000000
1.088125 0.000000 0.000000
0.000000 0.006939 0.000000
0.000000 0.006939 0.000000
0.000000 0.006939 0.000000
0.000000 0.006939 0.000000
0.000000 0.009477 0.000000
0.000000 0.012058 0.000000
0.012951 0.014500 0.000000
0.037078 0.015673 0.000000
0.075209 0.009729 0.000000
0.113027 0.000000 0.000000
0.154037 0.000000 0.000000
0.199204 0.000000 0.000000
0.253216 0.000000 0.000000
0.318418 0.000000 0.000000
0.392952 0.000000 0.000000
0.474470 0.000000 0.000000
0.562984 0.000000 0.000000
0.653223 0.000000 0.000000
0.737454 0.000000 0.000000
0.812157 0.000000 0.000000
0.877076 0.000000 0.000000
0.935848 0.000000 0.000000
0.986019 0.000000 0.000000
1.027241 0.000000 0.000000
1.057986 0.000000 0.000000
1.078477 0.000000 0.000000
1.087055 0.000000 0.000000
1.088119 0.000000 0.000000
1.088119 0.000000 0.000000
1.088119 0.000000 0.000000
1.088119 0.000000 0.000000
1.088119 0.000000 0.000000
1.088119 0.000000 0.000000
0.000000 0.017321 0.000000
0.000000 0.017321 0.000000
0.000000 0.017321 0.000000
0.000000 0.017321 0.000000
0.000000 0.017321 0.000000
0.000000 0.022054 0.000000
0.003650 0.026789 0.000000
0.035257 0.031067 0.000000
0.074276 0.033552 0.000000
0.112502 0.027211 0.000000
0.153697 0.000000 0.000000
0.198967 0.000000 0.000000
0.253046 0.000000 0.000000
0.318296 0.000000 0.000000
0.392860 0.000000 0.000000
0.474400 0.000000 0.000000
0.562929 0.000000 0.000000
0.653178 0.000000 0.000000
0.737416 0.000000 0.000000
0.812124 0.000000 0.000000
0.877047 0.000000 0.000000
0.935821 0.000000 0.000000
0.985994 0.000000 0.000000
1.027217 0.000000 0.000000
1.057963 0.000000 0.000000
1.078455 0.000000 0.000000
1.087033 0.000000 0.000000
1.088097 0.000000 0.000000
1.088097 0.000000 0.000000
1.088097 0.000000 0.000000
1.088097 0.000000 0.000000
1.088097 0.000000 0.000000
1.088097 0.000000 0.000000
0.000000 0.034750 0.000000
0.000000 0.034750 0.000000
0.000000 0.034750 0.000000
0.000000 0.034750 0.000000
0.000000 0.034750 0.000000
0.000000 0.034748 0.000000
0.000000 0.042293 0.000000
0.029801 0.049670 0.000000
0.071786 0.056221 0.000000
0.111131 0.053444 0.000000
0.152815 0.047972 0.000000
0.198354 0.036477 0.000000
0.252609 0.000000 0.000000
0.317978 0.000000 0.000000
0.392624 0.000000 0.000000
0.474218 0.000000 0.000000
0.562786 0.000000 0.000000
0.653063 0.000000 0.000000
0.737318 0.000000 0.000000
0.812039 0.000000 0.000000
0.876970 0.000000 0.000000
0.935751 0.000000 0.000000
0.985928 0.000000 0.000000
1.027156 0.000000 0.000000
1.057904 0.000000 0.000000
1.078397 0.000000 0.000000
1.086976 0.000000 0.000000
1.088041 0.000000 0.000000
1.088041 0.000000 0.000000
1.088041 0.000000 0.000000
1.088041 0.000000 0.000000
1.088041 0.000000 0.000000
1.088041 0.000000 0.000000
0.000000 0.059525 0.000000
0.000000 0.059525 0.000000
0.000000 0.059525 0.000000
0.000000 0.059525 0.000000
0.000000 0.059525 0.000000
0.000000 0.059523 0.000000
0.000000 0.059497 0.000000
0.008753 0.070119 0.000000
0.066673 0.080310 0.000000
0.108449 0.078659 0.000000
0.151114 0.075617 0.000000
0.197177 0.070260 0.000000
0.251772 0.059610 0.000000
0.317373 0.029840 0.000000
0.392173 0.000000 0.000000
0.473872 0.000000 0.000000
0.562514 0.000000 0.000000
0.652842 0.000000 0.000000
0.737132 0.000000 0.000000
0.811876 0.000000 0.000000
0.876824 0.000000 0.000000
0.935618 0.000000 0.000000
0.985804 0.000000 0.000000
1.027039 0.000000 0.000000
1.057792 0.000000 0.000000
1.078288 0.000000 0.000000
1.086868 0.000000 0.000000
1.087933 0.000000 0.000000
1.087933 0.000000 0.000000
1.087933 0.000000 0.000000
1.087933 0.000000 0.000000
1.087933 0.000000 0.000000
1.087933 0.000000 0.000000
0.000000 0.092387 0.000000
0.000000 0.092387 0.000000
0.000000 0.092387 0.000000
0.000000 0.092387 0.000000
0.000000 0.092387 0.000000
0.000000 0.092386 0.000000
0.000000 0.092364 0.000000
0.000000 0.092234 0.000000
0.056745 0.106099 0.000000
0.103799 0.104989 0.000000
0.148241 0.102986 0.000000
0.195210 0.099604 0.000000
0.250379 0.093488 0.000000
0.316367 0.081762 0.000000
0.391426 0.056449 0.000000
0.473300 0.000000 0.000000
0.562063 0.000000 0.000000
0.652476 0.000000 0.000000
0.736824 0.000000 0.000000
0.811606 0.000000 0.000000
0.876582 0.000000 0.000000
0.935397 0.000000 0.000000
0.985599 0.000000 0.000000
1.026845 0.000000 0.000000
1.057606 0.000000 0.000000
1.078107 0.000000 0.000000
1.086689 0.000000 0.000000
1.087754 0.000000 0.000000
1.087754 0.000000 0.000000
1.087754 0.000000 0.000000
1.087754 0.000000 0.000000
1.087754 0.000000 0.000000
1.087754 0.000000 0.000000
0.000000 0.131215 0.000000
0.000000 0.131215 0.000000
0.000000 0.131215 0.000000
0.000000 0.131215 0.000000
0.000000 0.131215 0.000000
0.000000 0.131214 0.000000
0.000000 0.131196 0.000000
0.000000 0.131083 0.000000
0.037496 0.130716 0.000000
0.097104 0.129890 0.000000
0.144284 0.128411 0.000000
0.192543 0.125951 0.000000
0.248505 0.121633 0.000000
0.315019 0.113877 0.000000
0.390427 0.100114 0.000000
0.472534 0.073547 0.000000
0.561462 0.000000 0.000000
0.651988 0.000000 0.000000
0.736412 0.000000 0.000000
0.811247 0.000000 0.000000
0.876259 0.000000 0.000000
0.935102 0.000000 0.000000
0.985325 0.000000 0.000000
1.026586 0.000000 0.000000
1.057358 0.000000 0.000000
1.077865 0.000000 0.000000
1.086450 0.000000 0.000000
1.087515 0.000000 0.000000
1.087515 0.000000 0.000000
1.087515 0.000000 0.000000
1.087515 0.000000 0.000000
1.087515 0.000000 0.000000
1.087515 0.000000 0.000000
0.000000 0.158154 0.000000
0.000000 0.158154 0.000000
0.000000 0.158154 0.000000
0.000000 0.158154 0.000000
0.000000 0.158154 0.000000
0.000000 0.158153 0.000000
0.000000 0.158139 0.000000
0.000000 0.158052 0.000000
0.000000 0.157770 0.000000
0.086069 0.157136 0.000000
0.138267 0.156006 0.000000
0.188585 0.154143 0.000000
0.245754 0.150919 0.000000
0.313053 0.145293 0.000000
0.388973 0.135900 0.000000
0.471423 0.120472 0.000000
0.560589 0.092633 0.000000
0.651280 0.000000 0.000000
0.735815 0.000000 0.000000
0.810726 0.000000 0.000000
0.875792 0.000000 0.000000
0.934675 0.000000 0.000000
0.984928 0.000000 0.000000
1.026212 0.000000 0.000000
1.056998 0.000000 0.000000
1.077515 0.000000 0.000000
1.086104 0.000000 0.000000
1.087170 0.000000 0.000000
1.087170 0.000000 0.000000
1.087170 0.000000 0.000000
1.087170 0.000000 0.000000
1.087170 0.000000 0.000000
1.087170 0.000000 0.000000
0.000000 0.191063 0.000000
0.000000 0.191063 0.000000
0.000000 0.191063 0.000000
0.000000 0.191063 0.000000
0.000000 0.191063 0.000000
0.000000 0.191062 0.000000
0.000000 0.191051 0.000000
0.000000 0.190985 0.000000
0.000000 0.190768 0.000000
0.062629 0.190283 0.000000
0.127868 0.189420 0.000000
0.182044 0.188005 0.000000
0.241292 0.185577 0.000000
0.309891 0.181409 0.000000
0.386647 0.174659 0.000000
0.469648 0.164217 0.000000
0.559198 0.147876 0.000000
0.650153 0.122446 0.000000
0.734865 0.079530 0.000000
0.809897 0.000000 0.000000
0.875047 0.000000 0.000000
0.933996 0.000000 0.000000
0.984297 0.000000 0.000000
1.025616 0.000000 0.000000
1.056426 0.000000 0.000000
1.076959 0.000000 0.000000
1.085553 0.000000 0.000000
1.086620 0.000000 0.000000
1.086620 0.000000 0.000000
1.086620 0.000000 0.000000
1.086620 0.000000 0.000000
1.086620 0.000000 0.000000
1.086620 0.000000 0.000000
0.000000 0.229002 0.000000
0.000000 0.229002 0.000000
0.000000 0.229002 0.000000
0.000000 0.229002 0.000000
0.000000 0.229002 0.000000
0.000000 0.229002 0.000000
0.000000 0.228993 0.000000
0.000000 0.228941 0.000000
0.000000 0.228773 0.000000
0.000000 0.228397 0.000000
0.109672 0.227730 0.000000
0.171617 0.226638 0.000000
0.234406 0.224776 0.000000
0.305084 0.221607 0.000000
0.383137 0.216559 0.000000
0.466981 0.208967 0.000000
0.557112 0.197683 0.000000
0.648465 0.181859 0.000000
0.733444 0.161351 0.000000
0.808657 0.135423 0.000000
0.873935 0.100394 0.000000
0.932981 0.000000 0.000000
0.983354 0.000000 0.000000
1.024725 0.000000 0.000000
1.055572 0.000000 0.000000
1.076127 0.000000 0.000000
1.084731 0.000000 0.000000
1.085799 0.000000 0.000000
1.085799 0.000000 0.000000
1.085799 0.000000 0.000000
1.085799 0.000000 0.000000
1.085799 0.000000 0.000000
1.085799 0.000000 0.000000
0.000000 0.275018 0.000000
0.000000 0.275018 0.000000
0.000000 0.275018 0.000000
0.000000 0.275018 0.000000
0.000000 0.275018 0.000000
0.000000 0.275018 0.000000
0.000000 0.275011 0.000000
0.000000 0.274971 0.000000
0.000000 0.274841 0.000000
0.000000 0.274550 0.000000
0.066664 0.274035 0.000000
0.153236 0.273194 0.000000
0.223020 0.271763 0.000000
0.297340 0.269342 0.000000
0.377550 0.265524 0.000000
0.462762 0.259872 0.000000
0.553824 0.251689 0.000000
0.645810 0.240696 0.000000
0.731212 0.227412 0.000000
0.806710 0.212457 0.000000
0.872189 0.196204 0.000000
0.931388 0.177816 0.000000
0.981874 0.158015 0.000000
1.023329 0.137223 0.000000
1.054233 0.117160 0.000000
1.074823 0.099885 0.000000
1.083442 0.091063 0.000000
1.084511 0.089875 0.000000
1.084511 0.089875 0.000000
1.084511 0.089875 0.000000
1.084511 0.089875 0.000000
1.084511 0.089875 0.000000
1.084511 0.089875 0.000000
0.000000 0.325308 0.000000
0.000000 0.325308 0.000000
0.000000 0.325308 0.000000
0.000000 0.325308 0.000000
0.000000 0.325308 0.000000
0.000000 0.325307 0.000000
0.000000 0.325302 0.000000
0.000000 0.325270 0.000000
0.000000 0.325168 0.000000
0.000000 0.324938 0.000000
0.000000 0.324531 0.000000
0.120697 0.323868 0.000000
0.205614 0.322741 0.000000
0.286033 0.320843 0.000000
0.369553 0.317864 0.000000
0.456783 0.313494 0.000000
0.549189 0.307252 0.000000
0.642079 0.299038 0.000000
0.728079 0.289393 0.000000
0.803982 0.278946 0.000000
0.869745 0.268141 0.000000
0.929159 0.256696 0.000000
0.979804 0.245417 0.000000
1.021376 0.234893 0.000000
1.052359 0.226162 0.000000
1.073000 0.219856 0.000000
1.081639 0.217087 0.000000
1.082711 0.216738 0.000000
1.082711 0.216738 0.000000
1.082711 0.216738 0.000000
1.082711 0.216738 0.000000
1.082711 0.216738 0.000000
1.082711 0.216738 0.000000
0.000000 0.382617 0.000000
0.000000 0.382617 0.000000
0.000000 0.382617 0.000000
0.000000 0.382617 0.000000
0.000000 0.382617 0.000000
0.000000 0.382617 0.000000
0.000000 0.382613 0.000000
0.000000 0.382587 0.000000
0.000000 0.382506 0.000000
0.000000 0.382323 0.000000
0.000000 0.381999 0.000000
0.000000 0.381471 0.000000
0.176256 0.380576 0.000000
0.268616 0.379071 0.000000
0.357631 0.376717 0.000000
0.448003 0.373283 0.000000
0.542438 0.368419 0.000000
0.636670 0.362091 0.000000
0.723550 0.354775 0.000000
0.800043 0.346999 0.000000
0.866218 0.339129 0.000000
0.925945 0.331000 0.000000
0.976822 0.323212 0.000000
1.018562 0.316161 0.000000
1.049662 0.310479 0.000000
1.070375 0.306475 0.000000
1.079043 0.304744 0.000000
1.080119 0.304527 0.000000
1.080119 0.304527 0.000000
1.080119 0.304527 0.000000
1.080119 0.304527 0.000000
1.080119 0.304527 0.000000
1.080119 0.304527 0.000000
0.000000 0.445160 0.000000
0.000000 0.445160 0.000000
0.000000 0.445160 0.000000
0.000000 0.445160 0.000000
0.000000 0.445160 0.000000
0.000000 0.445160 0.000000
0.000000 0.445156 0.000000
0.000000 0.445136 0.000000
0.000000 0.445070 0.000000
0.000000 0.444922 0.000000
0.000000 0.444660 0.000000
0.000000 0.444233 0.000000
0.119349 0.443511 0.000000
0.242061 0.442297 0.000000
0.340486 0.440403 0.000000
0.435676 0.437649 0.000000
0.533076 0.433767 0.000000
0.629217 0.428752 0.000000
0.717333 0.423005 0.000000
0.794649 0.416959 0.000000
0.861396 0.410909 0.000000
0.921556 0.404735 0.000000
0.972751 0.398896 0.000000
1.014724 0.393676 0.000000
1.045982 0.389517 0.000000
1.066795 0.386614 0.000000
1.075503 0.385366 0.000000
1.076584 0.385209 0.000000
1.076584 0.385209 0.000000
1.076584 0.385209 0.000000
1.076584 0.385209 0.000000
1.076584 0.385209 0.000000
1.076584 0.385209 0.000000
0.000000 0.511430 0.000000
0.000000 0.511430 0.000000
0.000000 0.511430 0.000000
0.000000 0.511430 0.000000
0.000000 0.511430 0.000000
0.000000 0.511430 0.000000
0.000000 0.511427 0.000000
0.000000 0.511411 0.000000
0.000000 0.511356 0.000000
0.000000 0.511234 0.000000
0.000000 0.511019 0.000000
0.000000 0.510668 0.000000
0.000000 0.510073 0.000000
0.199912 0.509076 0.000000
0.316260 0.507522 0.000000
0.418918 0.505267 0.000000
0.520575 0.502098 0.000000
0.619361 0.498021 0.000000
0.709153 0.493375 0.000000
0.787574 0.488516 0.000000
0.855084 0.483684 0.000000
0.915817 0.478787 0.000000
0.967433 0.474188 0.000000
1.009713 0.470103 0.000000
1.041181 0.466868 0.000000
1.062125 0.464619 0.000000
1.070887 0.463655 0.000000
1.071974 0.463534 0.000000
1.071974 0.463534 0.000000
1.071974 0.463534 0.000000
1.071974 0.463534 0.000000
1.071974 0.463534 0.000000
1.071974 0.463534 0.000000
0.000000 0.580757 0.000000
0.000000 0.580757 0.000000
0.000000 0.580757 0.000000
0.000000 0.580757 0.000000
0.000000 0.580757 0.000000
0.000000 0.580757 0.000000
0.000000 0.580755 0.000000
0.000000 0.580741 0.000000
0.000000 0.580695 0.000000
0.000000 0.580593 0.000000
0.000000 0.580413 0.000000
0.000000 0.580119 0.000000
0.000000 0.579622 0.000000
0.115161 0.578788 0.000000
0.281456 0.577490 0.000000
0.396377 0.575610 0.000000
0.504209 0.572973 0.000000
0.606627 0.569589 0.000000
0.698660 0.565746 0.000000
0.778535 0.561742 0.000000
0.847040 0.557777 0.000000
0.908517 0.553774 0.000000
0.960677 0.550030 0.000000
1.003353 0.546717 0.000000
1.035090 0.544102 0.000000
1.056203 0.542289 0.000000
1.065033 0.541513 0.000000
1.066129 0.541415 0.000000
1.066129 0.541415 0.000000
1.066129 0.541415 0.000000
1.066129 0.541415 0.000000
1.066129 0.541415 0.000000
1.066129 0.541415 0.000000
0.000000 0.645055 0.000000
0.000000 0.645055 0.000000
0.000000 0.645055 0.000000
0.000000 0.645055 0.000000
0.000000 0.645055 0.000000
0.000000 0.645055 0.000000
0.000000 0.645053 0.000000
0.000000 0.645041 0.000000
0.000000 0.645001 0.000000
0.000000 0.644913 0.000000
0.000000 0.644758 0.000000
0.000000 0.644504 0.000000
0.000000 0.644075 0.000000
0.000000 0.643356 0.000000
0.234919 0.642237 0.000000
0.369563 0.640618 0.000000
0.485477 0.638349 0.000000
0.592306 0.635443 0.000000
0.686966 0.632150 0.000000
0.768513 0.628726 0.000000
0.838148 0.625343 0.000000
0.900466 0.621936 0.000000
0.953237 0.618757 0.000000
0.996356 0.615951 0.000000
1.028394 0.613740 0.000000
1.049695 0.612209 0.000000
1.058601 0.611554 0.000000
1.059706 0.611472 0.000000
1.059706 0.611472 0.000000
1.059706 0.611472 0.000000
1.059706 0.611472 0.000000
1.059706 0.611472 0.000000
1.059706 0.611472 0.000000
0.000000 0.704255 0.000000
0.000000 0.704255 0.000000
0.000000 0.704255 0.000000
0.000000 0.704255 0.000000
0.000000 0.704255 0.000000
0.000000 0.704255 0.000000
0.000000 0.704253 0.000000
0.000000 0.704242 0.000000
0.000000 0.704208 0.000000
0.000000 0.704130 0.000000
0.000000 0.703992 0.000000
0.000000 0.703768 0.000000
0.000000 0.703389 0.000000
0.000000 0.702753 0.000000
0.164971 0.701765 0.000000
0.338016 0.700335 0.000000
0.464591 0.698333 0.000000
0.576682 0.695772 0.000000
0.674342 0.692874 0.000000
0.757757 0.689864 0.000000
0.828640 0.686896 0.000000
0.891877 0.683911 0.000000
0.945313 0.681130 0.000000
0.988913 0.678679 0.000000
1.021276 0.676749 0.000000
1.042780 0.675414 0.000000
1.051768 0.674844 0.000000
1.052882 0.674773 0.000000
1.052882 0.674773 0.000000
1.052882 0.674773 0.000000
1.052882 0.674773 0.000000
1.052882 0.674773 0.000000
1.052882 0.674773 0.000000
0.000000 0.757834 0.000000
0.000000 0.757834 0.000000
0.000000 0.757834 0.000000
0.000000 0.757834 0.000000
0.000000 0.757834 0.000000
0.000000 0.757834 0.000000
0.000000 0.757832 0.000000
0.000000 0.757822 0.000000
0.000000 0.757791 0.000000
0.000000 0.757721 0.000000
0.000000 0.757596 0.000000
0.000000 0.757394 0.000000
0.000000 0.757052 0.000000
0.000000 0.756479 0.000000
0.000000 0.755587 0.000000
0.301190 0.754298 0.000000
0.442009 0.752494 0.000000
0.560232 0.750189 0.000000
0.661213 0.747582 0.000000
0.746643 0.744878 0.000000
0.818854 0.742213 0.000000
0.883059 0.739536 0.000000
0.937193 0.737045 0.000000
0.981294 0.734850 0.000000
1.013996 0.733125 0.000000
1.035711 0.731932 0.000000
1.044784 0.731422 0.000000
1.045909 0.731358 0.000000
1.045909 0.731358 0.000000
1.045909 0.731358 0.000000
1.045909 0.731358 0.000000
1.045909 0.731358 0.000000
1.045909 0.731358 0.000000
0.000000 0.805472 0.000000
0.000000 0.805472 0.000000
0.000000 0.805472 0.000000
0.000000 0.805472 0.000000
0.000000 0.805472 0.000000
0.000000 0.805472 0.000000
0.000000 0.805470 0.000000
0.000000 0.805461 0.000000
0.000000 0.805433 0.000000
0.000000 0.805368 0.000000
0.000000 0.805254 0.000000
0.000000 0.805068 0.000000
0.000000 0.804754 0.000000
0.000000 0.804228 0.000000
0.000000 0.803410 0.000000
0.257819 0.802227 0.000000
0.418279 0.800573 0.000000
0.543490 0.798460 0.000000
0.648030 0.796071 0.000000
0.735563 0.793595 0.000000
0.809137 0.791158 0.000000
0.874330 0.788711 0.000000
0.929168 0.786435 0.000000
0.973774 0.784432 0.000000
1.006817 0.782857 0.000000
1.028743 0.781769 0.000000
1.037901 0.781304 0.000000
1.039037 0.781246 0.000000
1.039037 0.781246 0.000000
1.039037 0.781246 0.000000
1.039037 0.781246 0.000000
1.039037 0.781246 0.000000
1.039037 0.781246 0.000000
0.000000 0.848301 0.000000
0.000000 0.848301 0.000000
0.000000 0.848301 0.000000
0.000000 0.848301 0.000000
0.000000 0.848301 0.000000
0.000000 0.848301 0.000000
0.000000 0.848300 0.000000
0.000000 0.848292 0.000000
0.000000 0.848265 0.000000
0.000000 0.848205 0.000000
0.000000 0.848099 0.000000
0.000000 0.847926 0.000000
0.000000 0.847634 0.000000
0.000000 0.847145 0.000000
0.000000 0.846384 0.000000
0.202489 0.845284 0.000000
0.393231 0.843747 0.000000
0.526481 0.841784 0.000000
0.634837 0.839566 0.000000
0.724556 0.837269 0.000000
0.799526 0.835008 0.000000
0.865719 0.832740 0.000000
0.921268 0.830631 0.000000
0.966381 0.828776 0.000000
0.999764 0.827319 0.000000
1.021902 0.826312 0.000000
1.031145 0.825882 0.000000
1.032291 0.825828 0.000000
1.032291 0.825828 0.000000
1.032291 0.825828 0.000000
1.032291 0.825828 0.000000
1.032291 0.825828 0.000000
1.032291 0.825828 0.000000
0.000000 0.888352 0.000000
0.000000 0.888352 0.000000
0.000000 0.888352 0.000000
0.000000 0.888352 0.000000
0.000000 0.888352 0.000000
0.000000 0.888352 0.000000
0.000000 0.888350 0.000000
0.000000 0.888343 0.000000
0.000000 0.888317 0.000000
0.000000 0.888261 0.000000
0.000000 0.888162 0.000000
0.000000 0.888000 0.000000
0.000000 0.887726 0.000000
0.000000 0.887267 0.000000
0.000000 0.886555 0.000000
0.106369 0.885524 0.000000
0.365684 0.884084 0.000000
0.508641 0.882246 0.000000
0.621229 0.880169 0.000000
0.713294 0.878020 0.000000
0.789738 0.875905 0.000000
0.856975 0.873784 0.000000
0.913261 0.871813 0.000000
0.958897 0.870079 0.000000
0.992631 0.868718 0.000000
1.014986 0.867778 0.000000
1.024316 0.867376 0.000000
1.025473 0.867326 0.000000
1.025473 0.867326 0.000000
1.025473 0.867326 0.000000
1.025473 0.867326 0.000000
1.025473 0.867326 0.000000
1.025473 0.867326 0.000000
0.000000 0.922782 0.000000
0.000000 0.922782 0.000000
0.000000 0.922782 0.000000
0.000000 0.922782 0.000000
0.000000 0.922782 0.000000
0.000000 0.922782 0.000000
0.000000 0.922781 0.000000
0.000000 0.922773 0.000000
0.000000 0.922750 0.000000
0.000000 0.922696 0.000000
0.000000 0.922602 0.000000
0.000000 0.922448 0.000000
0.000000 0.922189 0.000000
0.000000 0.921754 0.000000
0.000000 0.921078 0.000000
0.000000 0.920102 0.000000
0.337753 0.918737 0.000000
0.491575 0.916995 0.000000
0.608449 0.915028 0.000000
0.702805 0.912993 0.000000
0.780663 0.910991 0.000000
0.848893 0.908983 0.000000
0.905875 0.907119 0.000000
0.952002 0.905479 0.000000
0.986064 0.904192 0.000000
1.008622 0.903303 0.000000
1.018034 0.902923 0.000000
1.019201 0.902876 0.000000
1.019201 0.902876 0.000000
1.019201 0.902876 0.000000
1.019201 0.902876 0.000000
1.019201 0.902876 0.000000
1.019201 0.902876 0.000000
0.000000 0.953128 0.000000
0.000000 0.953128 0.000000
0.000000 0.953128 0.000000
0.000000 0.953128 0.000000
0.000000 0.953128 0.000000
0.000000 0.953128 0.000000
0.000000 0.953127 0.000000
0.000000 0.953120 0.000000
0.000000 0.953097 0.000000
0.000000 0.953046 0.000000
0.000000 0.952956 0.000000
0.000000 0.952810 0.000000
0.000000 0.952562 0.000000
0.000000 0.952146 0.000000
0.000000 0.951500 0.000000
0.000000 0.950567 0.000000
0.308646 0.949263 0.000000
0.475000 0.947600 0.000000
0.596272 0.945721 0.000000
0.692895 0.943778 0.000000
0.772127 0.941867 0.000000
0.841313 0.939951 0.000000
0.898960 0.938172 0.000000
0.945556 0.936608 0.000000
0.979930 0.935381 0.000000
1.002681 0.934533 0.000000
1.012170 0.934171 0.000000
1.013346 0.934126 0.000000
1.013346 0.934126 0.000000
1.013346 0.934126 0.000000
1.013346 0.934126 0.000000
1.013346 0.934126 0.000000
1.013346 0.934126 0.000000
0.000000 0.977137 0.000000
0.000000 0.977137 0.000000
0.000000 0.977137 0.000000
0.000000 0.977137 0.000000
0.000000 0.977137 0.000000
0.000000 0.977137 0.000000
0.000000 0.977136 0.000000
0.000000 0.977129 0.000000
0.000000 0.977107 0.000000
0.000000 0.977058 0.000000
0.000000 0.976971 0.000000
0.000000 0.976829 0.000000
0.000000 0.976590 0.000000
0.000000 0.976188 0.000000
0.000000 0.975565 0.000000
0.000000 0.974664 0.000000
0.281414 0.973405 0.000000
0.460718 0.971799 0.000000
0.585977 0.969986 0.000000
0.684584 0.968110 0.000000
0.764998 0.966266 0.000000
0.834999 0.964418 0.000000
0.893210 0.962702 0.000000
0.940201 0.961194 0.000000
0.974838 0.960010 0.000000
0.997751 0.959192 0.000000
1.007305 0.958843 0.000000
1.008489 0.958800 0.000000
1.008489 0.958800 0.000000
