transforms/MG05_silver_sat_fpe_r709.cube
#  MG_05_FPE_r709.cube
LUT_3D_SIZE 5
0.000000 0.000000 0.000000
0.075492 0.000000 0.000000
0.563001 0.000000 0.000000
1.057993 0.000000 0.000000
1.088126 0.000000 0.000000
0.000000 0.131215 0.000000
0.037496 0.130716 0.000000
0.561462 0.000000 0.000000
1.057358 0.000000 0.000000
1.087515 0.000000 0.000000
0.000000 0.511430 0.000000
0.000000 0.511356 0.000000
0.520575 0.502098 0.000000
1.041181 0.466868 0.000000
1.071974 0.463534 0.000000
0.000000 0.922782 0.000000
0.000000 0.922750 0.000000
0.337753 0.918737 0.000000
0.986064 0.904192 0.000000
1.019201 0.902876 0.000000
0.000000 1.017231 0.000000
0.000000 1.017202 0.000000
0.222026 1.013704 0.000000
0.965846 1.001060 0.000000
0.999919 0.999919 0.000000
0.000000 0.000073 0.141789
0.075492 0.000000 0.141581
0.563001 0.000000 0.111458
1.057993 0.000000 0.000000
1.088126 0.000000 0.000000
0.000000 0.131215 0.138018
0.037496 0.130716 0.137801
0.561462 0.000000 0.106094
1.057358 0.000000 0.000000
1.087515 0.000000 0.000000
0.000000 0.511430 0.000000
0.000000 0.511356 0.000000
0.520575 0.502098 0.000000
1.041181 0.466868 0.000000
1.071974 0.463534 0.000000
0.000000 0.922782 0.000000
0.000000 0.922750 0.000000
0.337753 0.918737 0.000000
0.986064 0.904192 0.000000
1.019201 0.902876 0.000000
0.000000 1.017231 0.000000
0.000000 1.017202 0.000000
0.222026 1.013704 0.000000
0.965846 1.001060 0.000000
0.999919 0.999919 0.000000
0.000000 0.000073 0.596854
0.075492 0.000000 0.596826
0.563001 0.000000 0.593374
1.057993 0.000000 0.580801
1.088126 0.000000 0.579659
0.000000 0.131215 0.596358
0.037496 0.130716 0.596330
0.561462 0.000000 0.592875
1.057358 0.000000 0.580287
1.087515 0.000000 0.579143
0.000000 0.511430 0.583698
0.000000 0.511356 0.583669
0.520575 0.502098 0.580107
1.041181 0.466868 0.567119
1.071974 0.463534 0.565937
0.000000 0.922782 0.539668
0.000000 0.922750 0.539636
0.337753 0.918737 0.535657
0.986064 0.904192 0.521086
1.019201 0.902876 0.519755
0.000000 1.017231 0.523113
0.000000 1.017202 0.523080
0.222026 1.013704 0.518922
0.965846 1.001060 0.503665
0.999919 0.999919 0.502269
0.000000 0.000073 0.997025
0.075492 0.000000 0.997011
0.563001 0.000000 0.995333
1.057993 0.000000 0.989303
1.088126 0.000000 0.988762
0.000000 0.131215 0.996783
0.037496 0.130716 0.996770
0.561462 0.000000 0.995091
1.057358 0.000000 0.989059
1.087515 0.000000 0.988518
0.000000 0.511430 0.990681
0.000000 0.511356 0.990667
0.520575 0.502098 0.988974
1.041181 0.466868 0.982889
1.071974 0.463534 0.982343
0.000000 0.922782 0.970497
0.000000 0.922750 0.970483
0.337753 0.918737 0.968740
0.986064 0.904192 0.962475
1.019201 0.902876 0.961913
0.000000 1.017231 0.963336
0.000000 1.017202 0.963322
0.222026 1.013704 0.961561
0.965846 1.001060 0.955230
0.999919 0.999919 0.954661
0.000000 0.000073 1.039747
0.075492 0.000000 1.039734
0.563001 0.000000 1.038152
1.057993 0.000000 1.032469
1.088126 0.000000 1.031959
0.000000 0.131215 1.039519
0.037496 0.130716 1.039506
0.561462 0.000000 1.037924
1.057358 0.000000 1.032240
1.087515 0.000000 1.031729
0.000000 0.511430 1.033767
0.000000 0.511356 1.033754
0.520575 0.502098 1.032159
1.041181 0.466868 1.026431
1.071974 0.463534 1.025916
0.000000 0.922782 1.014778
0.000000 0.922750 1.014765
0.337753 0.918737 1.013128
0.986064 0.904192 1.007247
1.019201 0.902876 1.006718
0.000000 1.017231 1.008054
0.000000 1.017202 1.008041
0.222026 1.013704 1.006388
0.965846 1.001060 1.000452
0.999919 0.999919 0.999919
