transforms/MG05_silver_sat_fpe_r709.cube
#  MG_05_FPE_r709.cube
LUT_3D_SIZE 9
0.000000 0.000000 0.000000
0.000259 0.000000 0.000110
0.075492 0.000000 0.000000
0.253267 0.000000 0.000000
0.563001 0.000000 0.000000
0.877086 0.000000 0.000000
1.057993 0.000000 0.000000
1.088126 0.000000 0.000000
1.088126 0.000000 0.000000
0.000000 0.017321 0.000000
0.000000 0.017321 0.000000
0.074276 0.033552 0.000000
0.253046 0.000000 0.000000
0.562929 0.000000 0.000000
0.877047 0.000000 0.000000
1.057963 0.000000 0.000000
1.088097 0.000000 0.000000
1.088097 0.000000 0.000000
0.000000 0.131215 0.000000
0.000000 0.131215 0.000000
0.037496 0.130716 0.000000
0.248505 0.121633 0.000000
0.561462 0.000000 0.000000
0.876259 0.000000 0.000000
1.057358 0.000000 0.000000
1.087515 0.000000 0.000000
1.087515 0.000000 0.000000
0.000000 0.275018 0.000000
0.000000 0.275018 0.000000
0.000000 0.274841 0.000000
0.223020 0.271763 0.000000
0.553824 0.251689 0.000000
0.872189 0.196204 0.000000
1.054233 0.117160 0.000000
1.084511 0.089875 0.000000
1.084511 0.089875 0.000000
0.000000 0.511430 0.000000
0.000000 0.511430 0.000000
0.000000 0.511356 0.000000
0.000000 0.510073 0.000000
0.520575 0.502098 0.000000
0.855084 0.483684 0.000000
1.041181 0.466868 0.000000
1.071974 0.463534 0.000000
1.071974 0.463534 0.000000
0.000000 0.757834 0.000000
0.000000 0.757834 0.000000
0.000000 0.757791 0.000000
0.000000 0.757052 0.000000
0.442009 0.752494 0.000000
0.818854 0.742213 0.000000
1.013996 0.733125 0.000000
1.045909 0.731358 0.000000
1.045909 0.731358 0.000000
0.000000 0.922782 0.000000
0.000000 0.922782 0.000000
0.000000 0.922750 0.000000
0.000000 0.922189 0.000000
0.337753 0.918737 0.000000
0.780663 0.910991 0.000000
0.986064 0.904192 0.000000
1.019201 0.902876 0.000000
1.019201 0.902876 0.000000
0.000000 1.008712 0.000000
0.000000 1.008712 0.000000
0.000000 1.008684 0.000000
0.000000 1.008189 0.000000
0.236734 1.005143 0.000000
0.755089 0.998321 0.000000
0.967809 0.992346 0.000000
1.001789 0.991191 0.000000
1.001789 0.991191 0.000000
0.000000 1.017231 0.000000
0.000000 1.017231 0.000000
0.000000 1.017202 0.000000
0.000000 1.016713 0.000000
0.222026 1.013704 0.000000
0.752307 1.006962 0.000000
0.965846 1.001060 0.000000
0.999919 0.999919 0.000000
0.999919 0.999919 0.000000
0.000000 0.000035 0.019874
0.000259 0.000000 0.019874
0.075492 0.000000 0.040948
0.253267 0.000000 0.000000
0.563001 0.000000 0.000000
0.877086 0.000000 0.000000
1.057993 0.000000 0.000000
1.088126 0.000000 0.000000
1.088126 0.000000 0.000000
0.000000 0.017321 0.019418
0.000000 0.017321 0.019418
0.074276 0.033552 0.039941
0.253046 0.000000 0.000000
0.562929 0.000000 0.000000
0.877047 0.000000 0.000000
1.057963 0.000000 0.000000
1.088097 0.000000 0.000000
1.088097 0.000000 0.000000
0.000000 0.131215 0.000000
0.000000 0.131215 0.000000
0.037496 0.130716 0.000000
0.248505 0.121633 0.000000
0.561462 0.000000 0.000000
0.876259 0.000000 0.000000
1.057358 0.000000 0.000000
1.087515 0.000000 0.000000
1.087515 0.000000 0.000000
0.000000 0.275018 0.000000
0.000000 0.275018 0.000000
0.000000 0.274841 0.000000
0.223020 0.271763 0.000000
0.553824 0.251689 0.000000
0.872189 0.196204 0.000000
1.054233 0.117160 0.000000
1.084511 0.089875 0.000000
1.084511 0.089875 0.000000
0.000000 0.511430 0.000000
0.000000 0.511430 0.000000
0.000000 0.511356 0.000000
0.000000 0.510073 0.000000
0.520575 0.502098 0.000000
0.855084 0.483684 0.000000
1.041181 0.466868 0.000000
1.071974 0.463534 0.000000
1.071974 0.463534 0.000000
0.000000 0.757834 0.000000
0.000000 0.757834 0.000000
0.000000 0.757791 0.000000
0.000000 0.757052 0.000000
0.442009 0.752494 0.000000
0.818854 0.742213 0.000000
1.013996 0.733125 0.000000
1.045909 0.731358 0.000000
1.045909 0.731358 0.000000
0.000000 0.922782 0.000000
0.000000 0.922782 0.000000
0.000000 0.922750 0.000000
0.000000 0.922189 0.000000
0.337753 0.918737 0.000000
0.780663 0.910991 0.000000
0.986064 0.904192 0.000000
1.019201 0.902876 0.000000
1.019201 0.902876 0.000000
0.000000 1.008712 0.000000
0.000000 1.008712 0.000000
0.000000 1.008684 0.000000
0.000000 1.008189 0.000000
0.236734 1.005143 0.000000
0.755089 0.998321 0.000000
0.967809 0.992346 0.000000
1.001789 0.991191 0.000000
1.001789 0.991191 0.000000
0.000000 1.017231 0.000000
0.000000 1.017231 0.000000
0.000000 1.017202 0.000000
0.000000 1.016713 0.000000
0.222026 1.013704 0.000000
0.752307 1.006962 0.000000
0.965846 1.001060 0.000000
0.999919 0.999919 0.000000
0.999919 0.999919 0.000000
0.000000 0.000073 0.141789
0.000548 0.000000 0.141789
0.075492 0.000000 0.141581
0.253267 0.000000 0.137904
0.563001 0.000000 0.111458
0.877086 0.000000 0.000000
1.057993 0.000000 0.000000
1.088126 0.000000 0.000000
1.088126 0.000000 0.000000
0.000000 0.036703 0.141615
0.000000 0.036703 0.141615
0.074276 0.033552 0.141406
0.253046 0.000000 0.137723
0.562929 0.000000 0.111214
0.877047 0.000000 0.000000
1.057963 0.000000 0.000000
1.088097 0.000000 0.000000
1.088097 0.000000 0.000000
0.000000 0.131215 0.138018
0.000000 0.131215 0.138018
0.037496 0.130716 0.137801
0.248505 0.121633 0.133978
0.561462 0.000000 0.106094
0.876259 0.000000 0.000000
1.057358 0.000000 0.000000
1.087515 0.000000 0.000000
1.087515 0.000000 0.000000
0.000000 0.275018 0.116956
0.000000 0.275018 0.116956
0.000000 0.274841 0.116683
0.223020 0.271763 0.111808
0.553824 0.251689 0.071159
0.872189 0.196204 0.000000
1.054233 0.117160 0.000000
1.084511 0.089875 0.000000
1.084511 0.089875 0.000000
0.000000 0.511430 0.000000
0.000000 0.511430 0.000000
0.000000 0.511356 0.000000
0.000000 0.510073 0.000000
0.520575 0.502098 0.000000
0.855084 0.483684 0.000000
1.041181 0.466868 0.000000
1.071974 0.463534 0.000000
1.071974 0.463534 0.000000
0.000000 0.757834 0.000000
0.000000 0.757834 0.000000
0.000000 0.757791 0.000000
0.000000 0.757052 0.000000
0.442009 0.752494 0.000000
0.818854 0.742213 0.000000
1.013996 0.733125 0.000000
1.045909 0.731358 0.000000
1.045909 0.731358 0.000000
0.000000 0.922782 0.000000
0.000000 0.922782 0.000000
0.000000 0.922750 0.000000
0.000000 0.922189 0.000000
0.337753 0.918737 0.000000
0.780663 0.910991 0.000000
0.986064 0.904192 0.000000
1.019201 0.902876 0.000000
1.019201 0.902876 0.000000
0.000000 1.008712 0.000000
0.000000 1.008712 0.000000
0.000000 1.008684 0.000000
0.000000 1.008189 0.000000
0.236734 1.005143 0.000000
0.755089 0.998321 0.000000
0.967809 0.992346 0.000000
1.001789 0.991191 0.000000
1.001789 0.991191 0.000000
0.000000 1.017231 0.000000
0.000000 1.017231 0.000000
0.000000 1.017202 0.000000
0.000000 1.016713 0.000000
0.222026 1.013704 0.000000
0.752307 1.006962 0.000000
0.965846 1.001060 0.000000
0.999919 0.999919 0.000000
0.999919 0.999919 0.000000
0.000000 0.000073 0.307257
0.000548 0.000000 0.307257
0.075492 0.000000 0.307186
0.253267 0.000000 0.305962
0.563001 0.000000 0.298295
0.877086 0.000000 0.280161
1.057993 0.000000 0.262972
1.088126 0.000000 0.259480
1.088126 0.000000 0.259480
0.000000 0.036703 0.307198
0.000000 0.036703 0.307198
0.074276 0.033552 0.307127
0.253046 0.000000 0.305903
0.562929 0.000000 0.298233
0.877047 0.000000 0.280094
1.057963 0.000000 0.262899
1.088097 0.000000 0.259405
1.088097 0.000000 0.259405
0.000000 0.131215 0.306000
0.000000 0.131215 0.306000
0.037496 0.130716 0.305929
0.248505 0.121633 0.304698
0.561462 0.000000 0.296984
0.876259 0.000000 0.278730
1.057358 0.000000 0.261407
1.087515 0.000000 0.257885
1.087515 0.000000 0.257885
0.000000 0.275018 0.299724
0.000000 0.275018 0.299724
0.000000 0.274841 0.299651
0.223020 0.271763 0.298383
0.553824 0.251689 0.290433
0.872189 0.196204 0.271551
1.054233 0.117160 0.253529
1.084511 0.089875 0.249850
1.084511 0.089875 0.249850
0.000000 0.511430 0.271587
0.000000 0.511430 0.271587
0.000000 0.511356 0.271503
0.000000 0.510073 0.270046
0.520575 0.502098 0.260856
0.855084 0.483684 0.238585
1.041181 0.466868 0.216573
1.071974 0.463534 0.211965
1.071974 0.463534 0.211965
0.000000 0.757834 0.196319
0.000000 0.757834 0.196319
0.000000 0.757791 0.196187
0.000000 0.757052 0.193882
0.442009 0.752494 0.178800
0.818854 0.742213 0.136451
1.013996 0.733125 0.070860
1.045909 0.731358 0.040761
1.045909 0.731358 0.040761
0.000000 0.922782 0.000000
0.000000 0.922782 0.000000
0.000000 0.922750 0.000000
0.000000 0.922189 0.000000
0.337753 0.918737 0.000000
0.780663 0.910991 0.000000
0.986064 0.904192 0.000000
1.019201 0.902876 0.000000
1.019201 0.902876 0.000000
0.000000 1.008712 0.000000
0.000000 1.008712 0.000000
0.000000 1.008684 0.000000
0.000000 1.008189 0.000000
0.236734 1.005143 0.000000
0.755089 0.998321 0.000000
0.967809 0.992346 0.000000
1.001789 0.991191 0.000000
1.001789 0.991191 0.000000
0.000000 1.017231 0.000000
0.000000 1.017231 0.000000
0.000000 1.017202 0.000000
0.000000 1.016713 0.000000
0.222026 1.013704 0.000000
0.752307 1.006962 0.000000
0.965846 1.001060 0.000000
0.999919 0.999919 0.000000
0.999919 0.999919 0.000000
0.000000 0.000073 0.596854
0.000548 0.000000 0.596854
0.075492 0.000000 0.596826
0.253267 0.000000 0.596344
0.563001 0.000000 0.593374
0.877086 0.000000 0.586690
1.057993 0.000000 0.580801
1.088126 0.000000 0.579659
1.088126 0.000000 0.579659
0.000000 0.036703 0.596830
0.000000 0.036703 0.596830
0.074276 0.033552 0.596802
0.253046 0.000000 0.596320
0.562929 0.000000 0.593350
0.877047 0.000000 0.586666
1.057963 0.000000 0.580777
1.088097 0.000000 0.579634
1.088097 0.000000 0.579634
0.000000 0.131215 0.596358
0.000000 0.131215 0.596358
0.037496 0.130716 0.596330
0.248505 0.121633 0.595848
0.561462 0.000000 0.592875
0.876259 0.000000 0.586183
1.057358 0.000000 0.580287
1.087515 0.000000 0.579143
1.087515 0.000000 0.579143
0.000000 0.275018 0.593921
0.000000 0.275018 0.593921
0.000000 0.274841 0.593893
0.223020 0.271763 0.593408
0.553824 0.251689 0.590417
0.872189 0.196204 0.583685
1.054233 0.117160 0.577754
1.084511 0.089875 0.576603
1.084511 0.089875 0.576603
0.000000 0.511430 0.583698
0.000000 0.511430 0.583698
0.000000 0.511356 0.583669
0.000000 0.510073 0.583172
0.520575 0.502098 0.580107
0.855084 0.483684 0.573205
1.041181 0.466868 0.567119
1.071974 0.463534 0.565937
1.071974 0.463534 0.565937
0.000000 0.757834 0.562166
0.000000 0.757834 0.562166
0.000000 0.757791 0.562136
0.000000 0.757052 0.561611
0.442009 0.752494 0.558379
0.818854 0.742213 0.551093
1.013996 0.733125 0.544657
1.045909 0.731358 0.543407
1.045909 0.731358 0.543407
0.000000 0.922782 0.539668
0.000000 0.922782 0.539668
0.000000 0.922750 0.539636
0.000000 0.922189 0.539081
0.337753 0.918737 0.535657
0.780663 0.910991 0.527926
0.986064 0.904192 0.521086
1.019201 0.902876 0.519755
1.019201 0.902876 0.519755
0.000000 1.008712 0.524731
0.000000 1.008712 0.524731
0.000000 1.008684 0.524698
0.000000 1.008189 0.524121
0.236734 1.005143 0.520558
0.755089 0.998321 0.512505
0.967809 0.992346 0.505370
1.001789 0.991191 0.503981
1.001789 0.991191 0.503981
0.000000 1.017231 0.523113
0.000000 1.017231 0.523113
0.000000 1.017202 0.523080
0.000000 1.016713 0.522500
0.222026 1.013704 0.518922
0.752307 1.006962 0.510833
0.965846 1.001060 0.503665
0.999919 0.999919 0.502269
0.999919 0.999919 0.502269
0.000000 0.000073 0.846904
0.000548 0.000000 0.846904
0.075492 0.000000 0.846887
0.253267 0.000000 0.846592
0.563001 0.000000 0.844777
0.877086 0.000000 0.840719
1.057993 0.000000 0.837175
1.088126 0.000000 0.836491
1.088126 0.000000 0.836491
0.000000 0.036703 0.846890
0.000000 0.036703 0.846890
0.074276 0.033552 0.846873
0.253046 0.000000 0.846578
0.562929 0.000000 0.844763
0.877047 0.000000 0.840705
1.057963 0.000000 0.837161
1.088097 0.000000 0.836477
1.088097 0.000000 0.836477
0.000000 0.131215 0.846601
0.000000 0.131215 0.846601
0.037496 0.130716 0.846584
0.248505 0.121633 0.846289
0.561462 0.000000 0.844473
0.876259 0.000000 0.840413
1.057358 0.000000 0.836867
1.087515 0.000000 0.836183
1.087515 0.000000 0.836183
0.000000 0.275018 0.845111
0.000000 0.275018 0.845111
0.000000 0.274841 0.845094
0.223020 0.271763 0.844798
0.553824 0.251689 0.842978
0.872189 0.196204 0.838908
1.054233 0.117160 0.835353
1.084511 0.089875 0.834666
1.084511 0.089875 0.834666
0.000000 0.511430 0.838915
0.000000 0.511430 0.838915
0.000000 0.511356 0.838898
0.000000 0.510073 0.838599
0.520575 0.502098 0.836759
0.855084 0.483684 0.832647
1.041181 0.466868 0.829054
1.071974 0.463534 0.828361
1.071974 0.463534 0.828361
0.000000 0.757834 0.826154
0.000000 0.757834 0.826154
0.000000 0.757791 0.826137
0.000000 0.757052 0.825831
0.442009 0.752494 0.823952
0.818854 0.742213 0.819749
1.013996 0.733125 0.816077
1.045909 0.731358 0.815368
1.045909 0.731358 0.815368
0.000000 0.922782 0.813255
0.000000 0.922782 0.813255
0.000000 0.922750 0.813237
0.000000 0.922189 0.812925
0.337753 0.918737 0.811004
0.780663 0.910991 0.806706
0.986064 0.904192 0.802950
1.019201 0.902876 0.802224
1.019201 0.902876 0.802224
0.000000 1.008712 0.804946
0.000000 1.008712 0.804946
0.000000 1.008684 0.804928
0.000000 1.008189 0.804611
0.236734 1.005143 0.802662
0.755089 0.998321 0.798301
0.967809 0.992346 0.794489
1.001789 0.991191 0.793753
1.001789 0.991191 0.793753
0.000000 1.017231 0.804059
0.000000 1.017231 0.804059
0.000000 1.017202 0.804040
0.000000 1.016713 0.803723
0.222026 1.013704 0.801771
0.752307 1.006962 0.797403
0.965846 1.001060 0.793585
0.999919 0.999919 0.792847
0.999919 0.999919 0.792847
0.000000 0.000073 0.997025
0.000548 0.000000 0.997025
0.075492 0.000000 0.997011
0.253267 0.000000 0.996776
0.563001 0.000000 0.995333
0.877086 0.000000 0.992111
1.057993 0.000000 0.989303
1.088126 0.000000 0.988762
1.088126 0.000000 0.988762
0.000000 0.036703 0.997013
0.000000 0.036703 0.997013
0.074276 0.033552 0.997000
0.253046 0.000000 0.996765
0.562929 0.000000 0.995322
0.877047 0.000000 0.992100
1.057963 0.000000 0.989292
1.088097 0.000000 0.988750
1.088097 0.000000 0.988750
0.000000 0.131215 0.996783
0.000000 0.131215 0.996783
0.037496 0.130716 0.996770
0.248505 0.121633 0.996535
0.561462 0.000000 0.995091
0.876259 0.000000 0.991868
1.057358 0.000000 0.989059
1.087515 0.000000 0.988518
1.087515 0.000000 0.988518
0.000000 0.275018 0.995598
0.000000 0.275018 0.995598
0.000000 0.274841 0.995585
0.223020 0.271763 0.995349
0.553824 0.251689 0.993903
0.872189 0.196204 0.990675
1.054233 0.117160 0.987861
1.084511 0.089875 0.987319
1.084511 0.089875 0.987319
0.000000 0.511430 0.990681
0.000000 0.511430 0.990681
0.000000 0.511356 0.990667
0.000000 0.510073 0.990430
0.520575 0.502098 0.988974
0.855084 0.483684 0.985723
1.041181 0.466868 0.982889
1.071974 0.463534 0.982343
1.071974 0.463534 0.982343
0.000000 0.757834 0.980606
0.000000 0.757834 0.980606
0.000000 0.757791 0.980592
0.000000 0.757052 0.980352
0.442009 0.752494 0.978875
0.818854 0.742213 0.975577
1.013996 0.733125 0.972702
1.045909 0.731358 0.972147
1.045909 0.731358 0.972147
0.000000 0.922782 0.970497
0.000000 0.922782 0.970497
0.000000 0.922750 0.970483
0.000000 0.922189 0.970239
0.337753 0.918737 0.968740
0.780663 0.910991 0.965393
0.986064 0.904192 0.962475
1.019201 0.902876 0.961913
1.019201 0.902876 0.961913
0.000000 1.008712 0.964025
0.000000 1.008712 0.964025
0.000000 1.008684 0.964011
0.000000 1.008189 0.963765
0.236734 1.005143 0.962252
0.755089 0.998321 0.958873
0.967809 0.992346 0.955928
1.001789 0.991191 0.955359
1.001789 0.991191 0.955359
0.000000 1.017231 0.963336
0.000000 1.017231 0.963336
0.000000 1.017202 0.963322
0.000000 1.016713 0.963075
0.222026 1.013704 0.961561
0.752307 1.006962 0.958179
0.965846 1.001060 0.955230
0.999919 0.999919 0.954661
0.999919 0.999919 0.954661
0.000000 0.000073 1.039747
0.000548 0.000000 1.039747
0.075492 0.000000 1.039734
0.253267 0.000000 1.039512
0.563001 0.000000 1.038152
0.877086 0.000000 1.035115
1.057993 0.000000 1.032469
1.088126 0.000000 1.031959
1.088126 0.000000 1.031959
0.000000 0.036703 1.039736
0.000000 0.036703 1.039736
0.074276 0.033552 1.039723
0.253046 0.000000 1.039502
0.562929 0.000000 1.038141
0.877047 0.000000 1.035104
1.057963 0.000000 1.032459
1.088097 0.000000 1.031949
1.088097 0.000000 1.031949
0.000000 0.131215 1.039519
0.000000 0.131215 1.039519
0.037496 0.130716 1.039506
0.248505 0.121633 1.039285
0.561462 0.000000 1.037924
0.876259 0.000000 1.034886
1.057358 0.000000 1.032240
1.087515 0.000000 1.031729
1.087515 0.000000 1.031729
0.000000 0.275018 1.038402
0.000000 0.275018 1.038402
0.000000 0.274841 1.038389
0.223020 0.271763 1.038167
0.553824 0.251689 1.036804
0.872189 0.196204 1.033762
1.054233 0.117160 1.031111
1.084511 0.089875 1.030600
1.084511 0.089875 1.030600
0.000000 0.511430 1.033767
0.000000 0.511430 1.033767
0.000000 0.511356 1.033754
0.000000 0.510073 1.033531
0.520575 0.502098 1.032159
0.855084 0.483684 1.029098
1.041181 0.466868 1.026431
1.071974 0.463534 1.025916
1.071974 0.463534 1.025916
0.000000 0.757834 1.024282
0.000000 0.757834 1.024282
0.000000 0.757791 1.024269
0.000000 0.757052 1.024043
0.442009 0.752494 1.022653
0.818854 0.742213 1.019552
1.013996 0.733125 1.016849
1.045909 0.731358 1.016328
1.045909 0.731358 1.016328
0.000000 0.922782 1.014778
0.000000 0.922782 1.014778
0.000000 0.922750 1.014765
0.000000 0.922189 1.014535
0.337753 0.918737 1.013128
0.780663 0.910991 1.009985
0.986064 0.904192 1.007247
1.019201 0.902876 1.006718
1.019201 0.902876 1.006718
0.000000 1.008712 1.008701
0.000000 1.008712 1.008701
0.000000 1.008684 1.008688
0.000000 1.008189 1.008457
0.236734 1.005143 1.007037
0.755089 0.998321 1.003868
0.967809 0.992346 1.001106
1.001789 0.991191 1.000573
1.001789 0.991191 1.000573
0.000000 1.017231 1.008054
0.000000 1.017231 1.008054
0.000000 1.017202 1.008041
0.000000 1.016713 1.007810
0.222026 1.013704 1.006388
0.752307 1.006962 1.003216
0.965846 1.001060 1.000452
0.999919 0.999919 0.999919
0.999919 0.999919 0.999919
0.000000 0.000073 1.039747
0.000548 0.000000 1.039747
0.075492 0.000000 1.039734
0.253267 0.000000 1.039512
0.563001 0.000000 1.038152
0.877086 0.000000 1.035115
1.057993 0.000000 1.032469
1.088126 0.000000 1.031959
1.088126 0.000000 1.031959
0.000000 0.036703 1.039736
0.000000 0.036703 1.039736
0.074276 0.033552 1.039723
0.253046 0.000000 1.039502
0.562929 0.000000 1.038141
0.877047 0.000000 1.035104
1.057963 0.000000 1.032459
1.088097 0.000000 1.031949
1.088097 0.000000 1.031949
0.000000 0.131215 1.039519
0.000000 0.131215 1.039519
0.037496 0.130716 1.039506
0.248505 0.121633 1.039285
0.561462 0.000000 1.037924
0.876259 0.000000 1.034886
1.057358 0.000000 1.032240
1.087515 0.000000 1.031729
1.087515 0.000000 1.031729
0.000000 0.275018 1.038402
0.000000 0.275018 1.038402
0.000000 0.274841 1.038389
0.223020 0.271763 1.038167
0.553824 0.251689 1.036804
0.872189 0.196204 1.033762
1.054233 0.117160 1.031111
1.084511 0.089875 1.030600
1.084511 0.089875 1.030600
0.000000 0.511430 1.033767
0.000000 0.511430 1.033767
0.000000 0.511356 1.033754
0.000000 0.510073 1.033531
0.520575 0.502098 1.032159
0.855084 0.483684 1.029098
1.041181 0.466868 1.026431
1.071974 0.463534 1.025916
1.071974 0.463534 1.025916
0.000000 0.757834 1.024282
0.000000 0.757834 1.024282
0.000000 0.757791 1.024269
0.000000 0.757052 1.024043
0.442009 0.752494 1.022653
0.818854 0.742213 1.019552
1.013996 0.733125 1.016849
1.045909 0.731358 1.016328
1.045909 0.731358 1.016328
0.000000 0.922782 1.014778
0.000000 0.922782 1.014778
0.000000 0.922750 1.014765
0.000000 0.922189 1.014535
0.337753 0.918737 1.013128
0.780663 0.910991 1.009985
0.986064 0.904192 1.007247
1.019201 0.902876 1.006718
1.019201 0.902876 1.006718
0.000000 1.008712 1.008701
0.000000 1.008712 1.008701
0.000000 1.008684 1.008688
0.000000 1.008189 1.008457
0.236734 1.005143 1.007037
0.755089 0.998321 1.003868
0.967809 0.992346 1.001106
1.001789 0.991191 1.000573
1.001789 0.991191 1.000573
0.000000 1.017231 1.008054
0.000000 1.017231 1.008054
0.000000 1.017202 1.008041
0.000000 1.016713 1.007810
0.222026 1.013704 1.006388
0.752307 1.006962 1.003216
0.965846 1.001060 1.000452
0.999919 0.999919 0.999919
0.999919 0.999919 0.999919
