transforms/MG06_silver_sat_d65_r709.cube
#  MG_06_D65_r709.cube
LUT_3D_SIZE 9
0.000000 0.000000 0.000000
0.000000 0.000000 0.000000
0.050142 0.000000 0.000000
0.172662 0.000000 0.000000
0.367106 0.000000 0.000000
0.592170 0.000000 0.000000
0.792478 0.000000 0.000000
0.955071 0.000000 0.000000
1.057993 0.000000 0.000000
0.000000 0.001206 0.000000
0.000000 0.001959 0.000000
0.064073 0.000000 0.000000
0.196724 0.000000 0.000000
0.397843 0.000000 0.000000
0.624622 0.000000 0.000000
0.822780 0.000000 0.000000
0.976408 0.000000 0.000000
1.068113 0.000000 0.000000
0.000000 0.077982 0.000000
0.000000 0.086276 0.000000
0.064806 0.092947 0.000000
0.215765 0.090053 0.000000
0.424477 0.035554 0.000000
0.652338 0.000000 0.000000
0.846640 0.000000 0.000000
0.993205 0.000000 0.000000
1.074918 0.000000 0.000000
0.000000 0.222547 0.000000
0.000000 0.235471 0.000000
0.000000 0.247191 0.000000
0.210028 0.254022 0.000000
0.439188 0.252779 0.000000
0.671306 0.240443 0.000000
0.861774 0.218006 0.000000
1.001892 0.194670 0.000000
1.075070 0.184044 0.000000
0.000000 0.430923 0.000000
0.000000 0.446744 0.000000
0.000000 0.460839 0.000000
0.090181 0.472146 0.000000
0.426093 0.478398 0.000000
0.674936 0.479809 0.000000
0.866174 0.481052 0.000000
1.001915 0.480071 0.000000
1.065968 0.486628 0.000000
0.000000 0.652740 0.000000
0.000000 0.668131 0.000000
0.000000 0.681861 0.000000
0.000000 0.691245 0.000000
0.378022 0.698310 0.000000
0.659102 0.703918 0.000000
0.856481 0.707047 0.000000
0.988702 0.710946 0.000000
1.045678 0.716584 0.000000
0.000000 0.832262 0.000000
0.000000 0.844597 0.000000
0.000000 0.855575 0.000000
0.000000 0.862692 0.000000
0.298163 0.868986 0.000000
0.635978 0.871946 0.000000
0.842017 0.874277 0.000000
0.973549 0.877150 0.000000
1.021919 0.882315 0.000000
0.000000 0.960320 0.000000
0.000000 0.967514 0.000000
0.000000 0.973847 0.000000
0.000000 0.977314 0.000000
0.219425 0.979386 0.000000
0.625012 0.978981 0.000000
0.835532 0.978178 0.000000
0.962121 0.978025 0.000000
1.004341 0.979067 0.000000
0.000000 1.015407 0.000000
0.000000 1.016233 0.000000
0.000000 1.016807 0.000000
0.000000 1.016168 0.000000
0.240616 1.013623 0.000000
0.639584 1.009268 0.000000
0.846653 1.004613 0.000000
0.965846 1.001060 0.000000
0.999919 0.999919 0.000000
0.000000 0.000000 0.004704
0.000018 0.000000 0.006104
0.052223 0.000000 0.013577
0.177708 0.000000 0.000000
0.373562 0.000000 0.000000
0.598998 0.000000 0.000000
0.798532 0.000000 0.000000
0.959337 0.000000 0.000000
1.060425 0.000000 0.000000
0.000000 0.001504 0.007525
0.000000 0.002267 0.009473
0.067064 0.000000 0.021946
0.201818 0.000000 0.000000
0.404337 0.000000 0.000000
0.631344 0.000000 0.000000
0.827333 0.000000 0.000000
0.979610 0.000000 0.000000
1.069867 0.000000 0.000000
0.000000 0.080463 0.000000
0.000000 0.088777 0.000000
0.068384 0.095403 0.000000
0.221080 0.093807 0.000000
0.431076 0.041221 0.000000
0.659025 0.000000 0.000000
0.850863 0.000000 0.000000
0.995924 0.000000 0.000000
1.076450 0.000000 0.000000
0.000000 0.226419 0.000000
0.000000 0.239359 0.000000
0.000000 0.251281 0.000000
0.215033 0.259444 0.000000
0.443798 0.258338 0.000000
0.675956 0.246479 0.000000
0.865892 0.223350 0.000000
1.005440 0.201203 0.000000
1.075651 0.195250 0.000000
0.000000 0.437246 0.000000
0.000000 0.453085 0.000000
0.000000 0.467181 0.000000
0.104106 0.476858 0.000000
0.432694 0.483203 0.000000
0.679237 0.486442 0.000000
0.869757 0.486108 0.000000
1.004499 0.487157 0.000000
1.066663 0.491905 0.000000
0.000000 0.657355 0.000000
0.000000 0.672754 0.000000
0.000000 0.686298 0.000000
0.000000 0.697135 0.000000
0.385020 0.704157 0.000000
0.665074 0.709761 0.000000
0.861193 0.712879 0.000000
0.991361 0.715213 0.000000
1.045290 0.722523 0.000000
0.000000 0.837195 0.000000
0.000000 0.849536 0.000000
0.000000 0.860165 0.000000
0.000000 0.867136 0.000000
0.309111 0.873380 0.000000
0.642403 0.876322 0.000000
0.846422 0.878695 0.000000
0.975144 0.881163 0.000000
1.021761 0.885388 0.000000
0.000000 0.962477 0.000000
0.000000 0.969673 0.000000
0.000000 0.975844 0.000000
0.000000 0.979543 0.000000
0.240513 0.980990 0.000000
0.630460 0.981161 0.000000
0.839152 0.980376 0.000000
0.964589 0.979191 0.000000
1.003990 0.980749 0.000000
0.000000 1.015739 0.000000
0.000000 1.016565 0.000000
0.000000 1.017044 0.000000
0.000000 1.016133 0.000000
0.262119 1.013518 0.000000
0.647683 1.009119 0.000000
0.851697 1.004476 0.000000
0.968607 1.000970 0.000000
0.999919 0.999919 0.000000
0.000000 0.000000 0.087335
0.000122 0.000000 0.095871
0.054432 0.000000 0.104115
0.181500 0.000000 0.108633
0.378409 0.000000 0.105016
0.604124 0.000000 0.076966
0.803074 0.000000 0.000000
0.962536 0.000000 0.000000
1.062249 0.000000 0.000000
0.000000 0.003667 0.104261
0.000000 0.005299 0.114013
0.069313 0.000000 0.123623
0.205645 0.000000 0.128213
0.409277 0.000000 0.125135
0.636390 0.000000 0.106798
0.831695 0.000000 0.053820
0.982815 0.000000 0.000000
1.071181 0.000000 0.000000
0.000000 0.082951 0.119327
0.000000 0.091283 0.129093
0.070735 0.098212 0.139611
0.225071 0.096625 0.144518
0.436007 0.047529 0.141649
0.664042 0.000000 0.126307
0.855115 0.000000 0.093132
0.998655 0.000000 0.022973
1.077206 0.000000 0.000000
0.000000 0.230295 0.118537
0.000000 0.243391 0.130510
0.000000 0.255384 0.139663
0.218793 0.263516 0.143749
0.448575 0.262413 0.140337
0.680686 0.250958 0.123999
0.869898 0.228671 0.091686
1.008056 0.207893 0.000000
1.076550 0.203124 0.000000
0.000000 0.441993 0.037500
0.000000 0.457844 0.061553
0.000000 0.471943 0.080764
0.111223 0.481698 0.090506
0.436906 0.489751 0.075971
0.683773 0.491348 0.000000
0.873339 0.491165 0.000000
1.006431 0.492468 0.000000
1.066902 0.497221 0.000000
0.000000 0.661971 0.000000
0.000000 0.677379 0.000000
0.000000 0.690738 0.000000
0.000000 0.701555 0.000000
0.387762 0.708583 0.000000
0.669444 0.714151 0.000000
0.864756 0.717079 0.000000
0.993203 0.719527 0.000000
1.044992 0.726976 0.000000
0.000000 0.840896 0.000000
0.000000 0.853241 0.000000
0.000000 0.863516 0.000000
0.000000 0.870468 0.000000
0.313458 0.876706 0.000000
0.647220 0.879605 0.000000
0.849815 0.881620 0.000000
0.976570 0.884165 0.000000
1.021600 0.888462 0.000000
0.000000 0.964636 0.000000
0.000000 0.971832 0.000000
0.000000 0.977539 0.000000
0.000000 0.981213 0.000000
0.254413 0.982621 0.000000
0.636127 0.982767 0.000000
0.843014 0.981671 0.000000
0.966371 0.980381 0.000000
1.003726 0.982010 0.000000
0.000000 1.015988 0.000000
0.000000 1.016813 0.000000
0.000000 1.017034 0.000000
0.000000 1.016097 0.000000
0.276971 1.013438 0.000000
0.653724 1.009007 0.000000
0.855474 1.004373 0.000000
0.970677 1.000902 0.000000
0.999919 0.999919 0.000000
0.000000 0.000000 0.228791
0.000258 0.000000 0.242007
0.056650 0.000000 0.254333
0.185299 0.000000 0.263447
0.381644 0.000000 0.271396
0.609252 0.000000 0.273215
0.807620 0.000000 0.272102
0.965738 0.000000 0.270734
1.063732 0.000000 0.271500
0.000000 0.004152 0.254379
0.000000 0.005797 0.268419
0.071565 0.000000 0.281033
0.209478 0.000000 0.290115
0.414255 0.000000 0.298479
0.641438 0.000000 0.302734
0.835962 0.000000 0.301431
0.986020 0.000000 0.301871
1.072059 0.000000 0.306647
0.000000 0.085444 0.277768
0.000000 0.093794 0.291877
0.073092 0.101027 0.304988
0.229067 0.099445 0.314352
0.440940 0.053097 0.322626
0.669061 0.000000 0.327147
0.859333 0.000000 0.326908
1.001385 0.000000 0.329001
1.077695 0.000000 0.335149
0.000000 0.234176 0.293072
0.000000 0.247500 0.307515
0.000000 0.259493 0.320416
0.222946 0.266191 0.331087
0.453389 0.266491 0.337829
0.685508 0.253758 0.342653
0.873679 0.233998 0.344367
1.009740 0.214723 0.345319
1.077180 0.210838 0.352294
0.000000 0.446745 0.297056
0.000000 0.462608 0.311491
0.000000 0.476706 0.324695
0.117898 0.486592 0.335676
0.441546 0.494623 0.341921
0.688309 0.496257 0.346570
0.876921 0.496221 0.348512
1.007731 0.495856 0.350248
1.066773 0.502562 0.358112
0.000000 0.666592 0.282712
0.000000 0.682006 0.298970
0.000000 0.695179 0.313415
0.000000 0.704502 0.323316
0.393081 0.712972 0.331894
0.673815 0.718541 0.334781
0.868297 0.719827 0.337639
0.995044 0.723841 0.342157
1.044691 0.731427 0.349392
0.000000 0.844598 0.254926
0.000000 0.855711 0.275393
0.000000 0.866873 0.292585
0.000000 0.873800 0.304617
0.322425 0.878874 0.315273
0.652036 0.882890 0.319187
0.853211 0.884545 0.323190
0.978190 0.886141 0.330159
1.021244 0.891545 0.342127
0.000000 0.966795 0.233595
0.000000 0.973992 0.259917
0.000000 0.979236 0.282178
0.000000 0.982316 0.299534
0.262455 0.984278 0.309715
0.641561 0.984377 0.318580
0.847027 0.982389 0.325293
0.967466 0.981595 0.332102
1.003462 0.983272 0.346816
0.000000 1.016236 0.250512
0.000000 1.017061 0.276882
0.000000 1.017025 0.303707
0.000000 1.016060 0.319693
0.290961 1.013358 0.331460
0.657736 1.008932 0.342189
0.857989 1.004303 0.347813
0.972360 1.000846 0.358780
0.999919 0.999919 0.375097
0.000000 0.000000 0.422879
0.000401 0.000000 0.438846
0.058875 0.000000 0.453373
0.187834 0.000000 0.464382
0.386499 0.000000 0.475797
0.612674 0.000000 0.485106
0.812167 0.000000 0.489989
0.968939 0.000000 0.496488
1.065048 0.000000 0.502960
0.000000 0.004642 0.455013
0.000000 0.006130 0.471224
0.073069 0.000000 0.485817
0.213316 0.000000 0.497025
0.419236 0.000000 0.507110
0.646490 0.000000 0.516887
0.840230 0.000000 0.522118
0.989225 0.000000 0.529123
1.073373 0.000000 0.537624
0.000000 0.087943 0.480716
0.000000 0.096311 0.498842
0.074336 0.103872 0.513905
0.233142 0.101173 0.523518
0.445877 0.058180 0.535194
0.674101 0.000000 0.544633
0.863584 0.000000 0.549652
1.004115 0.000000 0.556682
1.078448 0.000000 0.565678
0.000000 0.238063 0.503266
0.000000 0.251613 0.518195
0.000000 0.263605 0.533121
0.226715 0.270271 0.545707
0.458207 0.270572 0.554979
0.690239 0.258301 0.564095
0.877458 0.239283 0.570826
1.012352 0.221135 0.576353
1.077806 0.218326 0.585406
0.000000 0.451499 0.517978
0.000000 0.467375 0.534305
0.000000 0.481526 0.548430
0.124293 0.491492 0.560561
0.446614 0.497814 0.569601
0.692846 0.501170 0.578389
0.880501 0.501280 0.584863
1.009675 0.500936 0.590448
1.066503 0.509677 0.599652
0.000000 0.671213 0.525830
0.000000 0.686451 0.541761
0.000000 0.699623 0.556053
0.000000 0.708925 0.566542
0.398552 0.717359 0.576923
0.678583 0.721257 0.583968
0.871460 0.724048 0.590678
0.996882 0.728155 0.598282
1.044384 0.735879 0.607890
0.000000 0.847067 0.527051
0.000000 0.859187 0.543744
0.000000 0.869107 0.558488
0.000000 0.877134 0.569050
0.333769 0.882140 0.580000
0.656935 0.885916 0.589169
0.856606 0.887471 0.594456
0.979615 0.889143 0.602587
1.020691 0.894635 0.612895
0.000000 0.968954 0.531947
0.000000 0.976000 0.549537
0.000000 0.980930 0.565331
0.000000 0.983986 0.578670
0.279996 0.985880 0.588236
0.647100 0.985413 0.597881
0.850928 0.983522 0.605754
0.969248 0.982784 0.612982
1.003197 0.984534 0.624344
0.000000 1.016402 0.550082
0.000000 1.017227 0.568856
0.000000 1.017013 0.585419
0.000000 1.016022 0.597122
0.304231 1.013276 0.607140
0.663733 1.008818 0.617467
0.861759 1.004199 0.625997
0.973852 1.000797 0.635322
0.999919 0.999919 0.645089
0.000000 0.000000 0.624193
0.000548 0.000000 0.638706
0.061106 0.000000 0.654609
0.191642 0.000000 0.665392
0.391359 0.000000 0.675407
0.617807 0.000000 0.685667
0.815199 0.000000 0.693347
0.971073 0.000000 0.699051
1.066364 0.000000 0.707343
0.000000 0.004970 0.654623
0.000000 0.006633 0.670332
0.075449 0.000000 0.684471
0.216050 0.000000 0.695243
0.422559 0.000000 0.706333
0.651544 0.000000 0.714513
0.844500 0.000000 0.721974
0.991992 0.000000 0.729499
1.074688 0.000000 0.737997
0.000000 0.090448 0.681178
0.000000 0.099154 0.696899
0.076704 0.106700 0.710465
0.235737 0.104153 0.720746
0.449136 0.063812 0.731675
0.679021 0.000000 0.739788
0.867819 0.000000 0.746835
1.006845 0.000000 0.754027
1.079215 0.000000 0.762507
0.000000 0.242024 0.701449
0.000000 0.255731 0.716428
0.000000 0.267731 0.729880
0.230665 0.274350 0.740027
0.463008 0.274843 0.750293
0.694969 0.262838 0.757726
0.881238 0.244528 0.764654
1.014648 0.227523 0.771908
1.078222 0.223207 0.780371
0.000000 0.454671 0.718437
0.000000 0.470556 0.733226
0.000000 0.486456 0.745941
0.132741 0.494737 0.755397
0.451263 0.502692 0.765233
0.697623 0.504352 0.772446
0.884263 0.504477 0.778992
1.011618 0.506011 0.785634
1.066410 0.513225 0.793693
0.000000 0.675837 0.729827
0.000000 0.690899 0.743785
0.000000 0.704068 0.756301
0.000000 0.713350 0.765633
0.404010 0.721750 0.773569
0.681197 0.725475 0.781492
0.873324 0.728328 0.787718
0.998718 0.732471 0.794495
1.044270 0.738840 0.801482
0.000000 0.850772 0.735542
0.000000 0.862548 0.749819
0.000000 0.872462 0.762437
0.000000 0.879356 0.771268
0.337933 0.885469 0.780387
0.661873 0.888816 0.786957
0.860233 0.889378 0.793583
0.981040 0.892146 0.800129
1.020135 0.897725 0.808110
0.000000 0.971114 0.743553
0.000000 0.977702 0.757909
0.000000 0.982624 0.770439
0.000000 0.985656 0.779668
0.286922 0.987539 0.789220
0.652587 0.986543 0.795728
0.854507 0.984666 0.801991
0.971031 0.983974 0.809053
1.003020 0.985375 0.817730
0.000000 1.016734 0.758004
0.000000 1.017227 0.772707
0.000000 1.017002 0.785817
0.000000 1.015982 0.796462
0.312736 1.013220 0.804178
0.669704 1.008703 0.812195
0.865523 1.004095 0.817510
0.974846 1.000764 0.825058
0.999919 0.999919 0.833257
0.000000 0.000000 0.800159
0.000698 0.000000 0.813765
0.062596 0.000000 0.826015
0.195457 0.000000 0.835400
0.396224 0.000000 0.843466
0.622944 0.000000 0.851785
0.819750 0.000000 0.858179
0.974276 0.000000 0.863203
1.067241 0.000000 0.869932
0.000000 0.005466 0.826026
0.000000 0.007473 0.839348
0.078076 0.000000 0.850665
0.220159 0.000000 0.859290
0.427548 0.000000 0.868544
0.654915 0.000000 0.875296
0.847347 0.000000 0.880883
0.993835 0.000000 0.886500
1.076004 0.000000 0.893008
0.000000 0.092120 0.848035
0.000000 0.101052 0.860612
0.079402 0.108563 0.871912
0.239745 0.106981 0.880007
0.454112 0.065920 0.888218
0.682245 0.000000 0.894278
0.870625 0.000000 0.899854
1.008663 0.000000 0.905467
1.079701 0.000000 0.911265
0.000000 0.244760 0.864502
0.000000 0.258480 0.876738
0.000000 0.270468 0.886864
0.232973 0.278480 0.894467
0.466211 0.277693 0.902516
0.698025 0.267593 0.909299
0.883684 0.250006 0.912856
1.016848 0.231539 0.917685
1.078841 0.230451 0.923563
0.000000 0.459433 0.878127
0.000000 0.475330 0.889205
0.000000 0.489736 0.899119
0.134445 0.499665 0.906403
0.453939 0.507632 0.913110
0.700342 0.509368 0.918901
0.886495 0.509422 0.922296
1.013558 0.511085 0.927071
1.066406 0.516758 0.932328
0.000000 0.678922 0.886605
0.000000 0.693864 0.897569
0.000000 0.707033 0.906188
0.000000 0.717775 0.912477
0.410183 0.724638 0.919081
0.685629 0.729638 0.923643
0.876487 0.732551 0.927170
0.999594 0.735367 0.931072
1.043862 0.743295 0.935177
0.000000 0.854477 0.890807
0.000000 0.865910 0.900585
0.000000 0.875821 0.909329
0.000000 0.882690 0.915758
0.342077 0.888798 0.921601
0.665166 0.890747 0.925286
0.862268 0.892349 0.928818
0.981795 0.895176 0.932893
1.019763 0.899786 0.938125
0.000000 0.972554 0.895469
0.000000 0.978837 0.905678
0.000000 0.983750 0.914373
0.000000 0.987338 0.919992
0.298684 0.988600 0.925692
0.656077 0.987711 0.929613
0.856677 0.985848 0.933504
0.972904 0.984744 0.936945
1.002754 0.986635 0.941654
0.000000 1.016899 0.905619
0.000000 1.017226 0.915343
0.000000 1.016994 0.923597
0.000000 1.015956 0.930492
0.325041 1.013137 0.935535
0.675648 1.008587 0.939548
0.869283 1.003989 0.942646
0.976337 1.000715 0.945673
0.999919 0.999919 0.950749
0.000000 0.000000 0.939124
0.000799 0.000000 0.948777
0.064837 0.000000 0.956705
0.198002 0.000000 0.962749
0.399470 0.000000 0.968302
0.626305 0.000000 0.973442
0.822784 0.000000 0.976529
0.977479 0.000000 0.979507
1.068557 0.000000 0.982418
0.000000 0.005799 0.956715
0.000000 0.008036 0.965540
0.079830 0.000000 0.973473
0.224273 0.000000 0.978443
0.432541 0.000000 0.983601
0.659974 0.000000 0.987159
0.851619 0.000000 0.990223
0.996604 0.000000 0.992679
1.076880 0.000000 0.995416
0.000000 0.094633 0.971609
0.000000 0.103906 0.979229
0.080659 0.111424 0.985794
0.243834 0.108719 0.990707
0.459074 0.070248 0.995755
0.687138 0.000000 0.998104
0.874768 0.000000 1.000019
1.011392 0.000000 1.002061
1.080466 0.000000 1.004959
0.000000 0.248871 0.981165
0.000000 0.262606 0.988375
0.000000 0.274599 0.994829
0.237408 0.281157 0.998681
0.471018 0.281970 1.002293
0.702855 0.270391 1.005052
0.887534 0.253192 1.006276
1.018209 0.238004 1.007793
1.079186 0.237748 1.009560
0.000000 0.462609 0.988337
0.000000 0.480107 0.994500
0.000000 0.494673 0.999310
0.142421 0.502913 1.002828
0.459016 0.510831 1.006151
0.704674 0.514301 1.007781
0.890265 0.512550 1.007877
1.014850 0.514464 1.008647
1.066167 0.522075 1.010400
0.000000 0.683488 0.990150
0.000000 0.698315 0.995387
0.000000 0.711481 1.000033
0.000000 0.720725 1.002684
0.413201 0.728840 1.004468
0.688585 0.732414 1.005051
0.878595 0.735368 1.005397
1.000905 0.739711 1.005941
1.043541 0.747745 1.006275
0.000000 0.856948 0.988651
0.000000 0.868152 0.993776
0.000000 0.878056 0.996958
0.000000 0.886025 0.999016
0.350725 0.890710 1.000828
0.670100 0.893648 1.001318
0.865896 0.894257 1.000583
0.983414 0.897153 1.000262
1.019201 0.902876 1.001053
0.000000 0.974715 0.987814
0.000000 0.980540 0.991746
0.000000 0.985448 0.995206
0.000000 0.988439 0.997515
0.305377 0.990100 0.998384
0.661698 0.988425 0.998183
0.860205 0.986578 0.997372
0.974001 0.985958 0.997389
1.002487 0.987897 0.998226
0.000000 1.017064 0.990275
0.000000 1.017226 0.994644
0.000000 1.016986 0.997781
0.000000 1.015915 0.999387
0.332978 1.013080 0.999893
0.679599 1.008510 0.999853
0.871787 1.003919 0.999201
0.977330 1.000682 0.998218
0.999919 0.999919 0.998486
0.000000 0.000000 1.021466
0.000953 0.000000 1.025658
0.066335 0.000000 1.029257
0.201826 0.000000 1.030902
0.404342 0.000000 1.032339
0.631348 0.000000 1.032725
0.827338 0.000000 1.032572
0.979615 0.000000 1.031395
1.069434 0.000000 1.030567
0.000000 0.006300 1.029266
0.000000 0.008886 1.031799
0.082468 0.000000 1.034063
0.227018 0.000000 1.035671
0.435872 0.000000 1.036508
0.663348 0.000000 1.035593
0.854468 0.000000 1.034201
0.999372 0.000000 1.032801
1.077674 0.000000 1.032048
0.000000 0.097258 1.033461
0.000000 0.105812 1.035970
0.083038 0.114268 1.037352
0.246434 0.111702 1.037716
0.462359 0.075780 1.037586
0.690362 0.000000 1.036534
0.877352 0.000000 1.034806
1.014136 0.000000 1.032836
1.081215 0.000000 1.031695
0.000000 0.251613 1.036030
0.000000 0.265360 1.036730
0.000000 0.277340 1.037317
0.239673 0.285470 1.037531
0.474224 0.284823 1.036966
0.707588 0.274918 1.035090
0.891312 0.258347 1.032880
1.020407 0.241920 1.030883
1.079504 0.242498 1.029738
0.000000 0.467376 1.033568
0.000000 0.483397 1.034015
0.000000 0.497958 1.034088
0.144113 0.507847 1.033479
0.461696 0.515776 1.032146
0.709267 0.517360 1.029986
0.893736 0.517403 1.027541
1.016785 0.519532 1.025388
1.066157 0.525599 1.024253
0.000000 0.686452 1.027405
0.000000 0.701284 1.026931
0.000000 0.714446 1.026273
0.000000 0.725153 1.025380
0.416898 0.731615 1.023852
0.693021 0.736580 1.021389
0.881759 0.739593 1.018769
1.001779 0.742608 1.016594
1.043339 0.750616 1.015394
0.000000 0.860309 1.018700
0.000000 0.871515 1.018026
0.000000 0.881413 1.017331
0.000000 0.888248 1.016445
0.358442 0.893626 1.014747
0.673187 0.895586 1.012302
0.867930 0.897231 1.009690
0.984838 0.900159 1.007544
1.018825 0.904936 1.006585
0.000000 0.976570 1.011069
0.000000 0.981675 1.010699
0.000000 0.987143 1.010190
0.000000 0.990120 1.009444
0.316791 0.990840 1.007913
0.665174 0.989592 1.005589
0.863623 0.987725 1.003190
0.975492 0.986741 1.001406
1.002309 0.988738 1.000755
0.000000 1.017231 1.008054
0.000000 1.017225 1.008052
0.000000 1.016974 1.007933
0.000000 1.015874 1.007413
0.344525 1.012995 1.006054
0.685504 1.008392 1.003888
0.875539 1.003813 1.001740
0.978820 1.000632 1.000252
0.999919 0.999919 0.999919
