transforms/MG06_silver_sat_d65_r709.cube
#  MG_06_D65_r709.cube
LUT_3D_SIZE 33
0.000000 0.000000 0.000000
0.000000 0.000000 0.000000
0.000000 0.000000 0.000000
0.000000 0.000000 0.000000
0.000000 0.000000 0.000000
0.001744 0.000000 0.000000
0.009225 0.000000 0.000000
0.024894 0.000000 0.000000
0.050142 0.000000 0.000000
0.074616 0.000000 0.000000
0.103024 0.000000 0.000000
0.134756 0.000000 0.000000
0.172662 0.000000 0.000000
0.214698 0.000000 0.000000
0.263284 0.000000 0.000000
0.313812 0.000000 0.000000
0.367106 0.000000 0.000000
0.422569 0.000000 0.000000
0.479575 0.000000 0.000000
0.536476 0.000000 0.000000
0.592170 0.000000 0.000000
0.644811 0.000000 0.000000
0.696588 0.000000 0.000000
0.745398 0.000000 0.000000
0.792478 0.000000 0.000000
0.837391 0.000000 0.000000
0.879720 0.000000 0.000000
0.919069 0.000000 0.000000
0.955071 0.000000 0.000000
0.987095 0.000000 0.000000
1.015089 0.000000 0.000000
1.038796 0.000000 0.000000
1.057993 0.000000 0.000000
0.000000 0.000000 0.000000
0.000000 0.000000 0.000000
0.000000 0.000000 0.000000
0.000000 0.000000 0.000000
0.000037 0.000000 0.000000
0.002255 0.000000 0.000000
0.010372 0.000000 0.000000
0.026892 0.000000 0.000000
0.052958 0.000000 0.000000
0.079007 0.000000 0.000000
0.108096 0.000000 0.000000
0.140360 0.000000 0.000000
0.178972 0.000000 0.000000
0.221549 0.000000 0.000000
0.269149 0.000000 0.000000
0.321554 0.000000 0.000000
0.375177 0.000000 0.000000
0.430889 0.000000 0.000000
0.488057 0.000000 0.000000
0.545307 0.000000 0.000000
0.600706 0.000000 0.000000
0.653237 0.000000 0.000000
0.704815 0.000000 0.000000
0.753338 0.000000 0.000000
0.800046 0.000000 0.000000
0.844508 0.000000 0.000000
0.886311 0.000000 0.000000
0.925063 0.000000 0.000000
0.960404 0.000000 0.000000
0.992001 0.000000 0.000000
1.019556 0.000000 0.000000
1.042647 0.000000 0.000000
1.061032 0.000000 0.000000
0.000000 0.000000 0.000000
0.000000 0.000000 0.000000
0.000000 0.000000 0.000000
0.000000 0.000000 0.000000
0.000144 0.000000 0.000000
0.002774 0.000000 0.000000
0.011527 0.000000 0.000000
0.029337 0.000000 0.000000
0.056650 0.000000 0.000000
0.083416 0.000000 0.000000
0.112168 0.000000 0.000000
0.146090 0.000000 0.000000
0.185299 0.000000 0.000000
0.228416 0.000000 0.000000
0.276495 0.000000 0.000000
0.329310 0.000000 0.000000
0.383261 0.000000 0.000000
0.439220 0.000000 0.000000
0.494850 0.000000 0.000000
0.552380 0.000000 0.000000
0.609252 0.000000 0.000000
0.661671 0.000000 0.000000
0.713049 0.000000 0.000000
0.761284 0.000000 0.000000
0.807620 0.000000 0.000000
0.851630 0.000000 0.000000
0.892904 0.000000 0.000000
0.931058 0.000000 0.000000
0.965738 0.000000 0.000000
0.996615 0.000000 0.000000
1.023402 0.000000 0.000000
1.045846 0.000000 0.000000
1.063732 0.000000 0.000000
0.000000 0.000000 0.000000
0.000000 0.000000 0.000000
0.000000 0.000000 0.000000
0.000000 0.000012 0.000000
0.000235 0.000000 0.000000
0.003301 0.000000 0.000000
0.012783 0.000000 0.000000
0.031391 0.000000 0.000000
0.060362 0.000000 0.000000
0.087844 0.000000 0.000000
0.117273 0.000000 0.000000
0.151837 0.000000 0.000000
0.191642 0.000000 0.000000
0.235300 0.000000 0.000000
0.283855 0.000000 0.000000
0.335524 0.000000 0.000000
0.391359 0.000000 0.000000
0.447565 0.000000 0.000000
0.503352 0.000000 0.000000
0.561229 0.000000 0.000000
0.617807 0.000000 0.000000
0.670114 0.000000 0.000000
0.721290 0.000000 0.000000
0.769235 0.000000 0.000000
0.815199 0.000000 0.000000
0.858756 0.000000 0.000000
0.899502 0.000000 0.000000
0.937057 0.000000 0.000000
0.971073 0.000000 0.000000
1.001231 0.000000 0.000000
1.027248 0.000000 0.000000
1.048881 0.000000 0.000000
1.065925 0.000000 0.000000
0.000000 0.001206 0.000000
0.000000 0.001429 0.000000
0.000000 0.001579 0.000000
0.000000 0.001807 0.000000
0.000000 0.001959 0.000000
0.003570 0.002605 0.000000
0.014037 0.001485 0.000000
0.033948 0.000000 0.000000
0.064073 0.000000 0.000000
0.092277 0.000000 0.000000
0.122387 0.000000 0.000000
0.157594 0.000000 0.000000
0.196724 0.000000 0.000000
0.242194 0.000000 0.000000
0.291227 0.000000 0.000000
0.343301 0.000000 0.000000
0.397843 0.000000 0.000000
0.454244 0.000000 0.000000
0.511862 0.000000 0.000000
0.570016 0.000000 0.000000
0.624622 0.000000 0.000000
0.678512 0.000000 0.000000
0.727885 0.000000 0.000000
0.775599 0.000000 0.000000
0.822780 0.000000 0.000000
0.865884 0.000000 0.000000
0.906099 0.000000 0.000000
0.943055 0.000000 0.000000
0.976408 0.000000 0.000000
1.005844 0.000000 0.000000
1.031092 0.000000 0.000000
1.051914 0.000000 0.000000
1.068113 0.000000 0.000000
0.000000 0.007429 0.000000
0.000000 0.007781 0.000000
0.000000 0.008312 0.000000
0.000000 0.008667 0.000000
0.000000 0.009202 0.000000
0.000000 0.009540 0.000000
0.014922 0.011929 0.000000
0.036168 0.013239 0.000000
0.067552 0.010652 0.000000
0.095674 0.000000 0.000000
0.127399 0.000000 0.000000
0.162116 0.000000 0.000000
0.203016 0.000000 0.000000
0.249042 0.000000 0.000000
0.298560 0.000000 0.000000
0.351050 0.000000 0.000000
0.405923 0.000000 0.000000
0.462606 0.000000 0.000000
0.520573 0.000000 0.000000
0.578497 0.000000 0.000000
0.632998 0.000000 0.000000
0.686694 0.000000 0.000000
0.735851 0.000000 0.000000
0.783373 0.000000 0.000000
0.828826 0.000000 0.000000
0.871567 0.000000 0.000000
0.911358 0.000000 0.000000
0.947833 0.000000 0.000000
0.980655 0.000000 0.000000
1.009513 0.000000 0.000000
1.034143 0.000000 0.000000
1.054924 0.000000 0.000000
1.070277 0.000000 0.000000
0.000000 0.020958 0.000000
0.000000 0.021994 0.000000
0.000000 0.022803 0.000000
0.000000 0.024019 0.000000
0.000000 0.024833 0.000000
0.000000 0.026044 0.000000
0.011098 0.026745 0.000000
0.036220 0.032021 0.000000
0.069304 0.036497 0.000000
0.099327 0.034317 0.000000
0.130926 0.029320 0.000000
0.167462 0.013212 0.000000
0.207788 0.000000 0.000000
0.254315 0.000000 0.000000
0.304262 0.000000 0.000000
0.357200 0.000000 0.000000
0.412395 0.000000 0.000000
0.469227 0.000000 0.000000
0.527489 0.000000 0.000000
0.585193 0.000000 0.000000
0.641304 0.000000 0.000000
0.693164 0.000000 0.000000
0.743682 0.000000 0.000000
0.790838 0.000000 0.000000
0.835847 0.000000 0.000000
0.878284 0.000000 0.000000
0.917753 0.000000 0.000000
0.953755 0.000000 0.000000
0.985911 0.000000 0.000000
1.014047 0.000000 0.000000
1.037908 0.000000 0.000000
1.057266 0.000000 0.000000
1.071943 0.000000 0.000000
0.000000 0.044631 0.000000
0.000000 0.045827 0.000000
0.000000 0.047626 0.000000
0.000000 0.048829 0.000000
0.000000 0.050033 0.000000
0.000000 0.051835 0.000000
0.000000 0.052963 0.000000
0.032265 0.053874 0.000000
0.068760 0.063534 0.000000
0.100885 0.062588 0.000000
0.133528 0.061383 0.000000
0.170971 0.058285 0.000000
0.213392 0.051821 0.000000
0.259302 0.038973 0.000000
0.309854 0.000000 0.000000
0.363149 0.000000 0.000000
0.420293 0.000000 0.000000
0.477339 0.000000 0.000000
0.535993 0.000000 0.000000
0.591727 0.000000 0.000000
0.647771 0.000000 0.000000
0.699491 0.000000 0.000000
0.749803 0.000000 0.000000
0.796672 0.000000 0.000000
0.841326 0.000000 0.000000
0.883353 0.000000 0.000000
0.922350 0.000000 0.000000
0.957959 0.000000 0.000000
0.989850 0.000000 0.000000
1.017556 0.000000 0.000000
1.040797 0.000000 0.000000
1.059508 0.000000 0.000000
1.073504 0.000000 0.000000
0.000000 0.077982 0.000000
0.000000 0.079635 0.000000
0.000000 0.082121 0.000000
0.000000 0.083781 0.000000
0.000000 0.086276 0.000000
0.000000 0.087935 0.000000
0.000000 0.089540 0.000000
0.013360 0.091822 0.000000
0.064806 0.092947 0.000000
0.100510 0.093606 0.000000
0.135111 0.092822 0.000000
0.173797 0.092112 0.000000
0.215765 0.090053 0.000000
0.263805 0.085612 0.000000
0.314937 0.077914 0.000000
0.368680 0.064590 0.000000
0.424477 0.035554 0.000000
0.481727 0.000000 0.000000
0.540696 0.000000 0.000000
0.598023 0.000000 0.000000
0.652338 0.000000 0.000000
0.705622 0.000000 0.000000
0.754132 0.000000 0.000000
0.800815 0.000000 0.000000
0.846640 0.000000 0.000000
0.888252 0.000000 0.000000
0.926793 0.000000 0.000000
0.961878 0.000000 0.000000
0.993205 0.000000 0.000000
1.020452 0.000000 0.000000
1.043377 0.000000 0.000000
1.061604 0.000000 0.000000
1.074918 0.000000 0.000000
0.000000 0.106767 0.000000
0.000000 0.109632 0.000000
0.000000 0.111546 0.000000
0.000000 0.113462 0.000000
0.000000 0.116340 0.000000
0.000000 0.118256 0.000000
0.000000 0.121096 0.000000
0.000000 0.122854 0.000000
0.052656 0.124397 0.000000
0.095974 0.125613 0.000000
0.134557 0.126606 0.000000
0.173778 0.127033 0.000000
0.218509 0.125310 0.000000
0.266023 0.123503 0.000000
0.319395 0.119706 0.000000
0.373696 0.113835 0.000000
0.429907 0.104908 0.000000
0.487450 0.091381 0.000000
0.545031 0.069573 0.000000
0.604030 0.000000 0.000000
0.658329 0.000000 0.000000
0.709859 0.000000 0.000000
0.759832 0.000000 0.000000
0.806261 0.000000 0.000000
0.850325 0.000000 0.000000
0.891642 0.000000 0.000000
0.929848 0.000000 0.000000
0.964550 0.000000 0.000000
0.995438 0.000000 0.000000
1.022249 0.000000 0.000000
1.044688 0.000000 0.000000
1.062563 0.000000 0.000000
1.075705 0.000000 0.000000
0.000000 0.139793 0.000000
0.000000 0.143021 0.000000
0.000000 0.145176 0.000000
0.000000 0.148412 0.000000
0.000000 0.150572 0.000000
0.000000 0.153813 0.000000
0.000000 0.155942 0.000000
0.000000 0.157979 0.000000
0.000000 0.159846 0.000000
0.086809 0.161568 0.000000
0.129535 0.163104 0.000000
0.171793 0.163000 0.000000
0.218200 0.163381 0.000000
0.268501 0.162836 0.000000
0.321287 0.161197 0.000000
0.376264 0.158221 0.000000
0.432976 0.153628 0.000000
0.490880 0.147068 0.000000
0.550657 0.137774 0.000000
0.607823 0.125952 0.000000
0.662218 0.108302 0.000000
0.715373 0.085927 0.000000
0.763589 0.048974 0.000000
0.809828 0.000000 0.000000
0.853699 0.000000 0.000000
0.894735 0.000000 0.000000
0.933794 0.000000 0.000000
0.968013 0.000000 0.000000
0.998340 0.000000 0.000000
1.024524 0.000000 0.000000
1.046347 0.000000 0.000000
1.063548 0.000000 0.000000
1.075989 0.000000 0.000000
0.000000 0.177969 0.000000
0.000000 0.181532 0.000000
0.000000 0.183912 0.000000
0.000000 0.187485 0.000000
0.000000 0.189869 0.000000
0.000000 0.193446 0.000000
0.000000 0.195804 0.000000
0.000000 0.198089 0.000000
0.000000 0.200324 0.000000
0.061562 0.202475 0.000000
0.118534 0.204407 0.000000
0.167148 0.205979 0.000000
0.216614 0.207047 0.000000
0.267575 0.206178 0.000000
0.323315 0.205689 0.000000
0.379292 0.204351 0.000000
0.436741 0.201947 0.000000
0.495177 0.198340 0.000000
0.555553 0.193169 0.000000
0.612714 0.186993 0.000000
0.667154 0.179738 0.000000
0.718690 0.169449 0.000000
0.768442 0.159508 0.000000
0.814468 0.148538 0.000000
0.858015 0.135982 0.000000
0.898729 0.118188 0.000000
0.936146 0.101302 0.000000
0.969971 0.081132 0.000000
0.999932 0.040444 0.000000
1.025671 0.000000 0.000000
1.046987 0.000000 0.000000
1.063722 0.000000 0.000000
1.075637 0.000000 0.000000
0.000000 0.222547 0.000000
0.000000 0.225127 0.000000
0.000000 0.229002 0.000000
0.000000 0.231589 0.000000
0.000000 0.235471 0.000000
0.000000 0.238058 0.000000
0.000000 0.240625 0.000000
0.000000 0.244642 0.000000
0.000000 0.247191 0.000000
0.000000 0.248221 0.000000
0.097916 0.250459 0.000000
0.157303 0.252414 0.000000
0.210028 0.254022 0.000000
0.265333 0.255084 0.000000
0.321486 0.255560 0.000000
0.378852 0.255357 0.000000
0.439188 0.252779 0.000000
0.498352 0.250918 0.000000
0.559483 0.247979 0.000000
0.615000 0.244721 0.000000
0.671306 0.240443 0.000000
0.722876 0.235909 0.000000
0.772639 0.228929 0.000000
0.818492 0.223540 0.000000
0.861774 0.218006 0.000000
0.902162 0.210115 0.000000
0.939166 0.204471 0.000000
0.972510 0.199217 0.000000
1.001892 0.194670 0.000000
1.027096 0.188414 0.000000
1.047778 0.186192 0.000000
1.063802 0.185650 0.000000
1.075070 0.184044 0.000000
0.000000 0.270877 0.000000
0.000000 0.273637 0.000000
0.000000 0.276400 0.000000
0.000000 0.280548 0.000000
0.000000 0.283316 0.000000
0.000000 0.287583 0.000000
0.000000 0.290448 0.000000
0.000000 0.293263 0.000000
0.000000 0.297445 0.000000
0.000000 0.298612 0.000000
0.033901 0.301095 0.000000
0.136134 0.303376 0.000000
0.199768 0.305329 0.000000
0.259759 0.306873 0.000000
0.318793 0.307957 0.000000
0.378361 0.307006 0.000000
0.438164 0.306958 0.000000
0.498306 0.306283 0.000000
0.560117 0.304819 0.000000
0.617778 0.303002 0.000000
0.672635 0.300802 0.000000
0.725942 0.298188 0.000000
0.774210 0.293860 0.000000
0.820184 0.291058 0.000000
0.863345 0.288181 0.000000
0.903558 0.283391 0.000000
0.941513 0.280482 0.000000
0.974401 0.278186 0.000000
1.003335 0.274339 0.000000
1.027905 0.273293 0.000000
1.047961 0.273138 0.000000
1.063387 0.271794 0.000000
1.073632 0.273814 0.000000
0.000000 0.320938 0.000000
0.000000 0.325308 0.000000
0.000000 0.328224 0.000000
0.000000 0.332646 0.000000
0.000000 0.335655 0.000000
0.000000 0.340170 0.000000
0.000000 0.343161 0.000000
0.000000 0.346113 0.000000
0.000000 0.350505 0.000000
0.000000 0.351786 0.000000
0.000000 0.354450 0.000000
0.097578 0.356955 0.000000
0.182367 0.359191 0.000000
0.249882 0.361092 0.000000
0.313048 0.362619 0.000000
0.375352 0.362166 0.000000
0.437015 0.362785 0.000000
0.498664 0.362899 0.000000
0.561137 0.362427 0.000000
0.619361 0.361717 0.000000
0.674550 0.360769 0.000000
0.728024 0.359492 0.000000
0.776323 0.356526 0.000000
0.822182 0.355148 0.000000
0.865344 0.353728 0.000000
0.905540 0.350526 0.000000
0.941927 0.349363 0.000000
0.974518 0.348517 0.000000
1.003118 0.346175 0.000000
1.027280 0.346298 0.000000
1.047498 0.346979 0.000000
1.062281 0.346534 0.000000
1.072093 0.348865 0.000000
0.000000 0.374960 0.000000
0.000000 0.379518 0.000000
0.000000 0.382617 0.000000
0.000000 0.387271 0.000000
0.000000 0.390375 0.000000
0.000000 0.395033 0.000000
0.000000 0.398122 0.000000
0.000000 0.401175 0.000000
0.000000 0.404171 0.000000
0.000000 0.407084 0.000000
0.000000 0.409903 0.000000
0.000000 0.412564 0.000000
0.153252 0.415010 0.000000
0.232200 0.417206 0.000000
0.301693 0.419068 0.000000
0.369768 0.418929 0.000000
0.433750 0.420033 0.000000
0.495333 0.420815 0.000000
0.558821 0.421086 0.000000
0.619615 0.421037 0.000000
0.675286 0.420873 0.000000
0.727564 0.418874 0.000000
0.777456 0.418390 0.000000
0.823262 0.417937 0.000000
0.866256 0.417471 0.000000
0.906205 0.415290 0.000000
0.942503 0.415045 0.000000
0.974968 0.415061 0.000000
1.003107 0.413620 0.000000
1.026721 0.414459 0.000000
1.045718 0.415818 0.000000
1.060034 0.415878 0.000000
1.069323 0.418431 0.000000
0.000000 0.430923 0.000000
0.000000 0.435664 0.000000
0.000000 0.438828 0.000000
0.000000 0.443577 0.000000
0.000000 0.446744 0.000000
0.000000 0.451495 0.000000
0.000000 0.454648 0.000000
0.000000 0.457770 0.000000
0.000000 0.460839 0.000000
0.000000 0.463835 0.000000
0.000000 0.466752 0.000000
0.000000 0.469531 0.000000
0.090181 0.472146 0.000000
0.209729 0.472900 0.000000
0.288508 0.474987 0.000000
0.359012 0.476827 0.000000
0.426093 0.478398 0.000000
0.491894 0.479610 0.000000
0.556609 0.480460 0.000000
0.616598 0.481130 0.000000
0.674936 0.479809 0.000000
0.727185 0.481941 0.000000
0.777474 0.480453 0.000000
0.823476 0.478973 0.000000
0.866174 0.481052 0.000000
0.905922 0.479622 0.000000
0.942040 0.478313 0.000000
0.974077 0.479041 0.000000
1.001915 0.480071 0.000000
1.025310 0.481467 0.000000
1.043840 0.481460 0.000000
1.057387 0.483790 0.000000
1.065968 0.486628 0.000000
0.000000 0.488335 0.000000
0.000000 0.491630 0.000000
0.000000 0.496575 0.000000
0.000000 0.501523 0.000000
0.000000 0.504823 0.000000
0.000000 0.509774 0.000000
0.000000 0.511409 0.000000
0.000000 0.516321 0.000000
0.000000 0.519531 0.000000
0.000000 0.522683 0.000000
0.000000 0.524095 0.000000
0.000000 0.527063 0.000000
0.000000 0.529859 0.000000
0.172271 0.532309 0.000000
0.268308 0.534530 0.000000
0.346063 0.536494 0.000000
0.417344 0.538179 0.000000
0.486160 0.539552 0.000000
0.552868 0.538996 0.000000
0.614077 0.539904 0.000000
0.671254 0.540678 0.000000
0.726019 0.541286 0.000000
0.774809 0.541962 0.000000
0.821054 0.540902 0.000000
0.864003 0.541527 0.000000
0.903549 0.542223 0.000000
0.940658 0.541246 0.000000
0.972320 0.542268 0.000000
0.999699 0.543552 0.000000
1.022716 0.543400 0.000000
1.040854 0.545355 0.000000
1.054119 0.547644 0.000000
1.062164 0.548664 0.000000
0.000000 0.545616 0.000000
0.000000 0.548804 0.000000
0.000000 0.553588 0.000000
0.000000 0.556779 0.000000
0.000000 0.561568 0.000000
0.000000 0.564759 0.000000
0.000000 0.569536 0.000000
0.000000 0.572689 0.000000
0.000000 0.575796 0.000000
0.000000 0.578852 0.000000
0.000000 0.581841 0.000000
0.000000 0.583087 0.000000
0.000000 0.585760 0.000000
0.107910 0.588243 0.000000
0.242657 0.590524 0.000000
0.330432 0.592577 0.000000
0.406861 0.594386 0.000000
0.477041 0.595966 0.000000
0.545457 0.597256 0.000000
0.610098 0.598339 0.000000
0.668560 0.597742 0.000000
0.722238 0.598700 0.000000
0.773092 0.599569 0.000000
0.819289 0.600481 0.000000
0.862464 0.599746 0.000000
0.901871 0.600730 0.000000
0.937442 0.601837 0.000000
0.969088 0.601435 0.000000
0.996174 0.602940 0.000000
1.018684 0.604620 0.000000
1.036579 0.604967 0.000000
1.049370 0.607309 0.000000
1.057203 0.610014 0.000000
0.000000 0.599652 0.000000
0.000000 0.604375 0.000000
0.000000 0.607526 0.000000
0.000000 0.612253 0.000000
0.000000 0.615407 0.000000
0.000000 0.620135 0.000000
0.000000 0.623275 0.000000
0.000000 0.626389 0.000000
0.000000 0.629463 0.000000
0.000000 0.632484 0.000000
0.000000 0.635354 0.000000
0.000000 0.638126 0.000000
0.000000 0.640780 0.000000
0.000000 0.641712 0.000000
0.204905 0.644001 0.000000
0.308868 0.646085 0.000000
0.392149 0.647951 0.000000
0.468677 0.649560 0.000000
0.539301 0.650964 0.000000
0.603669 0.652237 0.000000
0.664840 0.653347 0.000000
0.719539 0.652880 0.000000
0.770825 0.653918 0.000000
0.817225 0.654999 0.000000
0.860454 0.654491 0.000000
0.899748 0.655649 0.000000
0.935083 0.656920 0.000000
0.966204 0.658289 0.000000
0.993064 0.658232 0.000000
1.015055 0.659987 0.000000
1.032194 0.662023 0.000000
1.044518 0.662792 0.000000
1.051555 0.665465 0.000000
0.000000 0.652740 0.000000
0.000000 0.655816 0.000000
0.000000 0.660432 0.000000
0.000000 0.663511 0.000000
0.000000 0.668131 0.000000
0.000000 0.671209 0.000000
0.000000 0.674275 0.000000
0.000000 0.678859 0.000000
0.000000 0.681861 0.000000
0.000000 0.684697 0.000000
0.000000 0.685985 0.000000
0.000000 0.688680 0.000000
0.000000 0.691245 0.000000
0.000000 0.693654 0.000000
0.152440 0.695895 0.000000
0.285202 0.697951 0.000000
0.378022 0.698310 0.000000
0.459360 0.699925 0.000000
0.532460 0.701365 0.000000
0.598603 0.702685 0.000000
0.659102 0.703918 0.000000
0.716146 0.705044 0.000000
0.766554 0.704703 0.000000
0.813305 0.705864 0.000000
0.856481 0.707047 0.000000
0.896073 0.706744 0.000000
0.931334 0.708088 0.000000
0.962293 0.709422 0.000000
0.988702 0.710946 0.000000
1.010556 0.711209 0.000000
1.027289 0.713211 0.000000
1.039247 0.715479 0.000000
1.045678 0.716584 0.000000
0.000000 0.701286 0.000000
0.000000 0.704255 0.000000
0.000000 0.708711 0.000000
0.000000 0.711684 0.000000
0.000000 0.716142 0.000000
0.000000 0.719112 0.000000
0.000000 0.723559 0.000000
0.000000 0.726495 0.000000
0.000000 0.729394 0.000000
0.000000 0.732093 0.000000
0.000000 0.734743 0.000000
0.000000 0.735891 0.000000
0.000000 0.738352 0.000000
0.000000 0.740660 0.000000
0.000000 0.742811 0.000000
0.255227 0.744791 0.000000
0.359102 0.746587 0.000000
0.446413 0.748162 0.000000
0.522597 0.749583 0.000000
0.591219 0.749454 0.000000
0.653055 0.750682 0.000000
0.711029 0.751814 0.000000
0.761827 0.753003 0.000000
0.809262 0.752719 0.000000
0.854089 0.753850 0.000000
0.893358 0.755104 0.000000
0.928430 0.756366 0.000000
0.959288 0.756290 0.000000
0.985275 0.757771 0.000000
1.006425 0.759461 0.000000
1.022777 0.759997 0.000000
1.033806 0.762182 0.000000
1.039624 0.764638 0.000000
0.000000 0.747920 0.000000
0.000000 0.750751 0.000000
0.000000 0.755001 0.000000
0.000000 0.757834 0.000000
0.000000 0.762085 0.000000
0.000000 0.764916 0.000000
0.000000 0.767737 0.000000
0.000000 0.771954 0.000000
0.000000 0.774715 0.000000
0.000000 0.777253 0.000000
0.000000 0.778412 0.000000
0.000000 0.780819 0.000000
0.000000 0.783119 0.000000
0.000000 0.785300 0.000000
0.000000 0.787322 0.000000
0.222334 0.789156 0.000000
0.338782 0.790875 0.000000
0.433614 0.791012 0.000000
0.512995 0.792356 0.000000
0.583270 0.793596 0.000000
0.648420 0.794715 0.000000
0.705461 0.795846 0.000000
0.758897 0.795564 0.000000
0.806509 0.796677 0.000000
0.850101 0.797817 0.000000
0.889444 0.799019 0.000000
0.924690 0.798940 0.000000
0.955172 0.800155 0.000000
0.980911 0.801534 0.000000
1.001935 0.801831 0.000000
1.017685 0.803626 0.000000
1.028254 0.805662 0.000000
1.033751 0.806669 0.000000
0.000000 0.790817 0.000000
0.000000 0.794812 0.000000
0.000000 0.797475 0.000000
0.000000 0.801473 0.000000
0.000000 0.804138 0.000000
0.000000 0.808133 0.000000
0.000000 0.810783 0.000000
0.000000 0.813412 0.000000
0.000000 0.816007 0.000000
0.000000 0.818456 0.000000
0.000000 0.820754 0.000000
0.000000 0.822976 0.000000
0.000000 0.825094 0.000000
0.000000 0.825849 0.000000
0.000000 0.827699 0.000000
0.176554 0.829397 0.000000
0.317660 0.830963 0.000000
0.421964 0.832276 0.000000
0.502596 0.833533 0.000000
0.577303 0.834615 0.000000
0.641874 0.835671 0.000000
0.702020 0.835394 0.000000
0.753957 0.836421 0.000000
0.801946 0.837437 0.000000
0.845874 0.838474 0.000000
0.885826 0.838296 0.000000
0.920769 0.839487 0.000000
0.951101 0.840567 0.000000
0.976798 0.840646 0.000000
0.997287 0.842065 0.000000
1.012641 0.843693 0.000000
1.022941 0.844385 0.000000
1.027823 0.846471 0.000000
0.000000 0.832262 0.000000
0.000000 0.834728 0.000000
0.000000 0.838428 0.000000
0.000000 0.840896 0.000000
0.000000 0.844597 0.000000
0.000000 0.847061 0.000000
0.000000 0.850749 0.000000
0.000000 0.853179 0.000000
0.000000 0.855575 0.000000
0.000000 0.857819 0.000000
0.000000 0.859894 0.000000
0.000000 0.860784 0.000000
0.000000 0.862692 0.000000
0.000000 0.864475 0.000000
0.000000 0.866127 0.000000
0.099500 0.867634 0.000000
0.298163 0.868986 0.000000
0.407690 0.870160 0.000000
0.494765 0.871215 0.000000
0.569529 0.872179 0.000000
0.635978 0.871946 0.000000
0.696733 0.872777 0.000000
0.749276 0.873658 0.000000
0.797919 0.873386 0.000000
0.842017 0.874277 0.000000
0.881742 0.875224 0.000000
0.917953 0.876220 0.000000
0.948484 0.876092 0.000000
0.973549 0.877150 0.000000
0.993528 0.878385 0.000000
1.008479 0.878789 0.000000
1.017935 0.880438 0.000000
1.021919 0.882315 0.000000
0.000000 0.870396 0.000000
0.000000 0.872640 0.000000
0.000000 0.876004 0.000000
0.000000 0.878249 0.000000
0.000000 0.881615 0.000000
0.000000 0.883854 0.000000
0.000000 0.886083 0.000000
0.000000 0.889412 0.000000
0.000000 0.891586 0.000000
0.000000 0.893591 0.000000
0.000000 0.894428 0.000000
0.000000 0.896191 0.000000
0.000000 0.897857 0.000000
0.000000 0.899418 0.000000
0.000000 0.900841 0.000000
0.000000 0.902126 0.000000
0.278813 0.903231 0.000000
0.394621 0.903227 0.000000
0.485796 0.904079 0.000000
0.562833 0.904846 0.000000
0.632331 0.905516 0.000000
0.692019 0.906204 0.000000
0.747119 0.905841 0.000000
0.795643 0.906530 0.000000
0.839743 0.907242 0.000000
0.879321 0.908009 0.000000
0.914450 0.907840 0.000000
0.944552 0.908666 0.000000
0.969695 0.909497 0.000000
0.989688 0.909616 0.000000
1.004046 0.910819 0.000000
1.013038 0.912226 0.000000
1.016767 0.912961 0.000000
0.000000 0.903813 0.000000
0.000000 0.906806 0.000000
0.000000 0.908802 0.000000
0.000000 0.911797 0.000000
0.000000 0.913792 0.000000
0.000000 0.916783 0.000000
0.000000 0.918762 0.000000
0.000000 0.920718 0.000000
0.000000 0.922641 0.000000
0.000000 0.924528 0.000000
0.000000 0.926097 0.000000
0.000000 0.927594 0.000000
0.000000 0.928998 0.000000
0.000000 0.929435 0.000000
0.000000 0.930584 0.000000
0.000000 0.931614 0.000000
0.252158 0.932523 0.000000
0.382109 0.933257 0.000000
0.477494 0.933878 0.000000
0.559063 0.934379 0.000000
0.627667 0.934866 0.000000
0.688479 0.934456 0.000000
0.743790 0.934889 0.000000
0.792598 0.935360 0.000000
0.836816 0.935857 0.000000
0.876585 0.935525 0.000000
0.911352 0.936160 0.000000
0.941234 0.936758 0.000000
0.966232 0.936609 0.000000
