transforms/MG06_silver_sat_d65_r709.cube
#  MG_06_D65_r709.cube
LUT_3D_SIZE 5
0.000000 0.000000 0.000000
0.050142 0.000000 0.000000
0.367106 0.000000 0.000000
0.792478 0.000000 0.000000
1.057993 0.000000 0.000000
0.000000 0.077982 0.000000
0.064806 0.092947 0.000000
0.424477 0.035554 0.000000
0.846640 0.000000 0.000000
1.074918 0.000000 0.000000
0.000000 0.430923 0.000000
0.000000 0.460839 0.000000
0.426093 0.478398 0.000000
0.866174 0.481052 0.000000
1.065968 0.486628 0.000000
0.000000 0.832262 0.000000
0.000000 0.855575 0.000000
0.298163 0.868986 0.000000
0.842017 0.874277 0.000000
1.021919 0.882315 0.000000
0.000000 1.015407 0.000000
0.000000 1.016807 0.000000
0.240616 1.013623 0.000000
0.846653 1.004613 0.000000
0.999919 0.999919 0.000000
0.000000 0.000000 0.087335
0.054432 0.000000 0.104115
0.378409 0.000000 0.105016
0.803074 0.000000 0.000000
1.062249 0.000000 0.000000
0.000000 0.082951 0.119327
0.070735 0.098212 0.139611
0.436007 0.047529 0.141649
0.855115 0.000000 0.093132
1.077206 0.000000 0.000000
0.000000 0.441993 0.037500
0.000000 0.471943 0.080764
0.436906 0.489751 0.075971
0.873339 0.491165 0.000000
1.066902 0.497221 0.000000
0.000000 0.840896 0.000000
0.000000 0.863516 0.000000
0.313458 0.876706 0.000000
0.849815 0.881620 0.000000
1.021600 0.888462 0.000000
0.000000 1.015988 0.000000
0.000000 1.017034 0.000000
0.276971 1.013438 0.000000
0.855474 1.004373 0.000000
0.999919 0.999919 0.000000
0.000000 0.000000 0.422879
0.058875 0.000000 0.453373
0.386499 0.000000 0.475797
0.812167 0.000000 0.489989
1.065048 0.000000 0.502960
0.000000 0.087943 0.480716
0.074336 0.103872 0.513905
0.445877 0.058180 0.535194
0.863584 0.000000 0.549652
1.078448 0.000000 0.565678
0.000000 0.451499 0.517978
0.000000 0.481526 0.548430
0.446614 0.497814 0.569601
0.880501 0.501280 0.584863
1.066503 0.509677 0.599652
0.000000 0.847067 0.527051
0.000000 0.869107 0.558488
0.333769 0.882140 0.580000
0.856606 0.887471 0.594456
1.020691 0.894635 0.612895
0.000000 1.016402 0.550082
0.000000 1.017013 0.585419
0.304231 1.013276 0.607140
0.861759 1.004199 0.625997
0.999919 0.999919 0.645089
0.000000 0.000000 0.800159
0.062596 0.000000 0.826015
0.396224 0.000000 0.843466
0.819750 0.000000 0.858179
1.067241 0.000000 0.869932
0.000000 0.092120 0.848035
0.079402 0.108563 0.871912
0.454112 0.065920 0.888218
0.870625 0.000000 0.899854
1.079701 0.000000 0.911265
0.000000 0.459433 0.878127
0.000000 0.489736 0.899119
0.453939 0.507632 0.913110
0.886495 0.509422 0.922296
1.066406 0.516758 0.932328
0.000000 0.854477 0.890807
0.000000 0.875821 0.909329
0.342077 0.888798 0.921601
0.862268 0.892349 0.928818
1.019763 0.899786 0.938125
0.000000 1.016899 0.905619
0.000000 1.016994 0.923597
0.325041 1.013137 0.935535
0.869283 1.003989 0.942646
0.999919 0.999919 0.950749
0.000000 0.000000 1.021466
0.066335 0.000000 1.029257
0.404342 0.000000 1.032339
0.827338 0.000000 1.032572
1.069434 0.000000 1.030567
0.000000 0.097258 1.033461
0.083038 0.114268 1.037352
0.462359 0.075780 1.037586
0.877352 0.000000 1.034806
1.081215 0.000000 1.031695
0.000000 0.467376 1.033568
0.000000 0.497958 1.034088
0.461696 0.515776 1.032146
0.893736 0.517403 1.027541
1.066157 0.525599 1.024253
0.000000 0.860309 1.018700
0.000000 0.881413 1.017331
0.358442 0.893626 1.014747
0.867930 0.897231 1.009690
1.018825 0.904936 1.006585
0.000000 1.017231 1.008054
0.000000 1.016974 1.007933
0.344525 1.012995 1.006054
0.875539 1.003813 1.001740
0.999919 0.999919 0.999919
