transforms/SA01_warm_fpe_r709.cube
#  SA_01_FPE_r709.cube
LUT_3D_SIZE 33
0.000000 0.000000 0.000000
0.000000 0.000000 0.000000
0.000000 0.000000 0.000000
0.000000 0.000000 0.000000
0.004448 0.003123 0.002264
0.076116 0.032471 0.000000
0.181917 0.044627 0.000000
0.328853 0.024593 0.000000
0.479908 0.000000 0.000000
0.540921 0.000000 0.000000
0.578680 0.000000 0.000000
0.598942 0.000000 0.000000
0.611323 0.000000 0.000000
0.620122 0.000000 0.000000
0.624104 0.000000 0.000000
0.624104 0.000000 0.000000
0.624104 0.000000 0.000000
0.624104 0.000000 0.000000
0.624104 0.000000 0.000000
0.624104 0.000000 0.000000
0.624104 0.000000 0.000000
0.624104 0.000000 0.000000
0.624104 0.000000 0.000000
0.624104 0.000000 0.000000
0.624104 0.000000 0.000000
0.624104 0.000000 0.000000
0.624104 0.000000 0.000000
0.624104 0.000000 0.000000
0.624104 0.000000 0.000000
0.624104 0.000000 0.000000
0.624104 0.000000 0.000000
0.624104 0.000000 0.000000
0.624104 0.000000 0.000000
0.000000 0.000000 0.000000
0.000000 0.000000 0.000000
0.000000 0.000000 0.000000
0.000000 0.000000 0.000000
0.002565 0.001979 0.001479
0.064818 0.030024 0.000000
0.160270 0.044648 0.000000
0.301376 0.040073 0.000000
0.455808 0.000000 0.000000
0.526223 0.000000 0.000000
0.571745 0.000000 0.000000
0.594985 0.000000 0.000000
0.608980 0.000000 0.000000
0.618325 0.000000 0.000000
0.624104 0.000000 0.000000
0.624104 0.000000 0.000000
0.624104 0.000000 0.000000
0.624104 0.000000 0.000000
0.624104 0.000000 0.000000
0.624104 0.000000 0.000000
0.624104 0.000000 0.000000
0.624104 0.000000 0.000000
0.624104 0.000000 0.000000
0.624104 0.000000 0.000000
0.624104 0.000000 0.000000
0.624104 0.000000 0.000000
0.624104 0.000000 0.000000
0.624104 0.000000 0.000000
0.624104 0.000000 0.000000
0.624104 0.000000 0.000000
0.624104 0.000000 0.000000
0.624104 0.000000 0.000000
0.624104 0.000000 0.000000
0.000000 0.000000 0.000000
0.000000 0.000000 0.000000
0.000000 0.000000 0.000000
0.000000 0.000000 0.000000
0.000955 0.000771 0.000587
0.051563 0.026600 0.000000
0.137964 0.043913 0.000000
0.270541 0.048219 0.000000
0.428521 0.000000 0.000000
0.508313 0.000000 0.000000
0.560734 0.000000 0.000000
0.590831 0.000000 0.000000
0.607078 0.000000 0.000000
0.617556 0.000000 0.000000
0.624104 0.000000 0.000000
0.624104 0.000000 0.000000
0.624104 0.000000 0.000000
0.624104 0.000000 0.000000
0.624104 0.000000 0.000000
0.624104 0.000000 0.000000
0.624104 0.000000 0.000000
0.624104 0.000000 0.000000
0.624104 0.000000 0.000000
0.624104 0.000000 0.000000
0.624104 0.000000 0.000000
0.624104 0.000000 0.000000
0.624104 0.000000 0.000000
0.624104 0.000000 0.000000
0.624104 0.000000 0.000000
0.624104 0.000000 0.000000
0.624104 0.000000 0.000000
0.624104 0.000000 0.000000
0.624104 0.000000 0.000000
0.000000 0.000000 0.000000
0.000000 0.000000 0.000000
0.000000 0.000000 0.000000
0.000000 0.000000 0.000000
0.000000 0.000000 0.000000
0.038246 0.021011 0.005670
0.114944 0.042282 0.000000
0.236416 0.051500 0.000000
0.397740 0.000000 0.000000
0.491257 0.000000 0.000000
0.552320 0.000000 0.000000
0.590483 0.000000 0.000000
0.612936 0.000000 0.000000
0.623590 0.000000 0.000000
0.624104 0.000000 0.000000
0.624104 0.000000 0.000000
0.624104 0.000000 0.000000
0.624104 0.000000 0.000000
0.624104 0.000000 0.000000
0.624104 0.000000 0.000000
0.624104 0.000000 0.000000
0.624104 0.000000 0.000000
0.624104 0.000000 0.000000
0.624104 0.000000 0.000000
0.624104 0.000000 0.000000
0.624104 0.000000 0.000000
0.624104 0.000000 0.000000
0.624104 0.000000 0.000000
0.624104 0.000000 0.000000
0.624104 0.000000 0.000000
0.624104 0.000000 0.000000
0.624104 0.000000 0.000000
0.624104 0.000000 0.000000
0.000000 0.000000 0.000000
0.000000 0.000000 0.000000
0.000000 0.000000 0.000000
0.000000 0.000000 0.000000
0.000000 0.000000 0.000000
0.024773 0.012408 0.006505
0.092212 0.039494 0.000000
0.198245 0.052939 0.000000
0.380036 0.028419 0.000000
0.506687 0.000000 0.000000
0.565544 0.000000 0.000000
0.594106 0.000000 0.000000
0.608835 0.000000 0.000000
0.618454 0.000000 0.000000
0.624104 0.000000 0.000000
0.624104 0.000000 0.000000
0.624104 0.000000 0.000000
0.624104 0.000000 0.000000
0.624104 0.000000 0.000000
0.624104 0.000000 0.000000
0.624104 0.000000 0.000000
0.624104 0.000000 0.000000
0.624104 0.000000 0.000000
0.624104 0.000000 0.000000
0.624104 0.000000 0.000000
0.624104 0.000000 0.000000
0.624104 0.000000 0.000000
0.624104 0.000000 0.000000
0.624104 0.000000 0.000000
0.624104 0.000000 0.000000
0.624104 0.000000 0.000000
0.624104 0.000000 0.000000
0.624104 0.000000 0.000000
0.005405 0.007866 0.004278
0.005319 0.007571 0.004163
0.005155 0.007224 0.004009
0.004990 0.006879 0.003855
0.004717 0.006305 0.003598
0.007392 0.006721 0.003680
0.049381 0.033765 0.006679
0.132631 0.054553 0.000000
0.253315 0.077115 0.000000
0.374547 0.062338 0.000000
0.473915 0.000000 0.000000
0.543449 0.000000 0.000000
0.587249 0.000000 0.000000
0.613612 0.000000 0.000000
0.628473 0.000000 0.000000
0.637711 0.000000 0.000000
0.644133 0.000000 0.000000
0.646945 0.000000 0.000000
0.646582 0.000000 0.000000
0.646220 0.000000 0.000000
0.645857 0.000000 0.000000
0.645495 0.000000 0.000000
0.645132 0.000000 0.000000
0.644770 0.000000 0.000000
0.644407 0.000000 0.000000
0.644045 0.000000 0.000000
0.643682 0.000000 0.000000
0.643320 0.000000 0.000000
0.642957 0.000000 0.000000
0.642595 0.000000 0.000000
0.642232 0.000000 0.000000
0.641871 0.000000 0.000000
0.641508 0.000000 0.000000
0.000000 0.036562 0.017099
0.000000 0.041247 0.019788
0.000000 0.056335 0.028564
0.000000 0.057522 0.029187
0.000000 0.052966 0.026600
0.006985 0.035605 0.015997
0.033911 0.035606 0.013980
0.107403 0.065702 0.000000
0.209918 0.092117 0.000000
0.320007 0.102941 0.000000
0.435676 0.091799 0.000000
0.525050 0.059778 0.000000
0.585905 0.000000 0.000000
0.624805 0.000000 0.000000
0.649323 0.000000 0.000000
0.661943 0.000000 0.000000
0.669731 0.000000 0.000000
0.675239 0.000000 0.000000
0.679025 0.000000 0.000000
0.678088 0.000000 0.000000
0.677153 0.000000 0.000000
0.676216 0.000000 0.000000
0.675748 0.000000 0.000000
0.674812 0.000000 0.000000
0.673875 0.000000 0.000000
0.673460 0.000000 0.000000
0.672632 0.000000 0.000000
0.672217 0.000000 0.000000
0.671802 0.000000 0.000000
0.670973 0.000000 0.000000
0.670558 0.000000 0.000000
0.670143 0.000000 0.000000
0.669728 0.000000 0.000000
0.000000 0.115486 0.047689
0.000000 0.116033 0.047771
0.000000 0.114390 0.047524
0.000000 0.110019 0.046851
0.000000 0.100789 0.045332
0.000000 0.078363 0.037623
0.038529 0.076235 0.033508
0.087644 0.085988 0.026494
0.187194 0.117794 0.000000
0.288067 0.133248 0.000000
0.406175 0.136508 0.000000
0.512976 0.129112 0.000000
0.586530 0.109655 0.000000
0.635888 0.087289 0.000000
0.668018 0.065089 0.000000
0.685875 0.026415 0.000000
0.695433 0.000000 0.000000
0.701324 0.000000 0.000000
0.705981 0.000000 0.000000
0.707656 0.000000 0.000000
0.706559 0.000000 0.000000
0.705463 0.000000 0.000000
0.703818 0.000000 0.000000
0.702875 0.000000 0.000000
0.701940 0.000000 0.000000
0.701006 0.000000 0.000000
0.700539 0.000000 0.000000
0.699605 0.000000 0.000000
0.698671 0.000000 0.000000
0.697737 0.000000 0.000000
0.697270 0.000000 0.000000
0.696336 0.000000 0.000000
0.695868 0.000000 0.000000
0.000000 0.203231 0.077945
0.000000 0.199618 0.076584
0.000000 0.193306 0.074204
0.000000 0.183420 0.070477
0.000000 0.165554 0.063709
0.000000 0.127345 0.053580
0.000000 0.121829 0.048773
0.078104 0.130173 0.042114
0.165783 0.148765 0.007069
0.263252 0.166724 0.000000
0.379293 0.178566 0.000000
0.494535 0.180202 0.000000
0.581955 0.174181 0.000000
0.642372 0.163738 0.000000
0.682812 0.155784 0.000000
0.707626 0.149405 0.000000
0.721705 0.143926 0.000000
0.728910 0.140968 0.000000
0.733828 0.135589 0.000000
0.736449 0.133172 0.000000
0.736564 0.130416 0.000000
0.735478 0.127399 0.000000
0.733850 0.122759 0.000000
0.732764 0.119580 0.000000
0.731133 0.114668 0.000000
0.730046 0.111283 0.000000
0.728959 0.107801 0.000000
0.727871 0.104205 0.000000
0.726783 0.100486 0.000000
0.725694 0.096619 0.000000
0.724605 0.092587 0.000000
0.723515 0.088357 0.000000
0.722425 0.083894 0.000000
0.000000 0.282303 0.116669
0.000000 0.275123 0.113705
0.000000 0.264651 0.108454
0.000000 0.249581 0.100894
0.000000 0.225386 0.088746
0.000000 0.172683 0.066416
0.000000 0.157536 0.048205
0.000000 0.161814 0.040152
0.140521 0.181168 0.000000
0.237668 0.203838 0.000000
0.351637 0.221782 0.000000
0.472364 0.229399 0.000000
0.579003 0.231551 0.000000
0.649154 0.223423 0.000000
0.697206 0.217790 0.000000
0.727797 0.215129 0.000000
0.746195 0.212694 0.000000
0.755860 0.211428 0.000000
0.761162 0.210255 0.000000
0.765560 0.208835 0.000000
0.768012 0.207391 0.000000
0.766185 0.202400 0.000000
0.764945 0.199664 0.000000
0.763084 0.195529 0.000000
0.761219 0.191351 0.000000
0.759355 0.187129 0.000000
0.758120 0.184287 0.000000
0.756874 0.181427 0.000000
0.755004 0.177091 0.000000
0.753756 0.174169 0.000000
0.752509 0.171218 0.000000
0.751260 0.168239 0.000000
0.750011 0.165226 0.000000
0.000000 0.358552 0.135174
0.000000 0.349865 0.133105
0.000000 0.337484 0.130138
0.000000 0.320210 0.125969
0.000000 0.292386 0.119163
0.000000 0.227683 0.089899
0.000000 0.205863 0.060585
0.000000 0.201593 0.024143
0.096897 0.219843 0.000000
0.211990 0.243768 0.000000
0.328161 0.265812 0.000000
0.450518 0.280264 0.000000
0.565306 0.287541 0.000000
0.649551 0.285690 0.000000
0.705510 0.283055 0.000000
0.744052 0.280887 0.000000
0.769121 0.278529 0.000000
0.783347 0.277041 0.000000
0.789076 0.276390 0.000000
0.793137 0.274341 0.000000
0.796336 0.273199 0.000000
0.797060 0.269793 0.000000
0.795085 0.265510 0.000000
0.793107 0.261209 0.000000
0.791128 0.256888 0.000000
0.789147 0.252547 0.000000
0.787165 0.248184 0.000000
0.785841 0.245262 0.000000
0.783855 0.240860 0.000000
0.782530 0.237910 0.000000
0.780541 0.233463 0.000000
0.779213 0.230482 0.000000
0.777942 0.227684 0.000000
0.000000 0.403844 0.130706
0.000000 0.396538 0.131576
0.000000 0.387621 0.132555
0.000000 0.376296 0.133678
0.000000 0.357309 0.134879
0.000000 0.287341 0.117918
0.000000 0.264038 0.094843
0.000000 0.249660 0.024824
0.000000 0.261455 0.000000
0.174467 0.287358 0.000000
0.298956 0.313178 0.000000
0.428097 0.334706 0.000000
0.546855 0.347048 0.000000
0.648791 0.352436 0.000000
0.715247 0.349925 0.000000
0.759923 0.348166 0.000000
0.789854 0.346095 0.000000
0.806358 0.343485 0.000000
0.815755 0.342103 0.000000
0.820472 0.340254 0.000000
0.823824 0.337143 0.000000
0.825327 0.333689 0.000000
0.824711 0.329928 0.000000
0.822651 0.325026 0.000000
0.819937 0.318745 0.000000
0.817986 0.314608 0.000000
0.816033 0.310461 0.000000
0.814080 0.306305 0.000000
0.812776 0.303529 0.000000
0.810818 0.299354 0.000000
0.808859 0.295169 0.000000
0.807552 0.292372 0.000000
0.806244 0.289570 0.000000
0.000000 0.436260 0.128378
0.000000 0.430828 0.128742
0.000000 0.423592 0.129185
0.000000 0.414558 0.129676
0.000000 0.397348 0.131482
0.000000 0.348625 0.132809
0.000000 0.322503 0.118382
0.000000 0.301469 0.061218
0.000000 0.303998 0.000000
0.111341 0.331353 0.000000
0.264266 0.361830 0.000000
0.399993 0.387948 0.000000
0.527221 0.405727 0.000000
0.640672 0.415155 0.000000
0.719087 0.416738 0.000000
0.770350 0.415981 0.000000
0.805139 0.412649 0.000000
0.828220 0.410673 0.000000
0.841369 0.410097 0.000000
0.847634 0.408594 0.000000
0.850189 0.405008 0.000000
0.852946 0.403385 0.000000
0.853905 0.399208 0.000000
0.851217 0.392823 0.000000
0.849199 0.388026 0.000000
0.847176 0.383225 0.000000
0.844476 0.376815 0.000000
0.842446 0.371999 0.000000
0.840412 0.367168 0.000000
0.839054 0.363948 0.000000
0.837013 0.359115 0.000000
0.834970 0.354274 0.000000
0.833607 0.351042 0.000000
0.000000 0.461432 0.125354
0.000000 0.456973 0.126120
0.000000 0.451626 0.126999
0.000000 0.442906 0.127897
0.000000 0.428416 0.128896
0.000000 0.389241 0.132384
0.000000 0.372036 0.128491
0.000000 0.357228 0.098258
0.000000 0.346839 0.000000
0.000000 0.370229 0.000000
0.222623 0.404484 0.000000
0.367099 0.434860 0.000000
0.503849 0.458263 0.000000
0.623859 0.473588 0.000000
0.715130 0.481082 0.000000
0.777736 0.481938 0.000000
0.820269 0.481368 0.000000
0.847383 0.479657 0.000000
0.862093 0.477884 0.000000
0.870295 0.474938 0.000000
0.875244 0.472714 0.000000
0.877746 0.469767 0.000000
0.878589 0.465539 0.000000
0.877473 0.459771 0.000000
0.875638 0.454781 0.000000
0.873187 0.448122 0.000000
0.871344 0.443123 0.000000
0.869499 0.438122 0.000000
0.867649 0.433118 0.000000
0.865796 0.428108 0.000000
0.863939 0.423095 0.000000
0.861939 0.418318 0.000000
0.859935 0.413547 0.000000
0.000000 0.480016 0.121788
0.000000 0.477064 0.122452
0.000000 0.471700 0.123490
0.000000 0.464555 0.124803
0.000000 0.453853 0.126638
0.000000 0.421181 0.129324
0.000000 0.406376 0.127420
0.000000 0.395605 0.100100
0.000000 0.384004 0.000000
0.000000 0.402975 0.000000
0.162252 0.440287 0.000000
0.329822 0.476908 0.000000
0.472945 0.504771 0.000000
0.603551 0.526776 0.000000
0.710975 0.540783 0.000000
0.784435 0.544839 0.000000
0.829244 0.544380 0.000000
0.860219 0.543716 0.000000
0.879892 0.542131 0.000000
0.891475 0.539861 0.000000
0.897046 0.536596 0.000000
0.900368 0.533813 0.000000
0.901861 0.530422 0.000000
0.901581 0.526117 0.000000
0.899202 0.519495 0.000000
0.897412 0.514526 0.000000
0.895022 0.507899 0.000000
0.893225 0.502928 0.000000
0.890823 0.496297 0.000000
0.889018 0.491322 0.000000
0.887210 0.486345 0.000000
0.885398 0.481366 0.000000
0.883582 0.476387 0.000000
0.000000 0.491049 0.119106
0.000000 0.488290 0.119799
0.000000 0.485029 0.120599
0.000000 0.481019 0.121552
0.000000 0.472594 0.123320
0.000000 0.446535 0.127618
0.000000 0.432035 0.128664
0.000000 0.426892 0.101073
0.000000 0.419857 0.000000
0.000000 0.429674 0.000000
0.000000 0.468195 0.000000
0.286933 0.509254 0.000000
0.437049 0.542372 0.000000
0.578358 0.569508 0.000000
0.696657 0.589126 0.000000
0.777777 0.596271 0.000000
0.833086 0.599469 0.000000
0.870151 0.601460 0.000000
0.894655 0.600748 0.000000
0.908629 0.598633 0.000000
0.914669 0.594812 0.000000
0.918985 0.592282 0.000000
0.921217 0.587857 0.000000
0.922012 0.584250 0.000000
0.920786 0.579042 0.000000
0.919138 0.574436 0.000000
0.916900 0.568230 0.000000
0.914656 0.562023 0.000000
0.912970 0.557368 0.000000
0.911280 0.552712 0.000000
0.909023 0.546504 0.000000
0.907326 0.541847 0.000000
0.905627 0.537190 0.000000
0.000000 0.498150 0.119324
0.000000 0.496571 0.119027
0.000000 0.494706 0.118679
0.000000 0.491300 0.119043
0.000000 0.485029 0.120599
0.000000 0.465449 0.124643
0.000000 0.454745 0.126491
0.000000 0.450968 0.104402
0.000000 0.446147 0.000000
0.000000 0.453435 0.000000
0.000000 0.488453 0.000000
0.235459 0.532614 0.000000
0.403409 0.573050 0.000000
0.547310 0.605870 0.000000
0.674575 0.628507 0.000000
0.766975 0.640635 0.000000
0.832296 0.645268 0.000000
0.876292 0.646356 0.000000
0.902975 0.647139 0.000000
0.919360 0.646407 0.000000
0.929609 0.644372 0.000000
0.934496 0.641104 0.000000
0.937508 0.639209 0.000000
0.939052 0.635723 0.000000
0.939840 0.632761 0.000000
0.938185 0.628023 0.000000
0.936838 0.624150 0.000000
0.934713 0.618135 0.000000
0.932584 0.612119 0.000000
0.930984 0.607609 0.000000
0.929381 0.603098 0.000000
0.927776 0.598587 0.000000
0.925631 0.592574 0.000000
0.000000 0.503609 0.120288
0.000000 0.502316 0.120117
0.000000 0.500448 0.119761
0.000000 0.498006 0.119297
0.000000 0.494419 0.118625
0.000000 0.480518 0.121671
0.000000 0.472147 0.123405
0.000000 0.467887 0.107501
0.000000 0.467411 0.000000
0.000000 0.472642 0.000000
0.000000 0.503274 0.000000
0.167901 0.548148 0.000000
0.361349 0.591248 0.000000
0.514954 0.628154 0.000000
0.648230 0.656664 0.000000
0.755989 0.674328 0.000000
0.827553 0.682209 0.000000
0.874834 0.685788 0.000000
0.908161 0.688509 0.000000
0.929207 0.689174 0.000000
0.941509 0.687935 0.000000
0.947921 0.685318 0.000000
0.951182 0.681673 0.000000
0.953361 0.679161 0.000000
0.953952 0.674995 0.000000
0.952964 0.670695 0.000000
0.951337 0.665952 0.000000
0.950107 0.662385 0.000000
0.948472 0.657645 0.000000
0.946833 0.652904 0.000000
0.945604 0.649348 0.000000
0.944372 0.645793 0.000000
0.942727 0.641054 0.000000
0.000000 0.507810 0.120730
0.000000 0.506624 0.120605
0.000000 0.505116 0.120447
0.000000 0.503286 0.120254
0.000000 0.499873 0.119652
0.000000 0.490046 0.119361
0.000000 0.484027 0.120840
0.000000 0.481993 0.108076
0.000000 0.482967 0.041199
0.000000 0.486750 0.000000
0.000000 0.511308 0.000000
0.000000 0.556346 0.000000
0.317316 0.603671 0.000000
0.479739 0.646103 0.000000
0.621435 0.680062 0.000000
0.736286 0.701466 0.000000
0.815169 0.710249 0.000000
0.870333 0.715508 0.000000
0.908928 0.718686 0.000000
0.935255 0.719164 0.000000
0.948490 0.719064 0.000000
0.956713 0.717917 0.000000
0.961852 0.715787 0.000000
0.964787 0.714084 0.000000
0.966129 0.712078 0.000000
0.966150 0.708836 0.000000
0.964961 0.705599 0.000000
0.963769 0.702364 0.000000
0.962659 0.699171 0.000000
0.961050 0.694424 0.000000
0.959439 0.689676 0.000000
0.958228 0.686116 0.000000
0.957017 0.682557 0.000000
0.000000 0.511156 0.120844
0.000000 0.510364 0.120885
0.000000 0.509213 0.120877
0.000000 0.507379 0.120685
0.000000 0.504578 0.120391
0.000000 0.496858 0.119081
0.000000 0.493057 0.118594
0.000000 0.490465 0.110764
0.000000 0.492694 0.054603
0.000000 0.496674 0.000000
0.000000 0.516955 0.000000
0.000000 0.562236 0.000000
0.266714 0.610612 0.000000
0.442201 0.654977 0.000000
0.588407 0.691424 0.000000
0.710728 0.717205 0.000000
0.800284 0.731412 0.000000
0.864137 0.739004 0.000000
0.908276 0.744687 0.000000
0.935675 0.746169 0.000000
0.953886 0.747276 0.000000
0.964961 0.747293 0.000000
0.970222 0.746010 0.000000
0.973491 0.742754 0.000000
0.975602 0.739965 0.000000
0.976323 0.737127 0.000000
0.975043 0.733143 0.000000
0.973863 0.729903 0.000000
0.972977 0.727472 0.000000
0.971788 0.724214 0.000000
0.970603 0.720976 0.000000
0.969714 0.718548 0.000000
0.968527 0.715310 0.000000
0.000000 0.513819 0.120680
0.000000 0.512956 0.120738
0.000000 0.511949 0.120802
0.000000 0.510724 0.120867
0.000000 0.508457 0.120799
0.000000 0.502029 0.120061
0.000000 0.498436 0.119378
0.000000 0.497005 0.114107
0.000000 0.500438 0.066697
0.000000 0.505467 0.000000
0.000000 0.523695 0.000000
0.000000 0.563127 0.000000
0.212024 0.611466 0.000000
0.401166 0.658337 0.000000
0.553431 0.699201 0.000000
0.683583 0.730811 0.000000
0.785633 0.750266 0.000000
0.856819 0.759038 0.000000
0.901480 0.763055 0.000000
0.934226 0.765539 0.000000
0.956888 0.766931 0.000000
0.969722 0.767185 0.000000
0.975571 0.766921 0.000000
0.979998 0.765779 0.000000
0.983342 0.763491 0.000000
0.984433 0.761279 0.000000
0.984422 0.758852 0.000000
0.983521 0.756440 0.000000
0.982620 0.754027 0.000000
0.981509 0.750973 0.000000
0.980336 0.747730 0.000000
0.979455 0.745299 0.000000
0.978280 0.742057 0.000000
0.000000 0.514179 0.120657
0.000000 0.514179 0.120657
0.000000 0.514179 0.120657
0.000000 0.513244 0.120717
0.000000 0.511444 0.120829
0.000000 0.505977 0.120536
0.000000 0.503286 0.120254
0.000000 0.501023 0.119206
0.000000 0.504923 0.080177
0.000000 0.510717 0.000000
0.000000 0.527052 0.000000
0.000000 0.562964 0.000000
0.142656 0.610433 0.000000
0.360467 0.657962 0.000000
0.518797 0.700936 0.000000
0.653243 0.734793 0.000000
0.764590 0.758824 0.000000
0.839835 0.770571 0.000000
0.893164 0.777359 0.000000
0.931604 0.781972 0.000000
0.958707 0.784778 0.000000
0.971952 0.785832 0.000000
0.980374 0.785598 0.000000
0.985191 0.784856 0.000000
0.988453 0.782554 0.000000
0.990694 0.780769 0.000000
0.991589 0.778154 0.000000
0.990696 0.775738 0.000000
0.989801 0.773323 0.000000
0.988913 0.770918 0.000000
0.988017 0.768504 0.000000
0.987344 0.766694 0.000000
0.986445 0.764281 0.000000
0.000000 0.514179 0.120657
0.000000 0.514179 0.120657
0.000000 0.514179 0.120657
0.000000 0.514179 0.120657
0.000000 0.513891 0.120675
0.000000 0.509715 0.120920
0.000000 0.506947 0.120638
0.000000 0.505116 0.120447
0.000000 0.508701 0.091855
0.000000 0.515017 0.000000
0.000000 0.527127 0.000000
0.000000 0.559071 0.000000
0.000000 0.605775 0.000000
0.317548 0.654740 0.000000
0.480472 0.699593 0.000000
0.621778 0.736715 0.000000
0.737771 0.763671 0.000000
0.821847 0.779066 0.000000
0.883341 0.787784 0.000000
0.926815 0.792214 0.000000
0.953843 0.795484 0.000000
0.971903 0.796949 0.000000
0.982999 0.797600 0.000000
0.988348 0.797300 0.000000
0.992313 0.796793 0.000000
0.995541 0.796164 0.000000
0.997292 0.795064 0.000000
0.997423 0.793830 0.000000
0.996851 0.792397 0.000000
0.996050 0.790235 0.000000
0.995160 0.787818 0.000000
0.994268 0.785402 0.000000
0.993599 0.783589 0.000000
0.000000 0.514179 0.120657
0.000000 0.514179 0.120657
0.000000 0.514179 0.120657
0.000000 0.514179 0.120657
0.000000 0.514179 0.120657
0.000000 0.512092 0.120793
0.000000 0.510292 0.120889
0.000000 0.508672 0.120821
0.000000 0.511026 0.098351
0.000000 0.517928 0.000000
0.000000 0.525817 0.000000
0.000000 0.555233 0.000000
0.000000 0.600260 0.000000
0.272142 0.649398 0.000000
0.445763 0.694914 0.000000
0.587423 0.733226 0.000000
0.709907 0.763125 0.000000
0.804310 0.782951 0.000000
0.873323 0.794968 0.000000
0.917471 0.800421 0.000000
0.949548 0.804768 0.000000
0.971491 0.807835 0.000000
0.984212 0.808981 0.000000
0.990816 0.808186 0.000000
0.995335 0.807521 0.000000
0.998822 0.806978 0.000000
1.000898 0.806271 0.000000
1.001976 0.805297 0.000000
1.001265 0.803504 0.000000
1.000697 0.802071 0.000000
1.000128 0.800637 0.000000
0.999559 0.799204 0.000000
0.999132 0.798129 0.000000
0.000000 0.514179 0.120657
0.000000 0.514179 0.120657
0.000000 0.514179 0.120657
0.000000 0.514179 0.120657
0.000000 0.514179 0.120657
0.000000 0.514179 0.120657
0.000000 0.512668 0.120755
0.000000 0.511372 0.120834
0.000000 0.513252 0.103126
0.000000 0.520246 0.000000
0.000000 0.526446 0.000000
0.000000 0.553381 0.000000
0.000000 0.595695 0.000000
0.228207 0.643516 0.000000
0.407705 0.688843 0.000000
0.555339 0.729801 0.000000
0.683384 0.762982 0.000000
0.788227 0.785662 0.000000
0.856790 0.797766 0.000000
0.907077 0.805192 0.000000
0.944535 0.809945 0.000000
0.969495 0.813164 0.000000
0.983172 0.815109 0.000000
0.992163 0.815747 0.000000
0.997726 0.815268 0.000000
1.001064 0.815464 0.000000
1.003991 0.815774 0.000000
1.005891 0.815494 0.000000
1.005657 0.814621 0.000000
1.005092 0.813186 0.000000
1.004526 0.811752 0.000000
1.003958 0.810317 0.000000
1.003392 0.808883 0.000000
0.000000 0.514179 0.120657
0.000000 0.514179 0.120657
0.000000 0.514179 0.120657
0.000000 0.514179 0.120657
0.000000 0.514179 0.120657
0.000000 0.514179 0.120657
0.000000 0.514179 0.120657
0.000000 0.513676 0.120690
0.000000 0.514618 0.108404
0.000000 0.520664 0.000000
0.000000 0.527971 0.000000
0.000000 0.551799 0.000000
0.000000 0.590923 0.000000
0.176742 0.637342 0.000000
0.372176 0.682733 0.000000
0.523154 0.724663 0.000000
0.652838 0.759918 0.000000
0.762659 0.784206 0.000000
0.838608 0.799096 0.000000
0.896751 0.808993 0.000000
0.939467 0.815070 0.000000
0.964929 0.818303 0.000000
0.981998 0.820551 0.000000
0.993478 0.821966 0.000000
0.998905 0.821477 0.000000
1.002786 0.821210 0.000000
1.005799 0.821170 0.000000
1.007790 0.821080 0.000000
1.008400 0.820436 0.000000
1.008042 0.819684 0.000000
1.007683 0.818931 0.000000
1.007324 0.818178 0.000000
1.006965 0.817426 0.000000
0.000000 0.514179 0.120657
0.000000 0.514179 0.120657
0.000000 0.514179 0.120657
0.000000 0.514179 0.120657
0.000000 0.514179 0.120657
0.000000 0.514179 0.120657
0.000000 0.514179 0.120657
0.000000 0.514179 0.120657
0.000000 0.515261 0.114002
0.000000 0.521116 0.044678
0.000000 0.528397 0.000000
0.000000 0.547961 0.000000
0.000000 0.585166 0.000000
0.096430 0.629660 0.000000
0.337739 0.676583 0.000000
0.491534 0.719323 0.000000
0.623232 0.755355 0.000000
0.736044 0.782068 0.000000
0.821445 0.799746 0.000000
0.885667 0.811328 0.000000
0.928331 0.817511 0.000000
0.958480 0.821514 0.000000
0.980288 0.824376 0.000000
0.992770 0.826127 0.000000
0.999697 0.826600 0.000000
1.004469 0.826447 0.000000
1.007353 0.826349 0.000000
1.009563 0.826308 0.000000
1.011088 0.826083 0.000000
