transforms/SA01_warm_fpe_r709.cube
#  SA_01_FPE_r709.cube
LUT_3D_SIZE 9
0.000000 0.000000 0.000000
0.004448 0.003123 0.002264
0.479908 0.000000 0.000000
0.611323 0.000000 0.000000
0.624104 0.000000 0.000000
0.624104 0.000000 0.000000
0.624104 0.000000 0.000000
0.624104 0.000000 0.000000
0.624104 0.000000 0.000000
0.000000 0.000000 0.000000
0.000000 0.000000 0.000000
0.380036 0.028419 0.000000
0.608835 0.000000 0.000000
0.624104 0.000000 0.000000
0.624104 0.000000 0.000000
0.624104 0.000000 0.000000
0.624104 0.000000 0.000000
0.624104 0.000000 0.000000
0.000000 0.203231 0.077945
0.000000 0.165554 0.063709
0.165783 0.148765 0.007069
0.581955 0.174181 0.000000
0.721705 0.143926 0.000000
0.736564 0.130416 0.000000
0.731133 0.114668 0.000000
0.726783 0.100486 0.000000
0.722425 0.083894 0.000000
0.000000 0.436260 0.128378
0.000000 0.397348 0.131482
0.000000 0.303998 0.000000
0.527221 0.405727 0.000000
0.805139 0.412649 0.000000
0.850189 0.405008 0.000000
0.849199 0.388026 0.000000
0.840412 0.367168 0.000000
0.833607 0.351042 0.000000
0.000000 0.498150 0.119324
0.000000 0.485029 0.120599
0.000000 0.446147 0.000000
0.403409 0.573050 0.000000
0.832296 0.645268 0.000000
0.929609 0.644372 0.000000
0.939840 0.632761 0.000000
0.932584 0.612119 0.000000
0.925631 0.592574 0.000000
0.000000 0.513819 0.120680
0.000000 0.508457 0.120799
0.000000 0.500438 0.066697
0.212024 0.611466 0.000000
0.785633 0.750266 0.000000
0.956888 0.766931 0.000000
0.983342 0.763491 0.000000
0.982620 0.754027 0.000000
0.978280 0.742057 0.000000
0.000000 0.514179 0.120657
0.000000 0.514179 0.120657
0.000000 0.513252 0.103126
0.000000 0.595695 0.000000
0.683384 0.762982 0.000000
0.944535 0.809945 0.000000
0.997726 0.815268 0.000000
1.005657 0.814621 0.000000
1.003392 0.808883 0.000000
0.000000 0.514179 0.120657
0.000000 0.514179 0.120657
0.000000 0.514179 0.120657
0.000000 0.570507 0.000000
0.563760 0.742020 0.000000
0.905654 0.819566 0.000000
0.999984 0.833379 0.000000
1.014503 0.833625 0.000000
1.014394 0.831743 0.000000
0.000000 0.514179 0.120657
0.000000 0.514179 0.120657
0.000000 0.514179 0.120657
0.000000 0.541017 0.000000
0.425180 0.703584 0.000000
0.846095 0.810755 0.000000
0.987003 0.834705 0.000000
1.013672 0.838956 0.000000
1.019642 0.840128 0.000000
0.003038 0.002571 0.002670
0.002965 0.002275 0.001765
0.460183 0.000000 0.000000
0.608980 0.000000 0.000000
0.624104 0.000000 0.000000
0.624104 0.000000 0.000000
0.626676 0.000000 0.000000
0.629129 0.000000 0.000000
0.630417 0.000000 0.000000
0.000000 0.000000 0.000000
0.000000 0.000000 0.000000
0.417637 0.000000 0.000000
0.607224 0.000000 0.000000
0.624104 0.000000 0.000000
0.624104 0.000000 0.000000
0.624104 0.000000 0.000000
0.624104 0.000000 0.000000
0.624104 0.000000 0.000000
0.000000 0.191506 0.073525
0.000000 0.151365 0.058322
0.144005 0.131900 0.023558
0.546932 0.156634 0.000000
0.704165 0.112653 0.000000
0.725150 0.094624 0.000000
0.719142 0.068609 0.000000
0.714225 0.028344 0.000000
0.709847 0.000000 0.000000
0.000000 0.424195 0.129150
0.000000 0.380338 0.133292
0.000000 0.272399 0.000000
0.471847 0.365060 0.000000
0.776238 0.374978 0.000000
0.832573 0.367793 0.000000
0.833607 0.351042 0.000000
0.824711 0.329928 0.000000
0.817336 0.313227 0.000000
0.000000 0.494850 0.118705
0.000000 0.479515 0.121904
0.000000 0.430261 0.067719
0.339506 0.531018 0.000000
0.795641 0.610149 0.000000
0.914883 0.613007 0.000000
0.926845 0.597780 0.000000
0.919698 0.575987 0.000000
0.912406 0.555815 0.000000
0.000000 0.512164 0.120789
0.000000 0.505977 0.120536
0.000000 0.492392 0.092603
0.061291 0.582146 0.000000
0.736995 0.725598 0.000000
0.940186 0.749286 0.000000
0.975210 0.747120 0.000000
0.975337 0.733953 0.000000
0.970899 0.721786 0.000000
0.000000 0.514179 0.120657
0.000000 0.514179 0.120657
0.000000 0.509145 0.113949
0.000000 0.572044 0.000000
0.621054 0.742566 0.000000
0.924079 0.801581 0.000000
0.991242 0.808571 0.000000
1.002117 0.805655 0.000000
0.999844 0.799921 0.000000
0.000000 0.514179 0.120657
0.000000 0.514179 0.120657
0.000000 0.514179 0.120657
0.000000 0.555305 0.000000
0.493368 0.721423 0.000000
0.880264 0.813818 0.000000
0.991662 0.829295 0.000000
1.010913 0.829784 0.000000
1.012329 0.828335 0.000000
0.000000 0.514179 0.120657
0.000000 0.514179 0.120657
0.000000 0.514179 0.120657
0.000000 0.532099 0.000000
0.349441 0.683037 0.000000
0.809297 0.803656 0.000000
0.976654 0.832498 0.000000
1.011597 0.838557 0.000000
1.019303 0.839606 0.000000
0.120134 0.000000 0.426059
0.099230 0.000000 0.399675
0.488424 0.000000 0.424606
0.668410 0.000000 0.428430
0.688758 0.000000 0.447309
0.697278 0.000000 0.538851
0.700040 0.000000 0.564063
0.701357 0.000000 0.572718
0.702061 0.000000 0.577355
0.057743 0.000000 0.328713
0.053461 0.000000 0.309315
0.451072 0.000000 0.392963
0.664935 0.000000 0.413870
0.686069 0.000000 0.417858
0.685581 0.000000 0.412597
0.685215 0.000000 0.408651
0.684726 0.000000 0.403389
0.684359 0.000000 0.399444
0.000000 0.236285 0.275913
0.000000 0.167105 0.191205
0.106218 0.104919 0.090195
0.499498 0.128668 0.000000
0.696413 0.000000 0.000000
0.723907 0.000000 0.000000
0.720061 0.000000 0.000000
0.713873 0.000000 0.000000
0.708803 0.000000 0.000000
0.000000 0.471729 0.288790
0.000000 0.387522 0.208527
0.000000 0.229180 0.058984
0.383602 0.299203 0.000000
0.726397 0.307248 0.000000
0.802623 0.295558 0.000000
0.808750 0.286525 0.000000
0.797831 0.266860 0.000000
0.788375 0.249912 0.000000
0.000000 0.529746 0.236267
0.000000 0.485118 0.173911
0.000000 0.401222 0.114594
0.226356 0.452193 0.000000
0.710775 0.536543 0.000000
0.874704 0.537402 0.000000
0.899588 0.526125 0.000000
0.893225 0.502928 0.000000
0.885398 0.481366 0.000000
0.000000 0.535772 0.200628
0.000000 0.512066 0.149514
0.000000 0.477732 0.114060
0.000000 0.520289 0.000000
0.626681 0.671104 0.000000
0.899594 0.705821 0.000000
0.956236 0.705344 0.000000
0.961050 0.694424 0.000000
0.954587 0.675440 0.000000
0.000000 0.528829 0.168801
0.000000 0.517979 0.134601
0.000000 0.502964 0.120220
0.000000 0.532984 0.000000
0.490864 0.697047 0.000000
0.873877 0.779043 0.000000
0.976906 0.789669 0.000000
0.992823 0.786150 0.000000
0.991143 0.776946 0.000000
0.000000 0.520747 0.141637
0.000000 0.514179 0.120657
0.000000 0.514107 0.120662
0.000000 0.529457 0.000000
0.347974 0.676616 0.000000
0.810875 0.794390 0.000000
0.973465 0.819885 0.000000
1.003405 0.821547 0.000000
1.008222 0.820060 0.000000
0.000000 0.515685 0.125719
0.000000 0.514179 0.120657
0.000000 0.514179 0.120657
0.000000 0.526146 0.000000
0.184337 0.643398 0.000000
0.718551 0.782741 0.000000
0.948135 0.827246 0.000000
1.005609 0.835745 0.000000
1.017045 0.836088 0.000000
0.175605 0.000000 0.489291
0.172141 0.000000 0.484231
0.508889 0.000000 0.609974
0.693607 0.000000 0.635224
0.712703 0.000000 0.647425
0.718688 0.000000 0.666063
0.719874 0.000000 0.670311
0.720468 0.000000 0.672441
0.720755 0.000000 0.673399
0.161957 0.000000 0.470137
0.163475 0.000000 0.472326
0.484312 0.000000 0.599973
0.690380 0.000000 0.630629
0.710007 0.000000 0.634356
0.709651 0.000000 0.632618
0.709367 0.000000 0.631226
0.709013 0.000000 0.629487
0.708729 0.000000 0.628096
0.000000 0.280794 0.573485
0.000000 0.215089 0.510645
0.000000 0.101757 0.405303
0.500517 0.116106 0.422257
0.719254 0.000000 0.407035
0.749857 0.000000 0.395198
0.747249 0.000000 0.372384
0.740956 0.000000 0.352344
0.735316 0.000000 0.334451
0.000000 0.566866 0.660179
0.000000 0.490069 0.569756
0.000000 0.313496 0.362827
0.364427 0.322331 0.295463
0.744194 0.321652 0.252693
0.830758 0.303093 0.223030
0.839004 0.293481 0.209392
0.829244 0.270042 0.186397
0.820955 0.250021 0.164234
0.000000 0.661108 0.644419
0.000000 0.610793 0.541884
0.000000 0.479771 0.330360
0.154350 0.477244 0.166443
0.720325 0.550597 0.000000
0.904141 0.544842 0.000000
0.926066 0.526498 0.000000
0.919450 0.503165 0.000000
0.909178 0.476824 0.000000
0.000000 0.666353 0.596849
0.000000 0.624039 0.473539
0.000000 0.532172 0.275696
0.000000 0.537467 0.000000
0.609816 0.672589 0.000000
0.915488 0.708107 0.000000
0.976501 0.704644 0.000000
0.978152 0.685735 0.000000
0.969442 0.666524 0.000000
0.000000 0.651539 0.532386
0.000000 0.611740 0.414476
0.000000 0.538514 0.226931
0.000000 0.544140 0.000000
0.457967 0.691710 0.000000
0.870617 0.778201 0.000000
0.984029 0.788334 0.000000
1.000112 0.782371 0.000000
0.996138 0.770687 0.000000
0.000000 0.625211 0.451914
0.000000 0.586491 0.339086
0.000000 0.536842 0.196355
0.000000 0.538753 0.000000
0.297645 0.666489 0.000000
0.790089 0.789515 0.000000
0.966275 0.816281 0.000000
1.001014 0.817917 0.000000
1.006606 0.816673 0.000000
0.000000 0.600115 0.378516
0.000000 0.563331 0.272212
0.000000 0.527212 0.163548
0.000000 0.530166 0.000000
0.045892 0.630633 0.000000
0.679194 0.772993 0.000000
0.933788 0.824029 0.000000
1.002372 0.833985 0.000000
1.015074 0.834003 0.000000
0.177861 0.000000 0.492668
0.178067 0.000000 0.492836
0.510670 0.000000 0.638953
0.703637 0.000000 0.673728
0.722965 0.000000 0.679301
0.722965 0.000000 0.679301
0.722965 0.000000 0.679301
0.722965 0.000000 0.679301
0.722965 0.000000 0.679301
0.177861 0.000000 0.492668
0.177861 0.000000 0.492668
0.494763 0.000000 0.635658
0.700957 0.000000 0.673139
0.722965 0.000000 0.679301
0.722928 0.000000 0.679204
0.722747 0.000000 0.678720
0.722566 0.000000 0.678236
0.722384 0.000000 0.677752
0.000000 0.297818 0.653498
0.000000 0.226928 0.614116
0.000000 0.066155 0.576668
0.501480 0.025307 0.648331
0.734470 0.000000 0.659985
0.769519 0.000000 0.654769
0.767801 0.000000 0.641527
0.762029 0.000000 0.629038
0.756793 0.000000 0.617792
0.000000 0.568551 0.756497
0.000000 0.496091 0.708583
0.000000 0.344673 0.604697
0.315696 0.357804 0.635992
0.744235 0.358255 0.646118
0.845158 0.339363 0.632337
0.855341 0.329320 0.614743
0.845792 0.300715 0.589808
0.837671 0.276334 0.566809
0.000000 0.673964 0.785980
0.000000 0.645033 0.748289
0.000000 0.557016 0.641770
0.000000 0.537024 0.567699
0.681454 0.609729 0.556362
0.896675 0.598900 0.530128
0.929301 0.579656 0.506534
0.925585 0.549040 0.474341
0.917309 0.519114 0.442042
0.000000 0.696970 0.779732
0.000000 0.689274 0.740796
0.000000 0.638163 0.612340
0.000000 0.639523 0.519160
0.540968 0.729093 0.429921
0.901029 0.761658 0.370899
0.977967 0.750322 0.328956
0.986124 0.729780 0.297324
0.980901 0.706835 0.254695
0.000000 0.701237 0.765157
0.000000 0.696203 0.715426
0.000000 0.649408 0.555407
0.000000 0.648195 0.453520
0.358936 0.737145 0.303106
0.854238 0.817037 0.169404
0.994141 0.822644 0.000000
1.017620 0.815151 0.000000
1.016563 0.799473 0.000000
0.000000 0.700785 0.737076
0.000000 0.687838 0.667860
0.000000 0.640309 0.500110
0.000000 0.629304 0.392172
0.094386 0.700900 0.201154
0.768831 0.812857 0.000000
0.981721 0.838495 0.000000
1.026360 0.839641 0.000000
1.030381 0.834546 0.000000
0.000000 0.693812 0.695397
0.000000 0.673655 0.609706
0.000000 0.616523 0.426057
0.000000 0.603065 0.336260
0.000000 0.657544 0.124272
0.655694 0.787020 0.000000
0.942894 0.835893 0.000000
1.022697 0.844432 0.000000
1.029519 0.843671 0.000000
0.177861 0.000000 0.492668
0.177929 0.000000 0.492724
0.511997 0.000000 0.639227
0.704806 0.000000 0.673982
0.722965 0.000000 0.679301
0.722965 0.000000 0.679301
0.722965 0.000000 0.679301
0.722965 0.000000 0.679301
0.722965 0.000000 0.679301
0.177861 0.000000 0.492668
0.177861 0.000000 0.492668
0.497412 0.000000 0.636208
0.700791 0.000000 0.673103
0.722965 0.000000 0.679301
0.722965 0.000000 0.679301
0.722965 0.000000 0.679301
0.722965 0.000000 0.679301
0.722965 0.000000 0.679301
0.000000 0.305139 0.667108
0.000000 0.237304 0.638303
0.000000 0.069313 0.625714
0.498269 0.035750 0.718826
0.740576 0.000000 0.739317
0.780234 0.000000 0.739961
0.778321 0.000000 0.729962
0.771899 0.000000 0.719855
0.766761 0.000000 0.711796
0.000000 0.567895 0.777150
0.000000 0.496111 0.743993
0.000000 0.352123 0.680986
0.276009 0.371550 0.764284
0.740534 0.375536 0.804420
0.851623 0.356387 0.805374
0.863931 0.343963 0.795755
0.856205 0.315582 0.779611
0.848901 0.289828 0.765544
0.000000 0.672890 0.817086
0.000000 0.643123 0.798355
0.000000 0.558631 0.742791
0.000000 0.572071 0.765076
0.649716 0.644406 0.810738
0.890316 0.634009 0.811574
0.928813 0.616599 0.800847
0.927415 0.588596 0.783432
0.920620 0.559432 0.762297
0.000000 0.695856 0.822665
0.000000 0.689416 0.809313
0.000000 0.655438 0.760772
0.000000 0.691494 0.763615
0.448127 0.776750 0.760152
0.873765 0.816066 0.758461
0.964187 0.806696 0.744138
0.977578 0.789925 0.723269
0.973958 0.766652 0.694800
0.000000 0.702065 0.821035
0.000000 0.700505 0.804734
0.000000 0.690117 0.754299
0.000000 0.721525 0.739710
0.000000 0.795759 0.685239
0.806805 0.882188 0.674585
0.972966 0.890854 0.649734
1.001590 0.883819 0.621661
1.004353 0.867045 0.585811
0.000000 0.702127 0.811605
0.000000 0.702110 0.792068
0.000000 0.699871 0.737330
0.000000 0.715727 0.700025
0.000000 0.766342 0.612617
0.700745 0.879152 0.582261
0.955251 0.908762 0.542633
1.011056 0.908025 0.505346
1.019405 0.899434 0.465640
0.000000 0.702206 0.799113
0.000000 0.701291 0.775988
0.000000 0.694109 0.697164
0.000000 0.696729 0.647886
0.000000 0.727828 0.548318
0.575846 0.848222 0.493581
0.915719 0.898801 0.437154
1.011130 0.903888 0.382745
1.019927 0.899407 0.341530
0.177861 0.000000 0.492668
0.177998 0.000000 0.492780
0.517089 0.000000 0.640250
0.707143 0.000000 0.674489
0.722965 0.000000 0.679301
0.722965 0.000000 0.679301
0.722965 0.000000 0.679301
0.722965 0.000000 0.679301
0.722965 0.000000 0.679301
0.177861 0.000000 0.492668
0.177861 0.000000 0.492668
0.501386 0.000000 0.637032
0.700791 0.000000 0.673103
0.722965 0.000000 0.679301
0.722965 0.000000 0.679301
0.722965 0.000000 0.679301
0.722965 0.000000 0.679301
0.722965 0.000000 0.679301
0.000000 0.303874 0.666577
0.000000 0.234809 0.637231
0.000000 0.071832 0.631868
0.495849 0.058362 0.732871
0.741369 0.000000 0.759867
0.785047 0.000000 0.761995
0.785052 0.000000 0.757684
0.778899 0.000000 0.750260
0.774832 0.000000 0.744997
0.000000 0.564472 0.776355
0.000000 0.494662 0.747240
0.000000 0.361146 0.702451
0.245636 0.380683 0.800292
0.732011 0.390918 0.853293
0.853041 0.367991 0.859578
0.868701 0.357284 0.854935
0.861660 0.329152 0.843394
0.854707 0.302513 0.833169
0.000000 0.670447 0.821899
0.000000 0.640539 0.808674
0.000000 0.557191 0.771748
0.000000 0.574641 0.817226
0.625154 0.652795 0.894009
0.882852 0.643014 0.907950
0.927984 0.628416 0.905394
0.928603 0.604062 0.894926
0.921729 0.573483 0.882546
0.000000 0.695808 0.832633
0.000000 0.688522 0.827127
0.000000 0.653871 0.802601
0.000000 0.691095 0.829517
0.386356 0.788887 0.882856
0.854019 0.831688 0.909585
0.957815 0.825721 0.906762
0.971680 0.812837 0.898166
0.968432 0.791165 0.885143
0.000000 0.700812 0.834231
0.000000 0.699958 0.829294
0.000000 0.690186 0.810335
0.000000 0.723669 0.823842
0.000000 0.815247 0.845204
0.772672 0.909373 0.879616
0.957344 0.922209 0.877209
0.990165 0.919226 0.867326
0.993723 0.904537 0.854187
0.000000 0.701036 0.832445
0.000000 0.702029 0.826507
0.000000 0.700348 0.806152
0.000000 0.725095 0.808775
0.000000 0.800498 0.812244
0.646679 0.915264 0.835244
0.932347 0.950851 0.831558
0.994411 0.953768 0.818493
1.005699 0.948843 0.802845
0.000000 0.701961 0.828456
0.000000 0.702061 0.821580
0.000000 0.702234 0.794660
0.000000 0.718972 0.789562
0.000000 0.778751 0.783333
0.489533 0.891712 0.783330
0.881225 0.949869 0.778724
0.989235 0.959238 0.758611
1.008971 0.956884 0.736333
0.177861 0.000000 0.492668
0.178205 0.000000 0.492949
0.524856 0.000000 0.641647
0.712834 0.000000 0.675884
0.722965 0.000000 0.679301
0.722965 0.000000 0.679301
0.722965 0.000000 0.679301
0.722965 0.000000 0.679301
0.722965 0.000000 0.679301
0.175630 0.000000 0.495217
0.177861 0.000000 0.492668
0.504037 0.000000 0.637581
0.700791 0.000000 0.673103
0.722965 0.000000 0.679301
0.722965 0.000000 0.679301
0.722965 0.000000 0.679301
0.722965 0.000000 0.679301
0.722965 0.000000 0.679301
0.000000 0.303874 0.666577
0.000000 0.232316 0.636159
0.000000 0.066829 0.630008
0.488208 0.026954 0.729886
0.737094 0.000000 0.756912
0.782602 0.000000 0.759232
0.782498 0.000000 0.754594
0.777045 0.000000 0.747902
0.772174 0.000000 0.741512
0.000000 0.561746 0.775231
0.000000 0.489903 0.745235
0.000000 0.355468 0.699748
0.231943 0.375474 0.799690
0.723182 0.390065 0.857255
0.852452 0.372816 0.867903
0.869297 0.360803 0.867121
0.863821 0.333903 0.859060
0.857627 0.309202 0.851522
0.000000 0.668424 0.821005
0.000000 0.637515 0.807331
0.000000 0.553429 0.774720
0.000000 0.568993 0.825453
0.606106 0.646748 0.911088
0.874652 0.645733 0.933782
0.927123 0.632670 0.934628
0.929799 0.610782 0.929724
0.923647 0.583499 0.922069
0.000000 0.695365 0.832538
0.000000 0.687844 0.828976
0.000000 0.652245 0.813855
0.000000 0.685852 0.844134
0.336995 0.788090 0.919039
0.841757 0.833294 0.955929
0.953890 0.831053 0.960783
0.969437 0.819340 0.958952
0.966405 0.796380 0.951631
0.000000 0.700808 0.834695
0.000000 0.699724 0.833558
0.000000 0.689410 0.826896
0.000000 0.719383 0.846557
0.000000 0.815928 0.898183
0.748805 0.912723 0.948855
0.950556 0.930861 0.960073
0.984831 0.928573 0.958289
0.988670 0.913582 0.951209
0.000000 0.700808 0.834695
0.000000 0.700808 0.834695
0.000000 0.699879 0.828725
0.000000 0.721693 0.839888
0.000000 0.804799 0.878166
0.606917 0.922812 0.926603
0.916985 0.964335 0.943151
0.986433 0.969441 0.942765
0.998741 0.965646 0.935157
0.000000 0.700808 0.834695
0.000000 0.700815 0.833999
0.000000 0.702032 0.826023
0.000000 0.717585 0.830030
0.000000 0.787906 0.860500
0.422130 0.903861 0.899314
0.859911 0.967196 0.919584
0.977741 0.980762 0.919212
1.000543 0.981404 0.911764
0.177861 0.000000 0.492668
0.178481 0.000000 0.493174
0.537079 0.000000 0.643840
0.718516 0.000000 0.677504
0.722965 0.000000 0.679301
0.722965 0.000000 0.679301
0.722965 0.000000 0.679301
0.722965 0.000000 0.679301
0.722965 0.000000 0.679301
0.171671 0.000000 0.499749
0.177861 0.000000 0.492668
0.508016 0.000000 0.638404
0.700957 0.000000 0.673139
0.722965 0.000000 0.679301
0.722965 0.000000 0.679301
0.722965 0.000000 0.679301
0.722965 0.000000 0.679301
0.722965 0.000000 0.679301
0.000000 0.303874 0.666577
0.000000 0.231070 0.635624
0.000000 0.061855 0.628146
0.484251 0.000000 0.728069
0.733877 0.000000 0.754691
0.780263 0.000000 0.756510
0.780444 0.000000 0.752117
0.774832 0.000000 0.744997
0.770404 0.000000 0.739189
0.000000 0.559020 0.774106
0.000000 0.486336 0.743731
0.000000 0.349535 0.696789
0.221143 0.367602 0.795604
0.716062 0.382496 0.854204
0.849101 0.364721 0.865276
0.866861 0.352403 0.864436
0.861250 0.323686 0.855924
0.854489 0.296607 0.847748
0.000000 0.666806 0.820290
0.000000 0.635095 0.806257
0.000000 0.546988 0.771738
0.000000 0.560956 0.821707
0.593974 0.636523 0.907703
0.869179 0.636593 0.932240
0.924781 0.625369 0.935252
0.929017 0.604884 0.931964
0.922822 0.577137 0.925605
0.000000 0.695070 0.832474
0.000000 0.686737 0.828535
0.000000 0.650226 0.812961
0.000000 0.679885 0.842816
0.314333 0.781561 0.920236
0.830036 0.826885 0.963017
0.951156 0.826985 0.972361
0.968623 0.817735 0.973023
0.967008 0.796402 0.969635
0.000000 0.700808 0.834695
0.000000 0.699503 0.833439
0.000000 0.688728 0.829410
0.000000 0.715994 0.849551
0.000000 0.809576 0.907798
0.730358 0.909506 0.968190
0.942931 0.929180 0.984215
0.982491 0.926899 0.985791
0.987158 0.916304 0.983675
0.000000 0.700808 0.834695
0.000000 0.700808 0.834695
0.000000 0.699651 0.833481
0.000000 0.719897 0.848037
0.000000 0.800215 0.894409
0.578937 0.922129 0.955910
0.907175 0.967909 0.980396
0.982416 0.972735 0.983565
0.996045 0.969813 0.981902
0.000000 0.700808 0.834695
0.000000 0.700808 0.834695
0.000000 0.700808 0.834695
0.000000 0.715704 0.842800
0.000000 0.786456 0.883017
0.369722 0.903409 0.937116
0.844591 0.972429 0.970181
0.971441 0.987405 0.976251
0.997521 0.989155 0.974834
