transforms/SA01_warm_fpe_r709.cube
#  SA_01_FPE_r709.cube
LUT_3D_SIZE 5
0.000000 0.000000 0.000000
0.479908 0.000000 0.000000
0.624104 0.000000 0.000000
0.624104 0.000000 0.000000
0.624104 0.000000 0.000000
0.000000 0.203231 0.077945
0.165783 0.148765 0.007069
0.721705 0.143926 0.000000
0.731133 0.114668 0.000000
0.722425 0.083894 0.000000
0.000000 0.498150 0.119324
0.000000 0.446147 0.000000
0.832296 0.645268 0.000000
0.939840 0.632761 0.000000
0.925631 0.592574 0.000000
0.000000 0.514179 0.120657
0.000000 0.513252 0.103126
0.683384 0.762982 0.000000
0.997726 0.815268 0.000000
1.003392 0.808883 0.000000
0.000000 0.514179 0.120657
0.000000 0.514179 0.120657
0.425180 0.703584 0.000000
0.987003 0.834705 0.000000
1.019642 0.840128 0.000000
0.120134 0.000000 0.426059
0.488424 0.000000 0.424606
0.688758 0.000000 0.447309
0.700040 0.000000 0.564063
0.702061 0.000000 0.577355
0.000000 0.236285 0.275913
0.106218 0.104919 0.090195
0.696413 0.000000 0.000000
0.720061 0.000000 0.000000
0.708803 0.000000 0.000000
0.000000 0.529746 0.236267
0.000000 0.401222 0.114594
0.710775 0.536543 0.000000
0.899588 0.526125 0.000000
0.885398 0.481366 0.000000
0.000000 0.528829 0.168801
0.000000 0.502964 0.120220
0.490864 0.697047 0.000000
0.976906 0.789669 0.000000
0.991143 0.776946 0.000000
0.000000 0.515685 0.125719
0.000000 0.514179 0.120657
0.184337 0.643398 0.000000
0.948135 0.827246 0.000000
1.017045 0.836088 0.000000
0.177861 0.000000 0.492668
0.510670 0.000000 0.638953
0.722965 0.000000 0.679301
0.722965 0.000000 0.679301
0.722965 0.000000 0.679301
0.000000 0.297818 0.653498
0.000000 0.066155 0.576668
0.734470 0.000000 0.659985
0.767801 0.000000 0.641527
0.756793 0.000000 0.617792
0.000000 0.673964 0.785980
0.000000 0.557016 0.641770
0.681454 0.609729 0.556362
0.929301 0.579656 0.506534
0.917309 0.519114 0.442042
0.000000 0.701237 0.765157
0.000000 0.649408 0.555407
0.358936 0.737145 0.303106
0.994141 0.822644 0.000000
1.016563 0.799473 0.000000
0.000000 0.693812 0.695397
0.000000 0.616523 0.426057
0.000000 0.657544 0.124272
0.942894 0.835893 0.000000
1.029519 0.843671 0.000000
0.177861 0.000000 0.492668
0.517089 0.000000 0.640250
0.722965 0.000000 0.679301
0.722965 0.000000 0.679301
0.722965 0.000000 0.679301
0.000000 0.303874 0.666577
0.000000 0.071832 0.631868
0.741369 0.000000 0.759867
0.785052 0.000000 0.757684
0.774832 0.000000 0.744997
0.000000 0.670447 0.821899
0.000000 0.557191 0.771748
0.625154 0.652795 0.894009
0.927984 0.628416 0.905394
0.921729 0.573483 0.882546
0.000000 0.700812 0.834231
0.000000 0.690186 0.810335
0.000000 0.815247 0.845204
0.957344 0.922209 0.877209
0.993723 0.904537 0.854187
0.000000 0.701961 0.828456
0.000000 0.702234 0.794660
0.000000 0.778751 0.783333
0.881225 0.949869 0.778724
1.008971 0.956884 0.736333
0.177861 0.000000 0.492668
0.537079 0.000000 0.643840
0.722965 0.000000 0.679301
0.722965 0.000000 0.679301
0.722965 0.000000 0.679301
0.000000 0.303874 0.666577
0.000000 0.061855 0.628146
0.733877 0.000000 0.754691
0.780444 0.000000 0.752117
0.770404 0.000000 0.739189
0.000000 0.666806 0.820290
0.000000 0.546988 0.771738
0.593974 0.636523 0.907703
0.924781 0.625369 0.935252
0.922822 0.577137 0.925605
0.000000 0.700808 0.834695
0.000000 0.688728 0.829410
0.000000 0.809576 0.907798
0.942931 0.929180 0.984215
0.987158 0.916304 0.983675
0.000000 0.700808 0.834695
0.000000 0.700808 0.834695
0.000000 0.786456 0.883017
0.844591 0.972429 0.970181
0.997521 0.989155 0.974834
