transforms/SA02_cool_fpe_r709.cube
#  SA_02_FPE_r709.cube
LUT_3D_SIZE 33
0.000000 0.000000 0.000000
0.000000 0.000000 0.000000
0.000000 0.000000 0.000000
0.005026 0.003186 0.002222
0.042632 0.021445 0.000000
0.101809 0.035483 0.000000
0.202931 0.043368 0.000000
0.338274 0.011229 0.000000
0.479908 0.000000 0.000000
0.539122 0.000000 0.000000
0.577640 0.000000 0.000000
0.598723 0.000000 0.000000
0.611617 0.000000 0.000000
0.621149 0.000000 0.000000
0.624104 0.000000 0.000000
0.624104 0.000000 0.000000
0.624104 0.000000 0.000000
0.624104 0.000000 0.000000
0.624104 0.000000 0.000000
0.624104 0.000000 0.000000
0.624104 0.000000 0.000000
0.624104 0.000000 0.000000
0.624104 0.000000 0.000000
0.624104 0.000000 0.000000
0.624104 0.000000 0.000000
0.624104 0.000000 0.000000
0.624104 0.000000 0.000000
0.624104 0.000000 0.000000
0.624104 0.000000 0.000000
0.624104 0.000000 0.000000
0.624104 0.000000 0.000000
0.624104 0.000000 0.000000
0.624104 0.000000 0.000000
0.000000 0.000000 0.000000
0.000000 0.000000 0.000000
0.000000 0.000000 0.000000
0.002821 0.002053 0.001505
0.032425 0.018089 0.003932
0.088240 0.033973 0.000000
0.176214 0.044860 0.000000
0.306208 0.038113 0.000000
0.454715 0.000000 0.000000
0.524593 0.000000 0.000000
0.571745 0.000000 0.000000
0.596524 0.000000 0.000000
0.613229 0.000000 0.000000
0.624104 0.000000 0.000000
0.624104 0.000000 0.000000
0.624104 0.000000 0.000000
0.624104 0.000000 0.000000
0.624104 0.000000 0.000000
0.624104 0.000000 0.000000
0.624104 0.000000 0.000000
0.624104 0.000000 0.000000
0.624104 0.000000 0.000000
0.624104 0.000000 0.000000
0.624104 0.000000 0.000000
0.624104 0.000000 0.000000
0.624104 0.000000 0.000000
0.624104 0.000000 0.000000
0.624104 0.000000 0.000000
0.624104 0.000000 0.000000
0.624104 0.000000 0.000000
0.624104 0.000000 0.000000
0.624104 0.000000 0.000000
0.624104 0.000000 0.000000
0.000000 0.000000 0.000000
0.000000 0.000000 0.000000
0.000000 0.000000 0.000000
0.001050 0.000847 0.000645
0.023956 0.012530 0.005077
0.073533 0.032136 0.000000
0.150327 0.044372 0.000000
0.275116 0.047631 0.000000
0.435060 0.000000 0.000000
0.532531 0.000000 0.000000
0.577986 0.000000 0.000000
0.600262 0.000000 0.000000
0.612936 0.000000 0.000000
0.622049 0.000000 0.000000
0.624104 0.000000 0.000000
0.624104 0.000000 0.000000
0.624104 0.000000 0.000000
0.624104 0.000000 0.000000
0.624104 0.000000 0.000000
0.624104 0.000000 0.000000
0.624104 0.000000 0.000000
0.624104 0.000000 0.000000
0.624104 0.000000 0.000000
0.624104 0.000000 0.000000
0.624104 0.000000 0.000000
0.624104 0.000000 0.000000
0.624104 0.000000 0.000000
0.624104 0.000000 0.000000
0.624104 0.000000 0.000000
0.624104 0.000000 0.000000
0.624104 0.000000 0.000000
0.624104 0.000000 0.000000
0.624104 0.000000 0.000000
0.000217 0.000212 0.000149
0.000048 0.000047 0.000033
0.000000 0.000000 0.000000
0.000000 0.000000 0.000000
0.013131 0.007149 0.004329
0.052017 0.026718 0.000000
0.133038 0.043691 0.000000
0.255714 0.049865 0.000000
0.411117 0.000000 0.000000
0.492879 0.000000 0.000000
0.547519 0.000000 0.000000
0.581802 0.000000 0.000000
0.600921 0.000000 0.000000
0.612349 0.000000 0.000000
0.621021 0.000000 0.000000
0.624104 0.000000 0.000000
0.624104 0.000000 0.000000
0.624104 0.000000 0.000000
0.624104 0.000000 0.000000
0.624104 0.000000 0.000000
0.624104 0.000000 0.000000
0.624104 0.000000 0.000000
0.624104 0.000000 0.000000
0.624104 0.000000 0.000000
0.624104 0.000000 0.000000
0.624104 0.000000 0.000000
0.624104 0.000000 0.000000
0.624104 0.000000 0.000000
0.624104 0.000000 0.000000
0.624104 0.000000 0.000000
0.624104 0.000000 0.000000
0.624104 0.000000 0.000000
0.624104 0.000000 0.000000
0.005142 0.009882 0.004773
0.005137 0.010036 0.004839
0.004857 0.012675 0.005983
0.004857 0.012675 0.005983
0.008003 0.009544 0.004283
0.029090 0.023911 0.007872
0.083827 0.045193 0.000000
0.163282 0.062852 0.000000
0.288329 0.082838 0.000000
0.399482 0.066846 0.000000
0.490438 0.000000 0.000000
0.553370 0.000000 0.000000
0.595336 0.000000 0.000000
0.620474 0.000000 0.000000
0.634376 0.000000 0.000000
0.642882 0.000000 0.000000
0.649335 0.000000 0.000000
0.651053 0.000000 0.000000
0.649807 0.000000 0.000000
0.648562 0.000000 0.000000
0.647731 0.000000 0.000000
0.646582 0.000000 0.000000
0.645857 0.000000 0.000000
0.644770 0.000000 0.000000
0.644045 0.000000 0.000000
0.642957 0.000000 0.000000
0.642232 0.000000 0.000000
0.641146 0.000000 0.000000
0.640421 0.000000 0.000000
0.639696 0.000000 0.000000
0.638609 0.000000 0.000000
0.637884 0.000000 0.000000
0.637159 0.000000 0.000000
0.000000 0.049186 0.024710
0.000000 0.048903 0.024604
0.000000 0.047212 0.023956
0.000000 0.042096 0.021029
0.000000 0.032630 0.015076
0.024092 0.030502 0.012780
0.064119 0.051681 0.015875
0.139894 0.074211 0.000000
0.248264 0.101912 0.000000
0.356470 0.105339 0.000000
0.465315 0.091681 0.000000
0.545373 0.056602 0.000000
0.600107 0.000000 0.000000
0.635221 0.000000 0.000000
0.656242 0.000000 0.000000
0.666213 0.000000 0.000000
0.672890 0.000000 0.000000
0.677476 0.000000 0.000000
0.678557 0.000000 0.000000
0.677153 0.000000 0.000000
0.675280 0.000000 0.000000
0.673875 0.000000 0.000000
0.672632 0.000000 0.000000
0.671387 0.000000 0.000000
0.670558 0.000000 0.000000
0.669313 0.000000 0.000000
0.668069 0.000000 0.000000
0.666825 0.000000 0.000000
0.665580 0.000000 0.000000
0.664751 0.000000 0.000000
0.663505 0.000000 0.000000
0.662261 0.000000 0.000000
0.661431 0.000000 0.000000
0.000000 0.093561 0.039718
0.000000 0.090796 0.039273
0.000000 0.086205 0.038514
0.000000 0.078300 0.036952
0.000000 0.067336 0.032367
0.021084 0.065272 0.030029
0.052748 0.069684 0.026390
0.120789 0.095675 0.017652
0.218538 0.126107 0.000000
0.324616 0.138878 0.000000
0.436896 0.137650 0.000000
0.533991 0.127617 0.000000
0.601097 0.108105 0.000000
0.646008 0.085285 0.000000
0.674625 0.060687 0.000000
0.690958 0.015437 0.000000
0.698321 0.000000 0.000000
0.703421 0.000000 0.000000
0.706277 0.000000 0.000000
0.704914 0.000000 0.000000
0.703342 0.000000 0.000000
0.701473 0.000000 0.000000
0.700072 0.000000 0.000000
0.698204 0.000000 0.000000
0.696803 0.000000 0.000000
0.695401 0.000000 0.000000
0.694000 0.000000 0.000000
0.692597 0.000000 0.000000
0.691195 0.000000 0.000000
0.689793 0.000000 0.000000
0.688382 0.000000 0.000000
0.686979 0.000000 0.000000
0.685575 0.000000 0.000000
0.000000 0.157941 0.060692
0.000000 0.151745 0.058352
0.000000 0.142486 0.054836
0.000000 0.128134 0.049520
0.000000 0.109490 0.046722
0.000000 0.104844 0.042743
0.024328 0.108354 0.040126
0.099714 0.119564 0.030391
0.199864 0.156062 0.000000
0.298320 0.172901 0.000000
0.412997 0.181147 0.000000
0.522755 0.181004 0.000000
0.601666 0.171646 0.000000
0.656501 0.161461 0.000000
0.692231 0.152890 0.000000
0.712734 0.145026 0.000000
0.724047 0.140716 0.000000
0.729972 0.134186 0.000000
0.733790 0.128910 0.000000
0.734935 0.125870 0.000000
0.732764 0.119580 0.000000
0.730590 0.112987 0.000000
0.728959 0.107801 0.000000
0.726783 0.100486 0.000000
0.725150 0.094624 0.000000
0.722971 0.086157 0.000000
0.721335 0.079151 0.000000
0.719688 0.071433 0.000000
0.717504 0.059114 0.000000
0.715865 0.047128 0.000000
0.714225 0.028344 0.000000
0.712584 0.000000 0.000000
0.710942 0.000000 0.000000
0.000000 0.248425 0.100314
0.000000 0.236883 0.094520
0.000000 0.223092 0.087592
0.000000 0.200521 0.076923
0.000000 0.170007 0.065400
0.000000 0.157676 0.052577
0.000000 0.156500 0.044647
0.079981 0.167525 0.033560
0.172630 0.188946 0.000000
0.271191 0.210033 0.000000
0.384609 0.225205 0.000000
0.502333 0.231004 0.000000
0.597353 0.229169 0.000000
0.663211 0.222584 0.000000
0.707245 0.215904 0.000000
0.735495 0.212189 0.000000
0.750871 0.208990 0.000000
0.757737 0.208541 0.000000
0.762004 0.205368 0.000000
0.764880 0.202515 0.000000
0.764325 0.198291 0.000000
0.761841 0.192749 0.000000
0.759355 0.187129 0.000000
0.756874 0.181427 0.000000
0.754381 0.175633 0.000000
0.751885 0.169732 0.000000
0.750011 0.165226 0.000000
0.747511 0.159099 0.000000
0.745634 0.154402 0.000000
0.743130 0.147988 0.000000
0.741251 0.143044 0.000000
0.739370 0.137974 0.000000
0.737648 0.133376 0.000000
0.000000 0.318978 0.125670
0.000000 0.306293 0.122580
0.000000 0.288602 0.118230
0.000000 0.263489 0.107872
0.000000 0.223092 0.087592
0.000000 0.206964 0.072707
0.000000 0.200072 0.040473
0.000000 0.207403 0.000000
0.136968 0.226734 0.000000
0.241901 0.251239 0.000000
0.358061 0.271369 0.000000
0.478797 0.283297 0.000000
0.591841 0.289136 0.000000
0.668909 0.285155 0.000000
0.719682 0.281914 0.000000
0.754954 0.279880 0.000000
0.775491 0.277481 0.000000
0.785636 0.275378 0.000000
0.790450 0.272953 0.000000
0.793660 0.269481 0.000000
0.795743 0.266940 0.000000
0.792447 0.259771 0.000000
0.789808 0.253997 0.000000
0.787165 0.248184 0.000000
0.784517 0.242331 0.000000
0.781867 0.236430 0.000000
0.779213 0.230482 0.000000
0.777324 0.226380 0.000000
0.774853 0.221140 0.000000
0.772380 0.215853 0.000000
0.770524 0.211855 0.000000
0.768665 0.207825 0.000000
0.766185 0.202400 0.000000
0.000000 0.376296 0.133678
0.000000 0.367416 0.134467
0.000000 0.354827 0.134289
0.000000 0.328838 0.128057
0.000000 0.283562 0.116982
0.000000 0.266342 0.104171
0.000000 0.252241 0.067069
0.000000 0.249328 0.000000
0.059332 0.269695 0.000000
0.206455 0.294619 0.000000
0.328418 0.320395 0.000000
0.453972 0.339587 0.000000
0.573474 0.350691 0.000000
0.666911 0.353902 0.000000
0.729886 0.351697 0.000000
0.770961 0.348642 0.000000
0.799069 0.346786 0.000000
0.812708 0.342689 0.000000
0.818589 0.340200 0.000000
0.821773 0.336085 0.000000
0.824425 0.333024 0.000000
0.823337 0.326661 0.000000
0.820587 0.320113 0.000000
0.817986 0.314608 0.000000
0.814732 0.307691 0.000000
0.812124 0.302139 0.000000
0.809513 0.296565 0.000000
0.806898 0.290972 0.000000
0.804936 0.286762 0.000000
0.802316 0.281127 0.000000
0.799691 0.275468 0.000000
0.797060 0.269793 0.000000
0.795085 0.265510 0.000000
0.000000 0.416363 0.129584
0.000000 0.408721 0.130093
0.000000 0.397348 0.131482
0.000000 0.379529 0.133370
0.000000 0.346147 0.132216
0.000000 0.325662 0.125280
0.000000 0.310881 0.098600
0.000000 0.296827 0.000000
0.000000 0.309936 0.000000
0.151391 0.339096 0.000000
0.291309 0.369404 0.000000
0.425986 0.395164 0.000000
0.551912 0.411699 0.000000
0.662606 0.419815 0.000000
0.738085 0.420488 0.000000
0.785230 0.418109 0.000000
0.818008 0.416764 0.000000
0.835887 0.413576 0.000000
0.845648 0.411136 0.000000
0.850342 0.408361 0.000000
0.852520 0.404372 0.000000
0.853905 0.399208 0.000000
0.851217 0.392823 0.000000
0.847850 0.384827 0.000000
0.845151 0.378418 0.000000
0.842446 0.371999 0.000000
0.839054 0.363948 0.000000
0.836333 0.357502 0.000000
0.833607 0.351042 0.000000
0.831558 0.346185 0.000000
0.828823 0.339696 0.000000
0.826083 0.333189 0.000000
0.823337 0.326661 0.000000
0.000000 0.445929 0.127666
0.000000 0.438676 0.128208
0.000000 0.429622 0.128821
0.000000 0.416363 0.129584
0.000000 0.389241 0.132384
0.000000 0.374680 0.133827
0.000000 0.366196 0.118691
0.000000 0.352265 0.064350
0.000000 0.353809 0.000000
0.000000 0.381031 0.000000
0.246987 0.414275 0.000000
0.389698 0.444851 0.000000
0.527273 0.467611 0.000000
0.647635 0.483790 0.000000
0.734733 0.488612 0.000000
0.794148 0.489189 0.000000
0.832247 0.487029 0.000000
0.856828 0.485831 0.000000
0.869921 0.482635 0.000000
0.876427 0.479672 0.000000
0.878922 0.475370 0.000000
0.879897 0.470098 0.000000
0.878694 0.463097 0.000000
0.876250 0.456444 0.000000
0.873187 0.448122 0.000000
0.870729 0.441457 0.000000
0.867649 0.433118 0.000000
0.865177 0.426438 0.000000
0.862606 0.419907 0.000000
0.859935 0.413547 0.000000
0.857258 0.407179 0.000000
0.854577 0.400804 0.000000
0.851891 0.394420 0.000000
0.000000 0.467680 0.124239
0.000000 0.462325 0.125198
0.000000 0.455635 0.126343
0.000000 0.444115 0.127805
0.000000 0.422386 0.129255
0.000000 0.411550 0.129824
0.000000 0.403607 0.120120
0.000000 0.394728 0.082122
0.000000 0.391301 0.000000
0.000000 0.413614 0.000000
0.188322 0.451885 0.000000
0.349523 0.487516 0.000000
0.493412 0.517276 0.000000
0.625120 0.539359 0.000000
0.729049 0.550939 0.000000
0.799931 0.554861 0.000000
0.845542 0.554770 0.000000
0.874150 0.552821 0.000000
0.889717 0.549883 0.000000
0.898092 0.547245 0.000000
0.902111 0.542158 0.000000
0.904174 0.537699 0.000000
0.903926 0.532533 0.000000
0.901581 0.526117 0.000000
0.898606 0.517838 0.000000
0.895620 0.509556 0.000000
0.893225 0.502928 0.000000
0.890823 0.496297 0.000000
0.887813 0.488005 0.000000
0.885398 0.481366 0.000000
0.882956 0.474727 0.000000
0.880523 0.468083 0.000000
0.878084 0.461434 0.000000
0.000000 0.483274 0.121019
0.000000 0.480267 0.121729
0.000000 0.475723 0.122715
0.000000 0.465449 0.124643
0.000000 0.448955 0.127425
0.000000 0.438072 0.128252
0.000000 0.431756 0.120350
0.000000 0.428512 0.087380
0.000000 0.423116 0.000000
0.000000 0.440232 0.000000
0.071299 0.479895 0.000000
0.300467 0.520374 0.000000
0.453759 0.554508 0.000000
0.597170 0.583234 0.000000
0.717981 0.601996 0.000000
0.796648 0.609137 0.000000
0.849418 0.611923 0.000000
0.883694 0.612726 0.000000
0.905196 0.611967 0.000000
0.916760 0.608526 0.000000
0.921863 0.604691 0.000000
0.924878 0.600746 0.000000
0.925979 0.596009 0.000000
0.924556 0.589567 0.000000
0.921865 0.582050 0.000000
0.919138 0.574436 0.000000
0.916900 0.568230 0.000000
0.914094 0.560471 0.000000
0.911844 0.554263 0.000000
0.909587 0.548056 0.000000
0.906760 0.540295 0.000000
0.904493 0.534085 0.000000
0.902175 0.527773 0.000000
0.000000 0.494132 0.118572
0.000000 0.491300 0.119043
0.000000 0.487287 0.120048
0.000000 0.481520 0.121435
0.000000 0.468127 0.124157
0.000000 0.460094 0.125587
0.000000 0.454981 0.121452
0.000000 0.454333 0.090324
0.000000 0.450584 0.000000
0.000000 0.461160 0.000000
0.000000 0.497882 0.000000
0.242988 0.542778 0.000000
0.413270 0.583969 0.000000
0.562938 0.619064 0.000000
0.693100 0.644161 0.000000
0.785179 0.655857 0.000000
0.848561 0.660117 0.000000
0.889556 0.659898 0.000000
0.916415 0.660916 0.000000
0.930846 0.659020 0.000000
0.937050 0.654690 0.000000
0.940984 0.651729 0.000000
0.943239 0.648535 0.000000
0.943960 0.644609 0.000000
0.941903 0.638684 0.000000
0.939840 0.632761 0.000000
0.937772 0.626839 0.000000
0.935776 0.621142 0.000000
0.933117 0.613623 0.000000
0.930984 0.607609 0.000000
0.928846 0.601594 0.000000
0.926167 0.594077 0.000000
0.924018 0.588063 0.000000
0.000000 0.500161 0.119705
0.000000 0.498292 0.119350
0.000000 0.496141 0.118948
0.000000 0.492053 0.118851
0.000000 0.482774 0.121140
0.000000 0.478263 0.122191
0.000000 0.472702 0.122756
0.000000 0.471896 0.095328
0.000000 0.471999 0.000000
0.000000 0.479959 0.000000
0.000000 0.511436 0.000000
0.168365 0.557808 0.000000
0.368288 0.603694 0.000000
0.526112 0.641755 0.000000
0.663059 0.670852 0.000000
0.770116 0.687888 0.000000
0.842553 0.695859 0.000000
0.891743 0.699106 0.000000
0.922180 0.700680 0.000000
0.939865 0.701749 0.000000
0.950057 0.700329 0.000000
0.955789 0.697605 0.000000
0.958390 0.694536 0.000000
0.959059 0.690330 0.000000
0.957824 0.684930 0.000000
0.955803 0.678998 0.000000
0.953776 0.673067 0.000000
0.951744 0.667137 0.000000
0.950107 0.662385 0.000000
0.948063 0.656459 0.000000
0.946424 0.651719 0.000000
0.944783 0.646978 0.000000
0.942727 0.641054 0.000000
0.000000 0.505332 0.120468
0.000000 0.503931 0.120322
0.000000 0.502029 0.120061
0.000000 0.498724 0.119433
0.000000 0.493057 0.118594
0.000000 0.488541 0.119737
0.000000 0.484779 0.120658
0.000000 0.485166 0.101954
0.000000 0.488005 0.000000
0.000000 0.493992 0.000000
0.000000 0.519406 0.000000
0.000000 0.563732 0.000000
0.315044 0.611914 0.000000
0.482418 0.655784 0.000000
0.631485 0.691609 0.000000
0.750494 0.714347 0.000000
0.831137 0.725176 0.000000
0.885222 0.731184 0.000000
0.922700 0.733305 0.000000
0.945940 0.733151 0.000000
0.959185 0.733166 0.000000
0.965436 0.731065 0.000000
0.969067 0.728323 0.000000
0.970475 0.724399 0.000000
0.970603 0.720976 0.000000
0.969121 0.716929 0.000000
0.967636 0.712882 0.000000
0.966150 0.708836 0.000000
0.964961 0.705599 0.000000
0.963471 0.701554 0.000000
0.961855 0.696797 0.000000
0.959842 0.690862 0.000000
0.958228 0.686116 0.000000
0.000000 0.509715 0.120920
0.000000 0.508242 0.120775
0.000000 0.506516 0.120593
0.000000 0.504039 0.120333
0.000000 0.499011 0.119487
0.000000 0.496427 0.119002
0.000000 0.494276 0.118597
0.000000 0.493981 0.105957
0.000000 0.496857 0.039777
0.000000 0.501467 0.000000
0.000000 0.522052 0.000000
0.000000 0.566358 0.000000
0.254328 0.616081 0.000000
0.439221 0.664398 0.000000
0.592210 0.703258 0.000000
0.721318 0.730923 0.000000
0.813270 0.745308 0.000000
0.877031 0.752872 0.000000
0.920928 0.756792 0.000000
0.950120 0.758591 0.000000
0.964605 0.758746 0.000000
0.972637 0.759143 0.000000
0.977601 0.757667 0.000000
0.980873 0.755312 0.000000
0.981630 0.751774 0.000000
0.980336 0.747730 0.000000
0.978867 0.743678 0.000000
0.977399 0.739625 0.000000
0.975927 0.735574 0.000000
0.974453 0.731523 0.000000
0.973272 0.728283 0.000000
0.971788 0.724214 0.000000
0.970603 0.720976 0.000000
0.000000 0.512524 0.120765
0.000000 0.511588 0.120820
0.000000 0.510436 0.120882
0.000000 0.508242 0.120775
0.000000 0.504148 0.120345
0.000000 0.502029 0.120061
0.000000 0.499873 0.119652
0.000000 0.499771 0.110712
0.000000 0.503807 0.059651
0.000000 0.509709 0.000000
0.000000 0.528305 0.000000
0.000000 0.565792 0.000000
0.188419 0.614107 0.000000
0.392201 0.662974 0.000000
0.551414 0.705866 0.000000
0.686872 0.738964 0.000000
0.794875 0.760736 0.000000
0.868297 0.771132 0.000000
0.916172 0.776808 0.000000
0.948110 0.780177 0.000000
0.967544 0.780600 0.000000
0.977850 0.779970 0.000000
0.983339 0.779033 0.000000
0.987196 0.776817 0.000000
0.988878 0.773763 0.000000
0.988913 0.770918 0.000000
0.987792 0.767900 0.000000
0.986670 0.764884 0.000000
0.985546 0.761868 0.000000
0.984646 0.759455 0.000000
0.983521 0.756440 0.000000
0.982394 0.753425 0.000000
0.981215 0.750163 0.000000
0.000000 0.514179 0.120657
0.000000 0.514179 0.120657
0.000000 0.513172 0.120722
0.000000 0.511444 0.120829
0.000000 0.508349 0.120787
0.000000 0.506301 0.120571
0.000000 0.504685 0.120401
0.000000 0.504079 0.116521
0.000000 0.508553 0.077079
0.000000 0.513915 0.000000
0.000000 0.528203 0.000000
0.000000 0.562468 0.000000
0.082663 0.610078 0.000000
0.342111 0.659681 0.000000
0.508943 0.705790 0.000000
0.652844 0.743385 0.000000
0.772423 0.769130 0.000000
0.850613 0.781608 0.000000
0.905273 0.788195 0.000000
0.942761 0.792022 0.000000
0.967498 0.794615 0.000000
0.981483 0.795521 0.000000
0.987634 0.795548 0.000000
0.992043 0.794837 0.000000
0.995250 0.793853 0.000000
0.996851 0.792397 0.000000
0.995827 0.789632 0.000000
0.994713 0.786611 0.000000
0.993599 0.783589 0.000000
0.992483 0.780569 0.000000
0.991589 0.778154 0.000000
0.990472 0.775134 0.000000
0.989362 0.772125 0.000000
0.000000 0.514179 0.120657
0.000000 0.514179 0.120657
0.000000 0.514179 0.120657
0.000000 0.514179 0.120657
0.000000 0.511444 0.120829
0.000000 0.510076 0.120900
0.000000 0.508672 0.120821
0.000000 0.507271 0.120673
0.000000 0.511056 0.091877
0.000000 0.517679 0.000000
0.000000 0.527007 0.000000
0.000000 0.556597 0.000000
0.000000 0.603516 0.000000
0.291782 0.653699 0.000000
0.468032 0.701012 0.000000
0.615374 0.740248 0.000000
0.739159 0.769186 0.000000
0.829521 0.787016 0.000000
0.893478 0.797248 0.000000
0.937408 0.802470 0.000000
0.966189 0.806744 0.000000
0.981401 0.808032 0.000000
0.989967 0.807419 0.000000
0.995337 0.806926 0.000000
0.999163 0.806099 0.000000
1.001271 0.805099 0.000000
1.001265 0.803504 0.000000
1.000555 0.801712 0.000000
0.999701 0.799562 0.000000
0.999132 0.798129 0.000000
0.998420 0.796338 0.000000
0.997707 0.794546 0.000000
0.996995 0.792755 0.000000
0.000000 0.514179 0.120657
0.000000 0.514179 0.120657
0.000000 0.514179 0.120657
0.000000 0.514179 0.120657
0.000000 0.514107 0.120662
0.000000 0.512740 0.120751
0.000000 0.511660 0.120818
0.000000 0.510724 0.120867
0.000000 0.513471 0.099146
0.000000 0.520401 0.000000
0.000000 0.526411 0.000000
0.000000 0.553657 0.000000
0.000000 0.597052 0.000000
0.239808 0.646137 0.000000
0.422233 0.692988 0.000000
0.576176 0.735554 0.000000
0.707432 0.768463 0.000000
0.809447 0.789758 0.000000
0.881248 0.802106 0.000000
0.929520 0.808512 0.000000
0.960339 0.812494 0.000000
0.980023 0.815171 0.000000
0.991774 0.816302 0.000000
0.998026 0.815707 0.000000
1.001815 0.815872 0.000000
1.004753 0.815991 0.000000
1.006068 0.815544 0.000000
1.005375 0.813904 0.000000
1.004667 0.812111 0.000000
1.003958 0.810317 0.000000
1.003251 0.808524 0.000000
1.002684 0.807090 0.000000
1.001976 0.805297 0.000000
0.000000 0.514179 0.120657
0.000000 0.514179 0.120657
0.000000 0.514179 0.120657
0.000000 0.514179 0.120657
0.000000 0.514179 0.120657
0.000000 0.514179 0.120657
0.000000 0.514179 0.120657
0.000000 0.513315 0.120713
0.000000 0.514908 0.105604
0.000000 0.520961 0.000000
0.000000 0.527979 0.000000
0.000000 0.551082 0.000000
0.000000 0.590860 0.000000
0.178187 0.638101 0.000000
0.382108 0.685913 0.000000
0.536728 0.728860 0.000000
0.673366 0.765230 0.000000
0.788158 0.790547 0.000000
0.862620 0.804164 0.000000
0.915808 0.812513 0.000000
0.953695 0.817656 0.000000
0.978538 0.821037 0.000000
0.992526 0.822987 0.000000
0.999260 0.822691 0.000000
1.003628 0.822296 0.000000
1.006744 0.822090 0.000000
1.009059 0.821926 0.000000
1.008670 0.821001 0.000000
1.008222 0.820060 0.000000
1.007683 0.818931 0.000000
1.007235 0.817990 0.000000
1.006876 0.817238 0.000000
1.006427 0.816297 0.000000
0.000000 0.514179 0.120657
0.000000 0.514179 0.120657
0.000000 0.514179 0.120657
0.000000 0.514179 0.120657
0.000000 0.514179 0.120657
0.000000 0.514179 0.120657
0.000000 0.514179 0.120657
0.000000 0.514179 0.120657
0.000000 0.515478 0.112620
0.000000 0.521295 0.047059
0.000000 0.528304 0.000000
0.000000 0.545917 0.000000
0.000000 0.583185 0.000000
0.082654 0.628943 0.000000
0.335994 0.676733 0.000000
0.498397 0.721823 0.000000
0.636619 0.759696 0.000000
0.755705 0.787581 0.000000
0.841703 0.804758 0.000000
0.902953 0.815159 0.000000
0.946702 0.821467 0.000000
0.975002 0.825110 0.000000
0.990329 0.827030 0.000000
0.999764 0.827913 0.000000
1.005238 0.827767 0.000000
1.008623 0.827522 0.000000
1.011032 0.827644 0.000000
1.011695 0.827287 0.000000
1.011177 0.826271 0.000000
1.010729 0.825330 0.000000
1.010281 0.824389 0.000000
1.009834 0.823448 0.000000
1.009386 0.822507 0.000000
0.000000 0.514179 0.120657
0.000000 0.514179 0.120657
0.000000 0.514179 0.120657
0.000000 0.514179 0.120657
0.000000 0.514179 0.120657
0.000000 0.514179 0.120657
0.000000 0.514179 0.120657
0.000000 0.514179 0.120657
0.000000 0.514395 0.119358
0.000000 0.519558 0.078717
0.000000 0.526780 0.000000
0.000000 0.538037 0.000000
0.000000 0.574673 0.000000
0.000000 0.619536 0.000000
0.289979 0.666978 0.000000
0.459654 0.712403 0.000000
0.601138 0.751339 0.000000
0.724583 0.782480 0.000000
0.820112 0.803301 0.000000
0.889378 0.816197 0.000000
0.935916 0.823477 0.000000
0.967293 0.828063 0.000000
0.987767 0.830779 0.000000
0.999955 0.832035 0.000000
1.006247 0.832728 0.000000
1.009927 0.831904 0.000000
1.012649 0.831689 0.000000
1.014314 0.831612 0.000000
1.013918 0.830955 0.000000
1.013442 0.830170 0.000000
1.013045 0.829514 0.000000
1.012647 0.828859 0.000000
1.012250 0.828204 0.000000
0.000000 0.514179 0.120657
0.000000 0.514179 0.120657
0.000000 0.514179 0.120657
0.000000 0.514179 0.120657
0.000000 0.514179 0.120657
0.000000 0.514179 0.120657
0.000000 0.514179 0.120657
0.000000 0.514179 0.120657
0.000000 0.514179 0.120657
0.000000 0.518149 0.093704
0.000000 0.524996 0.000000
0.000000 0.532734 0.000000
0.000000 0.564750 0.000000
0.000000 0.607505 0.000000
0.237773 0.654445 0.000000
0.416435 0.701122 0.000000
0.564938 0.742775 0.000000
0.693077 0.776727 0.000000
0.799134 0.801366 0.000000
0.872249 0.815108 0.000000
0.922609 0.823101 0.000000
0.958991 0.828521 0.000000
0.984112 0.832318 0.000000
0.999002 0.834938 0.000000
1.005646 0.835321 0.000000
1.010343 0.835489 0.000000
1.013890 0.835229 0.000000
1.016450 0.835614 0.000000
1.016531 0.835283 0.000000
