transforms/SA02_cool_fpe_r709.cube
#  SA_02_FPE_r709.cube
LUT_3D_SIZE 9
0.000000 0.000000 0.000000
0.042632 0.021445 0.000000
0.479908 0.000000 0.000000
0.611617 0.000000 0.000000
0.624104 0.000000 0.000000
0.624104 0.000000 0.000000
0.624104 0.000000 0.000000
0.624104 0.000000 0.000000
0.624104 0.000000 0.000000
0.005142 0.009882 0.004773
0.008003 0.009544 0.004283
0.288329 0.082838 0.000000
0.595336 0.000000 0.000000
0.649335 0.000000 0.000000
0.647731 0.000000 0.000000
0.644045 0.000000 0.000000
0.640421 0.000000 0.000000
0.637159 0.000000 0.000000
0.000000 0.248425 0.100314
0.000000 0.170007 0.065400
0.172630 0.188946 0.000000
0.597353 0.229169 0.000000
0.750871 0.208990 0.000000
0.764325 0.198291 0.000000
0.754381 0.175633 0.000000
0.745634 0.154402 0.000000
0.737648 0.133376 0.000000
0.000000 0.445929 0.127666
0.000000 0.389241 0.132384
0.000000 0.353809 0.000000
0.527273 0.467611 0.000000
0.832247 0.487029 0.000000
0.878922 0.475370 0.000000
0.873187 0.448122 0.000000
0.862606 0.419907 0.000000
0.851891 0.394420 0.000000
0.000000 0.500161 0.119705
0.000000 0.482774 0.121140
0.000000 0.471999 0.000000
0.368288 0.603694 0.000000
0.842553 0.695859 0.000000
0.950057 0.700329 0.000000
0.957824 0.684930 0.000000
0.950107 0.662385 0.000000
0.942727 0.641054 0.000000
0.000000 0.514179 0.120657
0.000000 0.508349 0.120787
0.000000 0.508553 0.077079
0.082663 0.610078 0.000000
0.772423 0.769130 0.000000
0.967498 0.794615 0.000000
0.995250 0.793853 0.000000
0.993599 0.783589 0.000000
0.989362 0.772125 0.000000
0.000000 0.514179 0.120657
0.000000 0.514179 0.120657
0.000000 0.515478 0.112620
0.000000 0.583185 0.000000
0.636619 0.759696 0.000000
0.946702 0.821467 0.000000
1.005238 0.827767 0.000000
1.011177 0.826271 0.000000
1.009386 0.822507 0.000000
0.000000 0.514179 0.120657
0.000000 0.514179 0.120657
0.000000 0.514179 0.120657
0.000000 0.546386 0.000000
0.484895 0.720789 0.000000
0.894998 0.819872 0.000000
1.003006 0.838396 0.000000
1.019642 0.840128 0.000000
1.018627 0.838559 0.000000
0.000000 0.514179 0.120657
0.000000 0.514179 0.120657
0.000000 0.514179 0.120657
0.000000 0.529064 0.000000
0.304606 0.671401 0.000000
0.813552 0.804477 0.000000
0.986056 0.834459 0.000000
1.015268 0.839261 0.000000
1.019642 0.840128 0.000000
0.007562 0.003421 0.064975
0.034789 0.018681 0.043424
0.471359 0.000000 0.036691
0.639667 0.000000 0.000000
0.661157 0.000000 0.115249
0.662597 0.000000 0.132833
0.662817 0.000000 0.135423
0.662706 0.000000 0.134131
0.662376 0.000000 0.130214
0.004096 0.006882 0.006160
0.004575 0.005419 0.004426
0.231523 0.069306 0.000000
0.559090 0.000000 0.000000
0.629553 0.000000 0.000000
0.632730 0.000000 0.000000
0.627366 0.000000 0.000000
0.624104 0.000000 0.000000
0.624104 0.000000 0.000000
0.000000 0.203628 0.081711
0.000000 0.135994 0.055490
0.119625 0.141149 0.034371
0.503895 0.182234 0.000000
0.707332 0.147974 0.000000
0.734267 0.126434 0.000000
0.726783 0.100486 0.000000
0.718596 0.065633 0.000000
0.710942 0.000000 0.000000
0.000000 0.417567 0.129520
0.000000 0.347386 0.132512
0.000000 0.284213 0.000000
0.405685 0.378966 0.000000
0.766101 0.401356 0.000000
0.841998 0.392280 0.000000
0.841769 0.370382 0.000000
0.829508 0.341320 0.000000
0.818636 0.315989 0.000000
0.000000 0.493308 0.118530
0.000000 0.465449 0.124643
0.000000 0.443388 0.090071
0.227176 0.525508 0.000000
0.760702 0.633549 0.000000
0.918566 0.638418 0.000000
0.936834 0.626145 0.000000
0.927240 0.597083 0.000000
0.918020 0.571332 0.000000
0.000000 0.511877 0.120806
0.000000 0.503071 0.120232
0.000000 0.496786 0.108767
0.000000 0.554366 0.000000
0.657342 0.725388 0.000000
0.934102 0.766671 0.000000
0.981285 0.765411 0.000000
0.982394 0.753425 0.000000
0.976810 0.738004 0.000000
0.000000 0.514179 0.120657
0.000000 0.514179 0.120657
0.000000 0.511444 0.120829
0.000000 0.544850 0.000000
0.501871 0.716748 0.000000
0.899972 0.806463 0.000000
0.994222 0.817901 0.000000
1.006697 0.816861 0.000000
1.004384 0.811393 0.000000
0.000000 0.514179 0.120657
0.000000 0.514179 0.120657
0.000000 0.514179 0.120657
0.000000 0.530197 0.000000
0.333390 0.678918 0.000000
0.828997 0.807260 0.000000
0.988509 0.833357 0.000000
1.014571 0.835680 0.000000
1.015976 0.834366 0.000000
0.000000 0.514179 0.120657
0.000000 0.514179 0.120657
0.000000 0.514179 0.120657
0.000000 0.523150 0.000000
0.000000 0.628092 0.000000
0.716431 0.782241 0.000000
0.960309 0.829963 0.000000
1.011197 0.838479 0.000000
1.019642 0.840128 0.000000
0.150492 0.000000 0.458550
0.164431 0.000000 0.459737
0.503915 0.000000 0.546592
0.687573 0.000000 0.579725
0.706540 0.000000 0.611049
0.706899 0.000000 0.614294
0.706899 0.000000 0.614294
0.706745 0.000000 0.612904
0.706591 0.000000 0.611513
0.000000 0.000000 0.392778
0.030354 0.000000 0.341079
0.236354 0.000000 0.365479
0.588446 0.000000 0.373555
0.673692 0.000000 0.365236
0.679822 0.000000 0.350782
0.678468 0.000000 0.335387
0.677110 0.000000 0.319207
0.675876 0.000000 0.304467
0.000000 0.301942 0.437198
0.000000 0.184194 0.282295
0.059987 0.140011 0.217375
0.493775 0.173865 0.193477
0.727454 0.107699 0.160847
0.758373 0.060809 0.141568
0.750760 0.000000 0.118231
0.740621 0.000000 0.089907
0.732167 0.000000 0.058572
0.000000 0.529710 0.437314
0.000000 0.398974 0.284734
0.000000 0.305035 0.167296
0.373344 0.357115 0.026459
0.764988 0.374408 0.000000
0.848709 0.356380 0.000000
0.849747 0.337122 0.000000
0.834729 0.309081 0.000000
0.821255 0.284469 0.000000
0.000000 0.575791 0.360748
0.000000 0.500955 0.232745
0.000000 0.452961 0.162844
0.149636 0.497869 0.000000
0.727560 0.603911 0.000000
0.912821 0.605802 0.000000
0.931623 0.587422 0.000000
0.919961 0.557229 0.000000
0.906267 0.527096 0.000000
0.000000 0.569430 0.296628
0.000000 0.522243 0.183959
0.000000 0.500581 0.146411
0.000000 0.529282 0.000000
0.585280 0.693443 0.000000
0.911110 0.745791 0.000000
0.971258 0.744723 0.000000
0.973568 0.729092 0.000000
0.967933 0.713691 0.000000
0.000000 0.548386 0.228028
0.000000 0.525343 0.158871
0.000000 0.512766 0.131490
0.000000 0.525708 0.000000
0.412325 0.686646 0.000000
0.864072 0.794523 0.000000
0.986352 0.811015 0.000000
1.002557 0.807691 0.000000
0.999986 0.800279 0.000000
0.000000 0.531418 0.176991
0.000000 0.517729 0.132325
0.000000 0.514179 0.120657
0.000000 0.526399 0.000000
0.232631 0.653012 0.000000
0.778440 0.794899 0.000000
0.976628 0.829509 0.000000
1.010580 0.831942 0.000000
1.013520 0.830300 0.000000
0.000000 0.522201 0.146607
0.000000 0.514179 0.120657
0.000000 0.514179 0.120657
0.000000 0.519775 0.075666
0.000000 0.603699 0.000000
0.648362 0.765514 0.000000
0.941264 0.827001 0.000000
1.008266 0.838185 0.000000
1.019642 0.840128 0.000000
0.177861 0.000000 0.492668
0.202671 0.000000 0.513052
0.515512 0.000000 0.635929
0.710896 0.000000 0.675313
0.722965 0.000000 0.679301
0.722965 0.000000 0.679301
0.722965 0.000000 0.679301
0.722965 0.000000 0.679301
0.722965 0.000000 0.679301
0.114303 0.000000 0.518352
0.154422 0.000000 0.488752
0.278800 0.000000 0.553167
0.606237 0.000000 0.612282
0.697106 0.000000 0.618810
0.707002 0.000000 0.615222
0.706376 0.000000 0.609658
0.705759 0.000000 0.604095
0.705246 0.000000 0.599461
0.000000 0.315478 0.636409
0.000000 0.207208 0.554852
0.000000 0.148147 0.547718
0.483219 0.166487 0.599983
0.744931 0.000000 0.601755
0.782030 0.000000 0.589011
0.775916 0.000000 0.561141
0.767246 0.000000 0.534859
0.759071 0.000000 0.510047
0.000000 0.574833 0.721121
0.000000 0.467933 0.626168
0.000000 0.398201 0.559539
0.292095 0.405510 0.538535
0.761152 0.417804 0.522789
0.863891 0.393590 0.496720
0.868450 0.372255 0.467144
0.855956 0.336754 0.428726
0.844213 0.305129 0.392011
0.000000 0.675521 0.731995
0.000000 0.626931 0.636186
0.000000 0.581769 0.554425
0.000000 0.551198 0.417073
0.694875 0.652834 0.371585
0.925735 0.645581 0.317129
0.954169 0.623710 0.279352
0.945232 0.587607 0.240497
0.934459 0.550509 0.195008
0.000000 0.692226 0.701254
0.000000 0.654607 0.576565
0.000000 0.613280 0.473157
0.000000 0.605291 0.339253
0.540177 0.726496 0.168770
0.928010 0.779085 0.000000
1.000647 0.769420 0.000000
1.003410 0.749364 0.000000
0.997094 0.728302 0.000000
0.000000 0.681756 0.642925
0.000000 0.643141 0.507817
0.000000 0.603216 0.397435
0.000000 0.594731 0.275204
0.353128 0.706793 0.000000
0.862566 0.808483 0.000000
1.008094 0.821271 0.000000
1.025678 0.816204 0.000000
1.021634 0.807906 0.000000
0.000000 0.660303 0.563031
0.000000 0.612724 0.414717
0.000000 0.580732 0.322235
0.000000 0.573179 0.232079
0.105198 0.659497 0.000000
0.754063 0.794334 0.000000
0.986952 0.833384 0.000000
1.025278 0.836363 0.000000
1.025969 0.832965 0.000000
0.000000 0.633363 0.476099
0.000000 0.582303 0.326843
0.000000 0.553868 0.244330
0.000000 0.544602 0.188055
0.000000 0.604902 0.000000
0.615004 0.759491 0.000000
0.935606 0.827812 0.000000
1.013415 0.840301 0.000000
1.023108 0.840936 0.000000
0.177861 0.000000 0.492668
0.202134 0.000000 0.513395
0.521526 0.000000 0.641049
0.712249 0.000000 0.675738
0.722965 0.000000 0.679301
0.722965 0.000000 0.679301
0.722965 0.000000 0.679301
0.722965 0.000000 0.679301
0.722965 0.000000 0.679301
0.081021 0.000000 0.536312
0.164516 0.000000 0.511937
0.282237 0.000000 0.584167
0.608611 0.000000 0.658207
0.708983 0.000000 0.673359
0.721804 0.000000 0.676203
0.721334 0.000000 0.674946
0.720936 0.000000 0.673883
0.720413 0.000000 0.672247
0.000000 0.326048 0.675781
0.000000 0.217828 0.623010
0.000000 0.151191 0.636631
0.471837 0.159884 0.728914
0.750646 0.000000 0.750480
0.794153 0.000000 0.745969
0.790606 0.000000 0.731016
0.782271 0.000000 0.715765
0.773675 0.000000 0.700546
0.000000 0.572471 0.774250
0.000000 0.470715 0.720122
0.000000 0.405959 0.690806
0.197350 0.426970 0.758880
0.748726 0.446788 0.799763
0.870767 0.424003 0.797973
0.880041 0.403293 0.780720
0.869833 0.368217 0.758160
0.859278 0.332984 0.736541
0.000000 0.675053 0.809694
0.000000 0.633957 0.773875
0.000000 0.599121 0.743196
0.000000 0.619947 0.748374
0.637472 0.706827 0.780369
0.910556 0.705380 0.772526
0.949460 0.687489 0.753973
0.943602 0.647032 0.726525
0.935278 0.608886 0.692844
0.000000 0.697878 0.810105
0.000000 0.689030 0.776993
0.000000 0.675109 0.744282
0.000000 0.709215 0.732679
0.404480 0.800855 0.697874
0.889735 0.853934 0.681476
0.983506 0.847601 0.657185
0.993105 0.826404 0.618261
0.988975 0.798314 0.575065
0.000000 0.702210 0.798328
0.000000 0.700371 0.762757
0.000000 0.694515 0.719732
0.000000 0.713492 0.685950
0.000000 0.780379 0.595138
0.811274 0.884895 0.559549
0.989775 0.897269 0.516305
1.016134 0.889134 0.473990
1.017480 0.873301 0.419931
0.000000 0.701489 0.779841
0.000000 0.699354 0.728512
0.000000 0.688705 0.671420
0.000000 0.692474 0.623820
0.000000 0.727678 0.501403
0.689822 0.859606 0.445005
0.970293 0.895226 0.370328
1.021057 0.893132 0.307915
1.022683 0.883971 0.243584
0.000000 0.701298 0.753109
0.000000 0.689572 0.674982
0.000000 0.670718 0.599472
0.000000 0.658071 0.537680
0.000000 0.675617 0.407966
0.542912 0.807376 0.314169
0.923274 0.871552 0.192541
1.022045 0.880175 0.000000
1.023790 0.877641 0.000000
0.177861 0.000000 0.492668
0.202410 0.000000 0.513621
0.534854 0.000000 0.643442
0.712982 0.000000 0.675921
0.722965 0.000000 0.679301
0.722965 0.000000 0.679301
0.722965 0.000000 0.679301
0.722965 0.000000 0.679301
0.722965 0.000000 0.679301
0.078198 0.000000 0.537147
0.164947 0.000000 0.511313
0.278138 0.000000 0.580604
0.603029 0.000000 0.655669
0.708394 0.000000 0.674791
0.722965 0.000000 0.679301
0.722965 0.000000 0.679301
0.722965 0.000000 0.679301
0.722965 0.000000 0.679301
0.000000 0.319720 0.673325
0.000000 0.216462 0.629498
0.000000 0.161683 0.648438
0.463496 0.171721 0.752356
0.750604 0.014055 0.782915
0.800733 0.000000 0.783949
0.799929 0.000000 0.775522
0.791679 0.000000 0.763702
0.783639 0.000000 0.752487
0.000000 0.568109 0.777855
0.000000 0.470174 0.736914
0.000000 0.410862 0.720626
0.112138 0.434152 0.811182
0.734661 0.459137 0.871127
0.871509 0.436053 0.876805
0.884376 0.418223 0.869468
0.874657 0.380681 0.855023
0.865816 0.346585 0.841284
0.000000 0.673695 0.823328
0.000000 0.630620 0.802288
0.000000 0.594195 0.784790
0.000000 0.624839 0.824982
0.598833 0.715409 0.900354
0.900858 0.720631 0.918520
0.945756 0.703701 0.912207
0.941970 0.665820 0.897494
0.934384 0.630894 0.883245
0.000000 0.697072 0.831525
0.000000 0.687899 0.820585
0.000000 0.674008 0.808567
0.000000 0.711590 0.829738
0.288923 0.819245 0.876791
0.862446 0.880325 0.904345
0.970968 0.878657 0.900519
0.982149 0.863629 0.889697
0.978818 0.838974 0.870111
0.000000 0.701361 0.831058
0.000000 0.700323 0.821691
0.000000 0.696560 0.808189
0.000000 0.725665 0.815796
0.000000 0.812695 0.828677
0.764816 0.926859 0.861390
0.967699 0.947318 0.857937
0.999131 0.944212 0.844122
1.001255 0.930300 0.818832
0.000000 0.702031 0.826104
0.000000 0.702119 0.812694
0.000000 0.702218 0.797280
0.000000 0.721115 0.795338
0.000000 0.785565 0.792032
0.611193 0.912689 0.803511
0.939445 0.957421 0.795074
1.003169 0.960262 0.773696
1.009742 0.953027 0.743658
0.000000 0.702075 0.819585
0.000000 0.702213 0.797804
0.000000 0.701423 0.778558
0.000000 0.707309 0.762477
0.000000 0.763462 0.756619
0.418711 0.871307 0.726277
0.882653 0.941870 0.714317
1.000271 0.953897 0.686837
1.010304 0.950194 0.656493
0.177861 0.000000 0.492668
0.203793 0.000000 0.514748
0.577197 0.000000 0.650998
0.713575 0.000000 0.676068
0.722965 0.000000 0.679301
0.722965 0.000000 0.679301
0.722965 0.000000 0.679301
0.722965 0.000000 0.679301
0.722965 0.000000 0.679301
0.074428 0.000000 0.538078
0.164878 0.000000 0.511257
0.276630 0.000000 0.578896
0.600661 0.000000 0.655237
0.707801 0.000000 0.674644
0.722965 0.000000 0.679301
0.722965 0.000000 0.679301
0.722965 0.000000 0.679301
0.722965 0.000000 0.679301
0.000000 0.314388 0.671055
0.000000 0.210459 0.627000
0.000000 0.152958 0.643394
0.449440 0.159332 0.746219
0.743898 0.000000 0.778292
0.797419 0.000000 0.779950
0.796925 0.000000 0.772413
0.789090 0.000000 0.762613
0.781473 0.000000 0.753356
0.000000 0.562655 0.775606
0.000000 0.460876 0.733003
0.000000 0.401994 0.717281
0.000000 0.424688 0.810378
0.720122 0.453684 0.876428
0.870369 0.438231 0.887416
0.885932 0.422119 0.885383
0.876891 0.385903 0.875072
0.868916 0.354142 0.865321
0.000000 0.670852 0.822077
0.000000 0.627238 0.802772
0.000000 0.588813 0.788051
0.000000 0.620691 0.833945
0.571513 0.709781 0.921629
0.889178 0.718842 0.949544
0.943205 0.703057 0.950163
0.942750 0.672104 0.942943
0.935433 0.637811 0.934311
0.000000 0.696473 0.832776
0.000000 0.686074 0.828271
0.000000 0.672471 0.822792
0.000000 0.706072 0.848566
0.176612 0.815302 0.919475
0.843952 0.882085 0.964183
0.966270 0.885519 0.969735
0.979417 0.868602 0.965682
0.975706 0.846612 0.958267
0.000000 0.700808 0.834695
0.000000 0.699779 0.833615
0.000000 0.695754 0.829587
0.000000 0.721522 0.845147
0.000000 0.815387 0.893210
0.734881 0.933957 0.950900
0.959008 0.959254 0.964025
0.992817 0.957054 0.961383
0.994270 0.944834 0.951865
0.000000 0.700808 0.834695
0.000000 0.700816 0.833596
0.000000 0.701789 0.829191
0.000000 0.717892 0.835702
0.000000 0.794771 0.873762
0.560175 0.924870 0.923705
0.922823 0.975421 0.942696
0.993436 0.982750 0.940456
1.001501 0.978807 0.929510
0.000000 0.700810 0.834372
0.000000 0.701752 0.829354
0.000000 0.702043 0.824320
0.000000 0.706546 0.820874
0.000000 0.774377 0.852612
0.317349 0.891366 0.886838
0.855587 0.969080 0.912233
0.986304 0.985678 0.911158
1.003165 0.985150 0.898780
0.177861 0.000000 0.492668
0.206287 0.000000 0.516777
0.591197 0.000000 0.653505
0.714169 0.000000 0.676213
0.722965 0.000000 0.679301
0.722965 0.000000 0.679301
0.722965 0.000000 0.679301
0.722965 0.000000 0.679301
0.722965 0.000000 0.679301
0.069263 0.000000 0.539142
0.165127 0.000000 0.510973
0.275681 0.000000 0.577262
0.598294 0.000000 0.654804
0.707310 0.000000 0.674526
0.722965 0.000000 0.679301
0.722965 0.000000 0.679301
0.722965 0.000000 0.679301
0.722965 0.000000 0.679301
0.000000 0.310393 0.669352
0.000000 0.206864 0.625501
0.000000 0.144145 0.639722
0.437897 0.148668 0.741119
0.738294 0.000000 0.774431
0.794048 0.000000 0.775933
0.794032 0.000000 0.768738
0.786066 0.000000 0.758918
0.778383 0.000000 0.749640
0.000000 0.558111 0.773731
0.000000 0.454244 0.730206
0.000000 0.393033 0.713051
0.000000 0.412311 0.804065
0.709265 0.442092 0.871918
0.865405 0.426267 0.883572
0.882445 0.408681 0.881518
0.873951 0.374166 0.871563
0.865355 0.340001 0.860940
0.000000 0.668424 0.821005
0.000000 0.623614 0.801159
0.000000 0.582588 0.785245
0.000000 0.609435 0.828495
0.556514 0.697212 0.917756
0.882505 0.706932 0.946761
0.939796 0.691090 0.948999
0.941052 0.663052 0.944429
0.934405 0.630109 0.937536
0.000000 0.695956 0.832665
0.000000 0.684525 0.827653
0.000000 0.669638 0.821541
0.000000 0.700305 0.846578
0.000000 0.804428 0.919670
0.831242 0.875411 0.969943
0.963328 0.880106 0.981076
0.978916 0.866336 0.980635
0.975583 0.845284 0.977474
0.000000 0.700808 0.834695
0.000000 0.699651 0.833481
0.000000 0.695217 0.832506
0.000000 0.718040 0.848254
0.000000 0.809457 0.902344
0.711709 0.931657 0.970518
0.952521 0.959665 0.989699
0.990490 0.956867 0.992202
0.991958 0.947694 0.989151
0.000000 0.700808 0.834695
0.000000 0.700808 0.834695
0.000000 0.700808 0.834695
0.000000 0.716013 0.844889
0.000000 0.791134 0.890120
0.519850 0.921890 0.954756
0.910350 0.979240 0.984813
0.988603 0.986818 0.988008
0.998743 0.984621 0.985220
0.000000 0.700808 0.834695
0.000000 0.700808 0.834695
0.000000 0.700808 0.834695
0.000000 0.703912 0.835878
0.000000 0.770794 0.875670
0.216042 0.890645 0.931234
0.837167 0.975535 0.972463
0.978484 0.993098 0.979464
0.999430 0.994522 0.977253
0.177861 0.000000 0.492668
0.210971 0.000000 0.520609
0.597505 0.000000 0.654659
0.714614 0.000000 0.676323
0.722965 0.000000 0.679301
0.722965 0.000000 0.679301
0.722965 0.000000 0.679301
0.722965 0.000000 0.679301
0.722965 0.000000 0.679301
0.064128 0.000000 0.540207
0.164878 0.000000 0.511257
0.275206 0.000000 0.576446
0.596716 0.000000 0.654516
0.706809 0.000000 0.674417
0.722965 0.000000 0.679301
0.722965 0.000000 0.679301
0.722965 0.000000 0.679301
0.722965 0.000000 0.679301
0.000000 0.307732 0.668217
0.000000 0.203273 0.624001
0.000000 0.136733 0.636562
0.428916 0.139642 0.737080
0.733223 0.000000 0.771232
0.791768 0.000000 0.773244
0.792070 0.000000 0.766293
0.783522 0.000000 0.755830
0.776159 0.000000 0.746739
0.000000 0.554480 0.772230
0.000000 0.448943 0.727967
0.000000 0.387069 0.710228
0.000000 0.401993 0.798792
0.700464 0.432685 0.868127
0.860439 0.414272 0.879704
0.879525 0.398724 0.878585
0.870937 0.362175 0.867820
0.862280 0.327782 0.857180
0.000000 0.666402 0.820112
0.000000 0.620594 0.799815
0.000000 0.576361 0.782378
0.000000 0.599991 0.823977
0.541116 0.685832 0.914135
0.876644 0.695997 0.944170
0.937152 0.680155 0.946641
0.938625 0.650915 0.941898
0.932265 0.619706 0.935345
0.000000 0.695587 0.832586
0.000000 0.683199 0.827123
0.000000 0.667210 0.820470
0.000000 0.695435 0.844069
0.000000 0.795697 0.916257
0.822877 0.868931 0.968394
0.961234 0.873265 0.979943
0.977768 0.858973 0.979529
0.974403 0.837926 0.976361
0.000000 0.700808 0.834695
0.000000 0.699207 0.833375
0.000000 0.694590 0.832280
0.000000 0.714872 0.846530
0.000000 0.803405 0.899664
0.692287 0.926801 0.968404
0.948517 0.957202 0.989091
0.989140 0.953182 0.992883
0.991686 0.945400 0.991682
0.000000 0.700808 0.834695
0.000000 0.700808 0.834695
0.000000 0.700808 0.834695
0.000000 0.713864 0.843450
0.000000 0.787232 0.888572
0.489772 0.916591 0.954619
0.896028 0.976371 0.987927
0.986081 0.985844 0.995901
0.997397 0.985600 0.997440
0.000000 0.700808 0.834695
0.000000 0.700808 0.834695
0.000000 0.700808 0.834695
0.000000 0.702135 0.835587
0.000000 0.767979 0.877190
0.000000 0.884414 0.938281
0.824009 0.974685 0.984528
0.973889 0.995146 0.996906
0.997634 0.997611 0.998962
