transforms/SA02_cool_fpe_r709.cube
#  SA_02_FPE_r709.cube
LUT_3D_SIZE 5
0.000000 0.000000 0.000000
0.479908 0.000000 0.000000
0.624104 0.000000 0.000000
0.624104 0.000000 0.000000
0.624104 0.000000 0.000000
0.000000 0.248425 0.100314
0.172630 0.188946 0.000000
0.750871 0.208990 0.000000
0.754381 0.175633 0.000000
0.737648 0.133376 0.000000
0.000000 0.500161 0.119705
0.000000 0.471999 0.000000
0.842553 0.695859 0.000000
0.957824 0.684930 0.000000
0.942727 0.641054 0.000000
0.000000 0.514179 0.120657
0.000000 0.515478 0.112620
0.636619 0.759696 0.000000
1.005238 0.827767 0.000000
1.009386 0.822507 0.000000
0.000000 0.514179 0.120657
0.000000 0.514179 0.120657
0.304606 0.671401 0.000000
0.986056 0.834459 0.000000
1.019642 0.840128 0.000000
0.150492 0.000000 0.458550
0.503915 0.000000 0.546592
0.706540 0.000000 0.611049
0.706899 0.000000 0.614294
0.706591 0.000000 0.611513
0.000000 0.301942 0.437198
0.059987 0.140011 0.217375
0.727454 0.107699 0.160847
0.750760 0.000000 0.118231
0.732167 0.000000 0.058572
0.000000 0.575791 0.360748
0.000000 0.452961 0.162844
0.727560 0.603911 0.000000
0.931623 0.587422 0.000000
0.906267 0.527096 0.000000
0.000000 0.548386 0.228028
0.000000 0.512766 0.131490
0.412325 0.686646 0.000000
0.986352 0.811015 0.000000
0.999986 0.800279 0.000000
0.000000 0.522201 0.146607
0.000000 0.514179 0.120657
0.000000 0.603699 0.000000
0.941264 0.827001 0.000000
1.019642 0.840128 0.000000
0.177861 0.000000 0.492668
0.521526 0.000000 0.641049
0.722965 0.000000 0.679301
0.722965 0.000000 0.679301
0.722965 0.000000 0.679301
0.000000 0.326048 0.675781
0.000000 0.151191 0.636631
0.750646 0.000000 0.750480
0.790606 0.000000 0.731016
0.773675 0.000000 0.700546
0.000000 0.675053 0.809694
0.000000 0.599121 0.743196
0.637472 0.706827 0.780369
0.949460 0.687489 0.753973
0.935278 0.608886 0.692844
0.000000 0.702210 0.798328
0.000000 0.694515 0.719732
0.000000 0.780379 0.595138
0.989775 0.897269 0.516305
1.017480 0.873301 0.419931
0.000000 0.701298 0.753109
0.000000 0.670718 0.599472
0.000000 0.675617 0.407966
0.923274 0.871552 0.192541
1.023790 0.877641 0.000000
0.177861 0.000000 0.492668
0.577197 0.000000 0.650998
0.722965 0.000000 0.679301
0.722965 0.000000 0.679301
0.722965 0.000000 0.679301
0.000000 0.314388 0.671055
0.000000 0.152958 0.643394
0.743898 0.000000 0.778292
0.796925 0.000000 0.772413
0.781473 0.000000 0.753356
0.000000 0.670852 0.822077
0.000000 0.588813 0.788051
0.571513 0.709781 0.921629
0.943205 0.703057 0.950163
0.935433 0.637811 0.934311
0.000000 0.700808 0.834695
0.000000 0.695754 0.829587
0.000000 0.815387 0.893210
0.959008 0.959254 0.964025
0.994270 0.944834 0.951865
0.000000 0.700810 0.834372
0.000000 0.702043 0.824320
0.000000 0.774377 0.852612
0.855587 0.969080 0.912233
1.003165 0.985150 0.898780
0.177861 0.000000 0.492668
0.597505 0.000000 0.654659
0.722965 0.000000 0.679301
0.722965 0.000000 0.679301
0.722965 0.000000 0.679301
0.000000 0.307732 0.668217
0.000000 0.136733 0.636562
0.733223 0.000000 0.771232
0.792070 0.000000 0.766293
0.776159 0.000000 0.746739
0.000000 0.666402 0.820112
0.000000 0.576361 0.782378
0.541116 0.685832 0.914135
0.937152 0.680155 0.946641
0.932265 0.619706 0.935345
0.000000 0.700808 0.834695
0.000000 0.694590 0.832280
0.000000 0.803405 0.899664
0.948517 0.957202 0.989091
0.991686 0.945400 0.991682
0.000000 0.700808 0.834695
0.000000 0.700808 0.834695
0.000000 0.767979 0.877190
0.824009 0.974685 0.984528
0.997634 0.997611 0.998962
