transforms/SA03_golden_fpe_r709.cube
#  SA_03_FPE_r709.cube
LUT_3D_SIZE 5
0.000000 0.000000 0.000000
0.449250 0.000000 0.000000
0.624104 0.000000 0.000000
0.624104 0.000000 0.000000
0.624104 0.000000 0.000000
0.000000 0.173576 0.066755
0.128025 0.127937 0.029371
0.708133 0.121215 0.000000
0.727327 0.102363 0.000000
0.721881 0.081563 0.000000
0.000000 0.498292 0.119350
0.000000 0.434886 0.063386
0.807810 0.614690 0.000000
0.928610 0.605736 0.000000
0.918020 0.571332 0.000000
0.000000 0.514179 0.120657
0.000000 0.508860 0.107657
0.670779 0.751405 0.000000
0.987711 0.801685 0.000000
0.997565 0.794189 0.000000
0.000000 0.514179 0.120657
0.000000 0.514179 0.120657
0.462419 0.714241 0.000000
0.981177 0.832460 0.000000
1.017285 0.836462 0.000000
0.129834 0.000000 0.437256
0.439448 0.000000 0.420306
0.686191 0.000000 0.419175
0.700479 0.000000 0.566947
0.705605 0.000000 0.602705
0.000000 0.212871 0.264669
0.071704 0.080971 0.079582
0.678013 0.000000 0.000000
0.715573 0.000000 0.000000
0.708071 0.000000 0.000000
0.000000 0.540142 0.265953
0.000000 0.383790 0.128502
0.660494 0.489036 0.000000
0.878455 0.481041 0.000000
0.873187 0.448122 0.000000
0.000000 0.539184 0.201045
0.000000 0.496571 0.119027
0.462083 0.672294 0.000000
0.955110 0.758648 0.000000
0.980042 0.746920 0.000000
0.000000 0.522525 0.147739
0.000000 0.514179 0.120657
0.196355 0.643259 0.000000
0.927289 0.817056 0.000000
1.008240 0.825771 0.000000
0.177861 0.000000 0.492668
0.458620 0.000000 0.628129
0.722965 0.000000 0.679301
0.722965 0.000000 0.679301
0.722965 0.000000 0.679301
0.000000 0.284625 0.646622
0.000000 0.036434 0.550942
0.714663 0.000000 0.638572
0.761656 0.000000 0.629806
0.753495 0.000000 0.612309
0.000000 0.673467 0.788778
0.000000 0.530506 0.621294
0.628959 0.551884 0.521344
0.908830 0.522632 0.473461
0.905167 0.479856 0.421326
0.000000 0.701340 0.776952
0.000000 0.644603 0.554831
0.330258 0.707479 0.292619
0.972159 0.788540 0.000000
1.005835 0.765135 0.000000
0.000000 0.699783 0.731081
0.000000 0.627386 0.458367
0.000000 0.653755 0.120346
0.919448 0.826086 0.000000
1.028364 0.832758 0.000000
0.177861 0.000000 0.492668
0.459983 0.000000 0.628415
0.722965 0.000000 0.679301
0.722965 0.000000 0.679301
0.722965 0.000000 0.679301
0.000000 0.302610 0.666046
0.000000 0.042306 0.615377
0.723921 0.000000 0.749065
0.779579 0.000000 0.748837
0.771476 0.000000 0.737541
0.000000 0.670447 0.821899
0.000000 0.530238 0.754942
0.577053 0.594516 0.861544
0.910638 0.573447 0.874102
0.912060 0.531621 0.852558
0.000000 0.700741 0.833863
0.000000 0.682510 0.800263
0.000000 0.782304 0.813996
0.934395 0.881356 0.836435
0.988299 0.863545 0.812515
0.000000 0.701884 0.828782
0.000000 0.701780 0.788504
0.000000 0.769415 0.751576
0.859069 0.930675 0.729262
1.006444 0.939107 0.690085
0.177861 0.000000 0.492668
0.476255 0.000000 0.631808
0.722965 0.000000 0.679301
0.722965 0.000000 0.679301
0.722965 0.000000 0.679301
0.000000 0.310393 0.669352
0.000000 0.042306 0.615377
0.720605 0.000000 0.746834
0.777488 0.000000 0.748483
0.769961 0.000000 0.738609
0.000000 0.668019 0.820826
0.000000 0.525525 0.761391
0.552593 0.591653 0.893688
0.909218 0.580991 0.925043
0.915622 0.545607 0.918336
0.000000 0.700551 0.834428
0.000000 0.680325 0.825976
0.000000 0.782072 0.898205
0.917766 0.892371 0.968710
0.980918 0.880173 0.966649
0.000000 0.700808 0.834695
0.000000 0.700470 0.832771
0.000000 0.783440 0.874215
0.815629 0.956984 0.949111
0.992078 0.974558 0.951385
