transforms/SA03_golden_fpe_r709.cube
#  SA_03_FPE_r709.cube
LUT_3D_SIZE 33
0.000000 0.000000 0.000000
0.000000 0.000000 0.000000
0.000000 0.000000 0.000000
0.000000 0.000000 0.000000
0.000000 0.000000 0.000000
0.004798 0.003511 0.002580
0.118672 0.042716 0.000000
0.279696 0.047004 0.000000
0.449250 0.000000 0.000000
0.526223 0.000000 0.000000
0.572091 0.000000 0.000000
0.594985 0.000000 0.000000
0.608395 0.000000 0.000000
0.617428 0.000000 0.000000
0.624104 0.000000 0.000000
0.624104 0.000000 0.000000
0.624104 0.000000 0.000000
0.624104 0.000000 0.000000
0.624104 0.000000 0.000000
0.624104 0.000000 0.000000
0.624104 0.000000 0.000000
0.624104 0.000000 0.000000
0.624104 0.000000 0.000000
0.624104 0.000000 0.000000
0.624104 0.000000 0.000000
0.624104 0.000000 0.000000
0.624104 0.000000 0.000000
0.624104 0.000000 0.000000
0.624104 0.000000 0.000000
0.624104 0.000000 0.000000
0.624104 0.000000 0.000000
0.624104 0.000000 0.000000
0.624104 0.000000 0.000000
0.000000 0.000000 0.000000
0.000000 0.000000 0.000000
0.000000 0.000000 0.000000
0.000000 0.000000 0.000000
0.000000 0.000000 0.000000
0.002901 0.002254 0.001691
0.106452 0.041262 0.000000
0.254575 0.049976 0.000000
0.427432 0.000000 0.000000
0.509939 0.000000 0.000000
0.561936 0.000000 0.000000
0.590136 0.000000 0.000000
0.605760 0.000000 0.000000
0.615430 0.000000 0.000000
0.623333 0.000000 0.000000
0.624104 0.000000 0.000000
0.624104 0.000000 0.000000
0.624104 0.000000 0.000000
0.624104 0.000000 0.000000
0.624104 0.000000 0.000000
0.624104 0.000000 0.000000
0.624104 0.000000 0.000000
0.624104 0.000000 0.000000
0.624104 0.000000 0.000000
0.624104 0.000000 0.000000
0.624104 0.000000 0.000000
0.624104 0.000000 0.000000
0.624104 0.000000 0.000000
0.624104 0.000000 0.000000
0.624104 0.000000 0.000000
0.624104 0.000000 0.000000
0.624104 0.000000 0.000000
0.624104 0.000000 0.000000
0.000000 0.000000 0.000000
0.000000 0.000000 0.000000
0.000000 0.000000 0.000000
0.000000 0.000000 0.000000
0.000000 0.000000 0.000000
0.001157 0.000933 0.000710
0.093263 0.039629 0.000000
0.227374 0.052090 0.000000
0.400469 0.000000 0.000000
0.492879 0.000000 0.000000
0.549919 0.000000 0.000000
0.583885 0.000000 0.000000
0.602240 0.000000 0.000000
0.613376 0.000000 0.000000
0.621920 0.000000 0.000000
0.624104 0.000000 0.000000
0.624104 0.000000 0.000000
0.624104 0.000000 0.000000
0.624104 0.000000 0.000000
0.624104 0.000000 0.000000
0.624104 0.000000 0.000000
0.624104 0.000000 0.000000
0.624104 0.000000 0.000000
0.624104 0.000000 0.000000
0.624104 0.000000 0.000000
0.624104 0.000000 0.000000
0.624104 0.000000 0.000000
0.624104 0.000000 0.000000
0.624104 0.000000 0.000000
0.624104 0.000000 0.000000
0.624104 0.000000 0.000000
0.624104 0.000000 0.000000
0.624104 0.000000 0.000000
0.000000 0.000000 0.000000
0.000000 0.000000 0.000000
0.000000 0.000000 0.000000
0.000000 0.000000 0.000000
0.000000 0.000000 0.000000
0.000000 0.000000 0.000000
0.076733 0.036006 0.000000
0.197262 0.052924 0.000000
0.363658 0.039422 0.000000
0.471134 0.000000 0.000000
0.537324 0.000000 0.000000
0.577640 0.000000 0.000000
0.599163 0.000000 0.000000
0.612202 0.000000 0.000000
0.622177 0.000000 0.000000
0.624104 0.000000 0.000000
0.624104 0.000000 0.000000
0.624104 0.000000 0.000000
0.624104 0.000000 0.000000
0.624104 0.000000 0.000000
0.624104 0.000000 0.000000
0.624104 0.000000 0.000000
0.624104 0.000000 0.000000
0.624104 0.000000 0.000000
0.624104 0.000000 0.000000
0.624104 0.000000 0.000000
0.624104 0.000000 0.000000
0.624104 0.000000 0.000000
0.624104 0.000000 0.000000
0.624104 0.000000 0.000000
0.624104 0.000000 0.000000
0.624104 0.000000 0.000000
0.624104 0.000000 0.000000
0.000000 0.000000 0.000000
0.000000 0.000000 0.000000
0.000000 0.000000 0.000000
0.000000 0.000000 0.000000
0.000000 0.000000 0.000000
0.000000 0.000000 0.000000
0.055662 0.030528 0.002790
0.163039 0.051894 0.000000
0.320582 0.054689 0.000000
0.441606 0.000000 0.000000
0.522963 0.000000 0.000000
0.574865 0.000000 0.000000
0.607517 0.000000 0.000000
0.621406 0.000000 0.000000
0.624104 0.000000 0.000000
0.624104 0.000000 0.000000
0.624104 0.000000 0.000000
0.624104 0.000000 0.000000
0.624104 0.000000 0.000000
0.624104 0.000000 0.000000
0.624104 0.000000 0.000000
0.624104 0.000000 0.000000
0.624104 0.000000 0.000000
0.624104 0.000000 0.000000
0.624104 0.000000 0.000000
0.624104 0.000000 0.000000
0.624104 0.000000 0.000000
0.624104 0.000000 0.000000
0.624104 0.000000 0.000000
0.624104 0.000000 0.000000
0.624104 0.000000 0.000000
0.624104 0.000000 0.000000
0.624104 0.000000 0.000000
0.000000 0.000000 0.000000
0.000000 0.000000 0.000000
0.000000 0.000000 0.000000
0.000000 0.000000 0.000000
0.000000 0.000000 0.000000
0.000000 0.000000 0.000000
0.032016 0.016156 0.007989
0.120798 0.048155 0.000000
0.265373 0.060039 0.000000
0.460183 0.000000 0.000000
0.543319 0.000000 0.000000
0.583885 0.000000 0.000000
0.603560 0.000000 0.000000
0.614843 0.000000 0.000000
0.623205 0.000000 0.000000
0.624104 0.000000 0.000000
0.624104 0.000000 0.000000
0.624104 0.000000 0.000000
0.624104 0.000000 0.000000
0.624104 0.000000 0.000000
0.624104 0.000000 0.000000
0.624104 0.000000 0.000000
0.624104 0.000000 0.000000
0.624104 0.000000 0.000000
0.624104 0.000000 0.000000
0.624104 0.000000 0.000000
0.624104 0.000000 0.000000
0.624104 0.000000 0.000000
0.624104 0.000000 0.000000
0.624104 0.000000 0.000000
0.624104 0.000000 0.000000
0.624104 0.000000 0.000000
0.624104 0.000000 0.000000
0.007902 0.014720 0.007161
0.007902 0.014720 0.007161
0.007902 0.014720 0.007161
0.007902 0.014720 0.007161
0.007944 0.014906 0.007231
0.007946 0.016049 0.007717
0.013173 0.015628 0.006883
0.066488 0.049138 0.010221
0.173247 0.072501 0.000000
0.284021 0.087487 0.000000
0.408600 0.073661 0.000000
0.506059 0.000000 0.000000
0.569145 0.000000 0.000000
0.610760 0.000000 0.000000
0.634698 0.000000 0.000000
0.647862 0.000000 0.000000
0.656609 0.000000 0.000000
0.662737 0.000000 0.000000
0.667239 0.000000 0.000000
0.667239 0.000000 0.000000
0.666825 0.000000 0.000000
0.666825 0.000000 0.000000
0.666410 0.000000 0.000000
0.666410 0.000000 0.000000
0.666410 0.000000 0.000000
0.665995 0.000000 0.000000
0.665995 0.000000 0.000000
0.665995 0.000000 0.000000
0.665580 0.000000 0.000000
0.665580 0.000000 0.000000
0.665580 0.000000 0.000000
0.665165 0.000000 0.000000
0.665165 0.000000 0.000000
0.000000 0.054196 0.026539
0.000000 0.060114 0.029990
0.000000 0.083459 0.040326
0.000000 0.092532 0.043669
0.000000 0.092945 0.043822
0.000000 0.087575 0.041844
0.000000 0.061605 0.029703
0.051750 0.060214 0.023220
0.148419 0.095686 0.000000
0.246375 0.113615 0.000000
0.366202 0.120970 0.000000
0.479624 0.111160 0.000000
0.561883 0.086600 0.000000
0.615354 0.050469 0.000000
0.649291 0.000000 0.000000
0.671147 0.000000 0.000000
0.682982 0.000000 0.000000
0.690287 0.000000 0.000000
0.695442 0.000000 0.000000
0.699566 0.000000 0.000000
0.699138 0.000000 0.000000
0.698671 0.000000 0.000000
0.698204 0.000000 0.000000
0.697737 0.000000 0.000000
0.697270 0.000000 0.000000
0.696803 0.000000 0.000000
0.696336 0.000000 0.000000
0.695868 0.000000 0.000000
0.695868 0.000000 0.000000
0.695401 0.000000 0.000000
0.694934 0.000000 0.000000
0.694467 0.000000 0.000000
0.694467 0.000000 0.000000
0.000000 0.173576 0.066755
0.000000 0.179836 0.069126
0.000000 0.181628 0.069801
0.000000 0.178940 0.068788
0.000000 0.170899 0.065739
0.000000 0.154018 0.059329
0.000000 0.111035 0.050035
0.034750 0.111957 0.044201
0.128025 0.127937 0.029371
0.222771 0.147051 0.000000
0.336752 0.161350 0.000000
0.456710 0.163818 0.000000
0.553931 0.158044 0.000000
0.619118 0.146027 0.000000
0.663468 0.134121 0.000000
0.692127 0.126930 0.000000
0.708133 0.121215 0.000000
0.717767 0.120352 0.000000
0.724001 0.117899 0.000000
0.728362 0.115067 0.000000
0.730886 0.114558 0.000000
0.730046 0.111283 0.000000
0.728959 0.107801 0.000000
0.727871 0.104205 0.000000
0.727327 0.102363 0.000000
0.726783 0.100486 0.000000
0.725694 0.096619 0.000000
0.725150 0.094624 0.000000
0.724605 0.092587 0.000000
0.724061 0.090499 0.000000
0.722971 0.086157 0.000000
0.722425 0.083894 0.000000
0.721881 0.081563 0.000000
0.000000 0.270464 0.111370
0.000000 0.269301 0.110787
0.000000 0.264651 0.108454
0.000000 0.256527 0.104380
0.000000 0.242649 0.097415
0.000000 0.217364 0.084714
0.000000 0.153625 0.056914
0.000000 0.146735 0.046087
0.101833 0.159934 0.032886
0.202655 0.182034 0.000000
0.313824 0.201309 0.000000
0.434558 0.211752 0.000000
0.543419 0.212787 0.000000
0.620424 0.207081 0.000000
0.673593 0.202271 0.000000
0.708841 0.198874 0.000000
0.731116 0.196123 0.000000
0.744391 0.194490 0.000000
0.750927 0.194321 0.000000
0.756162 0.194152 0.000000
0.759217 0.191992 0.000000
0.761219 0.191351 0.000000
0.759977 0.188541 0.000000
0.758733 0.185710 0.000000
0.757497 0.182860 0.000000
0.756250 0.179989 0.000000
0.755004 0.177091 0.000000
0.753756 0.174169 0.000000
0.753133 0.172697 0.000000
0.751885 0.169732 0.000000
0.751260 0.168239 0.000000
0.750636 0.166736 0.000000
0.749387 0.163707 0.000000
0.000000 0.356068 0.134583
0.000000 0.351104 0.133401
0.000000 0.343670 0.131623
0.000000 0.332542 0.128950
0.000000 0.315169 0.124744
0.000000 0.286081 0.117606
0.000000 0.205310 0.077818
0.000000 0.189188 0.043112
0.038831 0.197400 0.007173
0.176843 0.220159 0.000000
0.288568 0.242686 0.000000
0.409838 0.259036 0.000000
0.526914 0.267720 0.000000
0.620538 0.269694 0.000000
0.681929 0.265680 0.000000
0.723915 0.262337 0.000000
0.752351 0.260799 0.000000
0.768624 0.260105 0.000000
0.777414 0.258580 0.000000
0.782715 0.258325 0.000000
0.786491 0.257067 0.000000
0.788855 0.255478 0.000000
0.789808 0.253997 0.000000
0.787826 0.249640 0.000000
0.786502 0.246725 0.000000
0.785179 0.243797 0.000000
0.783855 0.240860 0.000000
0.782530 0.237910 0.000000
0.781204 0.234949 0.000000
0.779876 0.231974 0.000000
0.779213 0.230482 0.000000
0.777942 0.227684 0.000000
0.777324 0.226380 0.000000
0.000000 0.405469 0.130505
0.000000 0.400595 0.131101
0.000000 0.394915 0.131761
0.000000 0.386002 0.132724
0.000000 0.374680 0.133827
0.000000 0.352346 0.133697
0.000000 0.265812 0.109037
0.000000 0.239651 0.061205
0.000000 0.239943 0.000000
0.137170 0.261872 0.000000
0.259925 0.288935 0.000000
0.388346 0.310761 0.000000
0.509073 0.323996 0.000000
0.617747 0.330541 0.000000
0.687421 0.328924 0.000000
0.734179 0.326430 0.000000
0.767446 0.323670 0.000000
0.790153 0.322148 0.000000
0.803655 0.321522 0.000000
0.808510 0.319698 0.000000
0.812779 0.318418 0.000000
0.815906 0.316430 0.000000
0.817735 0.315300 0.000000
0.816685 0.311845 0.000000
0.815383 0.309077 0.000000
0.813428 0.304917 0.000000
0.812124 0.302139 0.000000
0.810818 0.299354 0.000000
0.809513 0.296565 0.000000
0.808206 0.293772 0.000000
0.806898 0.290972 0.000000
0.805590 0.288167 0.000000
0.804280 0.285356 0.000000
0.000000 0.439280 0.128165
0.000000 0.435053 0.128462
0.000000 0.429622 0.128821
0.000000 0.422988 0.129221
0.000000 0.413355 0.129736
0.000000 0.394104 0.131852
0.000000 0.325138 0.127163
0.000000 0.294678 0.092603
0.000000 0.281720 0.000000
0.043322 0.304487 0.000000
0.229864 0.333775 0.000000
0.363286 0.360578 0.000000
0.489381 0.377942 0.000000
0.602357 0.389040 0.000000
0.687541 0.391416 0.000000
0.744485 0.390529 0.000000
0.782850 0.388753 0.000000
0.810462 0.386961 0.000000
0.824919 0.386472 0.000000
0.833568 0.384988 0.000000
0.838972 0.384664 0.000000
0.841154 0.381725 0.000000
0.843415 0.379638 0.000000
0.844476 0.376815 0.000000
0.842446 0.371999 0.000000
0.841090 0.368775 0.000000
0.839054 0.363948 0.000000
0.837694 0.360727 0.000000
0.835651 0.355889 0.000000
0.834288 0.352659 0.000000
0.832924 0.349424 0.000000
0.831558 0.346185 0.000000
0.830191 0.342943 0.000000
0.000000 0.463217 0.125040
0.000000 0.460094 0.125587
0.000000 0.456081 0.126269
0.000000 0.450735 0.127143
0.000000 0.441697 0.127987
0.000000 0.426003 0.129043
0.000000 0.373064 0.133974
0.000000 0.350184 0.114570
0.000000 0.327044 0.000000
0.000000 0.343878 0.000000
0.185959 0.376328 0.000000
0.333580 0.406873 0.000000
0.467370 0.430410 0.000000
0.588160 0.446065 0.000000
0.684495 0.454173 0.000000
0.752995 0.454985 0.000000
0.795497 0.453864 0.000000
0.824554 0.451863 0.000000
0.844437 0.451147 0.000000
0.855981 0.448545 0.000000
0.862267 0.448078 0.000000
0.865431 0.445187 0.000000
0.867782 0.443531 0.000000
0.868649 0.438982 0.000000
0.868265 0.434786 0.000000
0.866413 0.429779 0.000000
0.865177 0.426438 0.000000
0.863273 0.421497 0.000000
0.861271 0.416728 0.000000
0.859935 0.413547 0.000000
0.858597 0.410364 0.000000
0.857258 0.407179 0.000000
0.855247 0.402398 0.000000
0.000000 0.481019 0.121552
0.000000 0.479015 0.122019
0.000000 0.475723 0.122715
0.000000 0.470360 0.123741
0.000000 0.462771 0.125120
0.000000 0.451180 0.127072
0.000000 0.407095 0.130300
0.000000 0.388847 0.118529
0.000000 0.371340 0.040303
0.000000 0.377835 0.000000
0.117161 0.412097 0.000000
0.297546 0.447332 0.000000
0.437915 0.475073 0.000000
0.568698 0.496804 0.000000
0.676889 0.509234 0.000000
0.750437 0.513092 0.000000
0.801934 0.514387 0.000000
0.837500 0.513573 0.000000
0.861693 0.511754 0.000000
0.874764 0.511273 0.000000
0.882741 0.509539 0.000000
0.887569 0.507026 0.000000
0.889599 0.503364 0.000000
0.890871 0.500959 0.000000
0.890823 0.496297 0.000000
0.889018 0.491322 0.000000
0.887210 0.486345 0.000000
0.886002 0.483026 0.000000
0.884188 0.478046 0.000000
0.882348 0.473067 0.000000
0.881131 0.469745 0.000000
0.879304 0.464759 0.000000
0.878084 0.461434 0.000000
0.000000 0.491802 0.118916
0.000000 0.489544 0.119487
0.000000 0.487036 0.120109
0.000000 0.483776 0.120900
0.000000 0.479515 0.121904
0.000000 0.469020 0.123992
0.000000 0.432639 0.128625
0.000000 0.419349 0.118518
0.000000 0.408238 0.056005
0.000000 0.408729 0.000000
0.000000 0.440522 0.000000
0.256795 0.480412 0.000000
0.407226 0.512184 0.000000
0.545515 0.539535 0.000000
0.661851 0.558017 0.000000
0.746499 0.566630 0.000000
0.806804 0.568944 0.000000
0.848244 0.569562 0.000000
0.872652 0.568244 0.000000
0.889054 0.566156 0.000000
0.900192 0.565010 0.000000
0.905111 0.562395 0.000000
0.908298 0.559373 0.000000
0.910826 0.557457 0.000000
0.910992 0.553398 0.000000
0.910152 0.549607 0.000000
0.908458 0.544951 0.000000
0.906760 0.540295 0.000000
0.905061 0.535637 0.000000
0.903357 0.530980 0.000000
0.901581 0.526117 0.000000
0.900392 0.522806 0.000000
0.898606 0.517838 0.000000
0.000000 0.498292 0.119350
0.000000 0.497001 0.119109
0.000000 0.495567 0.118840
0.000000 0.493559 0.118464
0.000000 0.489293 0.119549
0.000000 0.482523 0.121198
0.000000 0.453853 0.126638
0.000000 0.441473 0.118858
0.000000 0.434886 0.063386
0.000000 0.435755 0.000000
0.000000 0.466059 0.000000
0.208169 0.506945 0.000000
0.374849 0.543133 0.000000
0.515977 0.572670 0.000000
0.640702 0.595289 0.000000
0.738233 0.609302 0.000000
0.807810 0.614690 0.000000
0.850262 0.616770 0.000000
0.880328 0.616480 0.000000
0.901696 0.617391 0.000000
0.914451 0.616155 0.000000
0.920802 0.614245 0.000000
0.924567 0.611127 0.000000
0.926898 0.607916 0.000000
0.928610 0.605736 0.000000
0.928846 0.601594 0.000000
0.927240 0.597083 0.000000
0.925631 0.592574 0.000000
0.924018 0.588063 0.000000
0.922404 0.583553 0.000000
0.920786 0.579042 0.000000
0.919138 0.574436 0.000000
0.918020 0.571332 0.000000
0.000000 0.503609 0.120288
0.000000 0.502604 0.120170
0.000000 0.501023 0.119870
0.000000 0.499011 0.119487
0.000000 0.496427 0.119002
0.000000 0.491802 0.118916
0.000000 0.470360 0.123741
0.000000 0.459314 0.119075
0.000000 0.457577 0.071124
0.000000 0.455659 0.000000
0.000000 0.479405 0.000000
0.141907 0.523253 0.000000
0.337609 0.564509 0.000000
0.485287 0.600011 0.000000
0.618964 0.629262 0.000000
0.727123 0.648413 0.000000
0.798079 0.654647 0.000000
0.850074 0.656856 0.000000
0.886214 0.657936 0.000000
0.910046 0.658028 0.000000
0.923393 0.656561 0.000000
0.932907 0.655355 0.000000
0.937368 0.651577 0.000000
0.940114 0.649305 0.000000
0.942467 0.647994 0.000000
0.943361 0.645044 0.000000
0.943137 0.642239 0.000000
0.941490 0.637500 0.000000
0.940252 0.633946 0.000000
0.939012 0.630392 0.000000
0.937772 0.626839 0.000000
0.936838 0.624150 0.000000
0.935245 0.619638 0.000000
0.000000 0.507594 0.120707
0.000000 0.506516 0.120593
0.000000 0.505332 0.120468
0.000000 0.503824 0.120312
0.000000 0.501598 0.119979
0.000000 0.497719 0.119243
0.000000 0.482272 0.121259
0.000000 0.474188 0.119423
0.000000 0.472193 0.074139
0.000000 0.470749 0.000000
0.000000 0.491762 0.000000
0.000000 0.537054 0.000000
0.294684 0.581154 0.000000
0.455239 0.619582 0.000000
0.593796 0.651084 0.000000
0.706473 0.671354 0.000000
0.788115 0.682676 0.000000
0.846769 0.688313 0.000000
0.888324 0.691595 0.000000
0.914110 0.693099 0.000000
0.932058 0.693933 0.000000
0.943308 0.693717 0.000000
0.949000 0.691190 0.000000
0.952704 0.688338 0.000000
0.954686 0.685636 0.000000
0.955600 0.682519 0.000000
0.956208 0.680184 0.000000
0.954587 0.675440 0.000000
0.953370 0.671882 0.000000
0.952151 0.668324 0.000000
0.950932 0.664765 0.000000
0.949698 0.661200 0.000000
0.948472 0.657645 0.000000
0.000000 0.510868 0.120858
0.000000 0.510148 0.120896
0.000000 0.509104 0.120866
0.000000 0.507594 0.120707
0.000000 0.505654 0.120502
0.000000 0.502604 0.120170
0.000000 0.490798 0.119171
0.000000 0.483776 0.120900
0.000000 0.485079 0.078266
0.000000 0.486271 0.000000
0.000000 0.501440 0.000000
0.000000 0.543484 0.000000
0.250756 0.590061 0.000000
0.424117 0.632938 0.000000
0.564597 0.667924 0.000000
0.684855 0.693664 0.000000
0.777196 0.707827 0.000000
0.843092 0.714331 0.000000
0.884205 0.718300 0.000000
0.915393 0.720058 0.000000
0.937441 0.720529 0.000000
0.949124 0.720019 0.000000
0.956355 0.718577 0.000000
0.961600 0.717257 0.000000
0.964077 0.715250 0.000000
0.965762 0.713133 0.000000
0.966790 0.711716 0.000000
0.966150 0.708836 0.000000
0.965258 0.706409 0.000000
0.964067 0.703172 0.000000
0.963060 0.700358 0.000000
0.961855 0.696797 0.000000
0.960648 0.693236 0.000000
0.000000 0.513315 0.120713
0.000000 0.512596 0.120760
0.000000 0.511732 0.120813
0.000000 0.510724 0.120867
0.000000 0.509213 0.120877
0.000000 0.506192 0.120560
0.000000 0.496714 0.119056
0.000000 0.492053 0.118851
0.000000 0.492601 0.085538
0.000000 0.496054 0.000000
0.000000 0.511561 0.000000
0.000000 0.549876 0.000000
0.198944 0.596012 0.000000
0.388543 0.640191 0.000000
0.534483 0.677176 0.000000
0.660971 0.706445 0.000000
0.763781 0.726242 0.000000
0.830499 0.734237 0.000000
0.878935 0.739572 0.000000
0.915384 0.743681 0.000000
0.939462 0.744541 0.000000
0.954126 0.745685 0.000000
0.963842 0.744626 0.000000
0.968693 0.743843 0.000000
0.972116 0.741614 0.000000
0.974592 0.739132 0.000000
0.975058 0.736060 0.000000
0.975043 0.733143 0.000000
0.974157 0.730712 0.000000
0.972977 0.727472 0.000000
0.972083 0.725025 0.000000
0.971195 0.722596 0.000000
0.970307 0.720166 0.000000
0.000000 0.514179 0.120657
0.000000 0.514179 0.120657
0.000000 0.514107 0.120662
0.000000 0.513028 0.120731
0.000000 0.511732 0.120813
0.000000 0.509715 0.120920
0.000000 0.501310 0.119924
0.000000 0.497288 0.119163
0.000000 0.498742 0.094135
0.000000 0.503536 0.000000
0.000000 0.516693 0.000000
0.000000 0.550640 0.000000
0.135310 0.597181 0.000000
0.350002 0.643103 0.000000
0.502930 0.684455 0.000000
0.636637 0.718902 0.000000
0.741726 0.739213 0.000000
0.817758 0.750380 0.000000
0.873138 0.756304 0.000000
0.913458 0.760632 0.000000
0.938523 0.762269 0.000000
0.956782 0.762991 0.000000
0.968129 0.762929 0.000000
0.973499 0.762524 0.000000
0.977864 0.762141 0.000000
0.980816 0.760351 0.000000
0.982486 0.758257 0.000000
0.983132 0.755845 0.000000
0.982620 0.754027 0.000000
0.981509 0.750973 0.000000
0.980629 0.748541 0.000000
0.979748 0.746109 0.000000
0.978867 0.743678 0.000000
0.000000 0.514179 0.120657
0.000000 0.514179 0.120657
0.000000 0.514179 0.120657
0.000000 0.514179 0.120657
0.000000 0.513964 0.120670
0.000000 0.511949 0.120802
0.000000 0.505116 0.120447
0.000000 0.501741 0.120008
0.000000 0.502777 0.100467
0.000000 0.508207 0.000000
0.000000 0.520477 0.000000
0.000000 0.551397 0.000000
0.000000 0.596382 0.000000
0.312025 0.642930 0.000000
0.472152 0.686098 0.000000
0.608226 0.720898 0.000000
0.719134 0.745822 0.000000
0.803306 0.761888 0.000000
0.866449 0.770844 0.000000
0.906985 0.775289 0.000000
0.937014 0.778754 0.000000
0.959376 0.779942 0.000000
0.970408 0.779519 0.000000
0.977709 0.778902 0.000000
0.982313 0.778764 0.000000
0.985407 0.777111 0.000000
0.987917 0.775295 0.000000
0.988903 0.773194 0.000000
0.988913 0.770918 0.000000
0.988241 0.769108 0.000000
0.987344 0.766694 0.000000
0.986670 0.764884 0.000000
0.985996 0.763075 0.000000
0.000000 0.514179 0.120657
0.000000 0.514179 0.120657
0.000000 0.514179 0.120657
0.000000 0.514179 0.120657
0.000000 0.514179 0.120657
0.000000 0.514107 0.120662
0.000000 0.508349 0.120787
0.000000 0.505224 0.120458
0.000000 0.506493 0.104164
0.000000 0.512209 0.000000
0.000000 0.520049 0.000000
0.000000 0.548566 0.000000
0.000000 0.593035 0.000000
0.271762 0.641240 0.000000
0.439441 0.685593 0.000000
0.578887 0.722287 0.000000
0.695349 0.750007 0.000000
0.788920 0.769431 0.000000
0.853718 0.779239 0.000000
0.898509 0.784315 0.000000
0.933047 0.788139 0.000000
0.956854 0.790432 0.000000
0.971031 0.791545 0.000000
0.981070 0.792318 0.000000
0.985656 0.792243 0.000000
0.989449 0.792116 0.000000
0.992566 0.791271 0.000000
0.994208 0.789733 0.000000
0.995160 0.787818 0.000000
0.994491 0.786006 0.000000
0.993599 0.783589 0.000000
0.992929 0.781777 0.000000
0.992037 0.779361 0.000000
0.000000 0.514179 0.120657
0.000000 0.514179 0.120657
0.000000 0.514179 0.120657
0.000000 0.514179 0.120657
0.000000 0.514179 0.120657
0.000000 0.514179 0.120657
0.000000 0.510868 0.120858
0.000000 0.508457 0.120799
0.000000 0.508860 0.107657
0.000000 0.515150 0.000000
0.000000 0.521342 0.000000
0.000000 0.546573 0.000000
0.000000 0.589949 0.000000
0.233541 0.637277 0.000000
0.408952 0.681692 0.000000
0.548857 0.720063 0.000000
0.670779 0.751405 0.000000
0.770740 0.773530 0.000000
0.839119 0.785905 0.000000
0.890684 0.793319 0.000000
0.929749 0.797239 0.000000
0.953213 0.799568 0.000000
0.971010 0.801282 0.000000
0.982039 0.802247 0.000000
0.987711 0.801685 0.000000
0.992109 0.801428 0.000000
0.995028 0.800584 0.000000
0.997431 0.799879 0.000000
0.999116 0.799397 0.000000
0.999132 0.798129 0.000000
0.998562 0.796695 0.000000
0.998135 0.795621 0.000000
0.997565 0.794189 0.000000
0.000000 0.514179 0.120657
0.000000 0.514179 0.120657
0.000000 0.514179 0.120657
0.000000 0.514179 0.120657
0.000000 0.514179 0.120657
0.000000 0.514179 0.120657
0.000000 0.512956 0.120738
0.000000 0.510940 0.120856
0.000000 0.511016 0.111959
0.000000 0.517208 0.000000
0.000000 0.523574 0.000000
0.000000 0.547178 0.000000
0.000000 0.586883 0.000000
0.188768 0.633309 0.000000
0.374372 0.677073 0.000000
0.521080 0.717561 0.000000
0.647546 0.751064 0.000000
0.748932 0.773427 0.000000
0.825060 0.788181 0.000000
0.882594 0.797912 0.000000
0.922150 0.802749 0.000000
0.949303 0.806272 0.000000
0.970660 0.809309 0.000000
0.981727 0.810761 0.000000
0.989675 0.811193 0.000000
0.994499 0.810248 0.000000
0.997618 0.809684 0.000000
1.000439 0.809326 0.000000
1.001983 0.808488 0.000000
1.002967 0.807807 0.000000
1.002401 0.806373 0.000000
1.001834 0.804939 0.000000
1.001407 0.803863 0.000000
0.000000 0.514179 0.120657
0.000000 0.514179 0.120657
0.000000 0.514179 0.120657
0.000000 0.514179 0.120657
0.000000 0.514179 0.120657
0.000000 0.514179 0.120657
0.000000 0.514179 0.120657
0.000000 0.512956 0.120738
0.000000 0.512311 0.116218
0.000000 0.518499 0.044457
0.000000 0.525912 0.000000
0.000000 0.545898 0.000000
0.000000 0.582864 0.000000
0.132078 0.627911 0.000000
0.345744 0.673048 0.000000
0.493242 0.713944 0.000000
0.620139 0.748053 0.000000
0.727054 0.773260 0.000000
0.809811 0.790371 0.000000
0.871258 0.801081 0.000000
0.913086 0.806754 0.000000
0.945446 0.810691 0.000000
0.967640 0.813588 0.000000
0.980916 0.815362 0.000000
0.990711 0.816598 0.000000
0.995564 0.816057 0.000000
0.999421 0.815923 0.000000
1.002388 0.816231 0.000000
1.004522 0.816250 0.000000
