transforms/SA03_golden_fpe_r709.cube
#  SA_03_FPE_r709.cube
LUT_3D_SIZE 9
0.000000 0.000000 0.000000
0.000000 0.000000 0.000000
0.449250 0.000000 0.000000
0.608395 0.000000 0.000000
0.624104 0.000000 0.000000
0.624104 0.000000 0.000000
0.624104 0.000000 0.000000
0.624104 0.000000 0.000000
0.624104 0.000000 0.000000
0.000000 0.000000 0.000000
0.000000 0.000000 0.000000
0.320582 0.054689 0.000000
0.607517 0.000000 0.000000
0.624104 0.000000 0.000000
0.624104 0.000000 0.000000
0.624104 0.000000 0.000000
0.624104 0.000000 0.000000
0.624104 0.000000 0.000000
0.000000 0.173576 0.066755
0.000000 0.170899 0.065739
0.128025 0.127937 0.029371
0.553931 0.158044 0.000000
0.708133 0.121215 0.000000
0.730886 0.114558 0.000000
0.727327 0.102363 0.000000
0.724605 0.092587 0.000000
0.721881 0.081563 0.000000
0.000000 0.439280 0.128165
0.000000 0.413355 0.129736
0.000000 0.281720 0.000000
0.489381 0.377942 0.000000
0.782850 0.388753 0.000000
0.838972 0.384664 0.000000
0.842446 0.371999 0.000000
0.835651 0.355889 0.000000
0.830191 0.342943 0.000000
0.000000 0.498292 0.119350
0.000000 0.489293 0.119549
0.000000 0.434886 0.063386
0.374849 0.543133 0.000000
0.807810 0.614690 0.000000
0.914451 0.616155 0.000000
0.928610 0.605736 0.000000
0.924018 0.588063 0.000000
0.918020 0.571332 0.000000
0.000000 0.513315 0.120713
0.000000 0.509213 0.120877
0.000000 0.492601 0.085538
0.198944 0.596012 0.000000
0.763781 0.726242 0.000000
0.939462 0.744541 0.000000
0.972116 0.741614 0.000000
0.974157 0.730712 0.000000
0.970307 0.720166 0.000000
0.000000 0.514179 0.120657
0.000000 0.514179 0.120657
0.000000 0.508860 0.107657
0.000000 0.589949 0.000000
0.670779 0.751405 0.000000
0.929749 0.797239 0.000000
0.987711 0.801685 0.000000
0.999116 0.799397 0.000000
0.997565 0.794189 0.000000
0.000000 0.514179 0.120657
0.000000 0.514179 0.120657
0.000000 0.514179 0.120657
0.000000 0.574623 0.000000
0.565313 0.739128 0.000000
0.894636 0.811973 0.000000
0.989694 0.824899 0.000000
1.007621 0.825433 0.000000
1.009834 0.823448 0.000000
0.000000 0.514179 0.120657
0.000000 0.514179 0.120657
0.000000 0.514179 0.120657
0.000000 0.552356 0.000000
0.462419 0.714241 0.000000
0.844683 0.810483 0.000000
0.981177 0.832460 0.000000
1.009970 0.836399 0.000000
1.017285 0.836462 0.000000
0.000423 0.000360 0.000317
0.000000 0.000000 0.000000
0.431790 0.000000 0.000000
0.606200 0.000000 0.000000
0.624104 0.000000 0.000000
0.624104 0.000000 0.000000
0.624104 0.000000 0.000000
0.624104 0.000000 0.000000
0.625261 0.000000 0.000000
0.000000 0.000000 0.000000
0.000000 0.000000 0.000000
0.316615 0.055219 0.000000
0.611909 0.000000 0.000000
0.624104 0.000000 0.000000
0.624104 0.000000 0.000000
0.624104 0.000000 0.000000
0.624104 0.000000 0.000000
0.624104 0.000000 0.000000
0.000000 0.174469 0.067095
0.000000 0.161997 0.062359
0.113921 0.115938 0.031269
0.526238 0.145943 0.000000
0.693618 0.097919 0.000000
0.719604 0.078121 0.000000
0.716957 0.055488 0.000000
0.713678 0.014991 0.000000
0.711489 0.000000 0.000000
0.000000 0.429019 0.128859
0.000000 0.400595 0.131101
0.000000 0.258050 0.000000
0.442213 0.343259 0.000000
0.755559 0.356279 0.000000
0.822129 0.350679 0.000000
0.828823 0.339696 0.000000
0.821963 0.323390 0.000000
0.816033 0.310461 0.000000
0.000000 0.495567 0.118840
0.000000 0.484278 0.120779
0.000000 0.421279 0.090470
0.320225 0.506320 0.000000
0.769422 0.582911 0.000000
0.896232 0.582209 0.000000
0.915690 0.571430 0.000000
0.911844 0.554263 0.000000
0.905627 0.537190 0.000000
0.000000 0.511805 0.120809
0.000000 0.506947 0.120638
0.000000 0.485362 0.102261
0.084803 0.565835 0.000000
0.715212 0.702268 0.000000
0.919860 0.723492 0.000000
0.963005 0.720865 0.000000
0.967339 0.712072 0.000000
0.963471 0.701554 0.000000
0.000000 0.514179 0.120657
0.000000 0.514179 0.120657
0.000000 0.504796 0.116040
0.000000 0.567921 0.000000
0.615053 0.731960 0.000000
0.905894 0.785462 0.000000
0.981346 0.792382 0.000000
0.994372 0.790321 0.000000
0.992929 0.781777 0.000000
0.000000 0.514179 0.120657
0.000000 0.514179 0.120657
0.000000 0.513819 0.120680
0.000000 0.556976 0.000000
0.504912 0.719813 0.000000
0.867671 0.804051 0.000000
0.980786 0.819740 0.000000
1.003477 0.820353 0.000000
1.007772 0.819119 0.000000
0.000000 0.514179 0.120657
0.000000 0.514179 0.120657
0.000000 0.514179 0.120657
0.000000 0.538634 0.000000
0.392639 0.694553 0.000000
0.811399 0.803015 0.000000
0.967320 0.829095 0.000000
1.007066 0.834777 0.000000
1.015818 0.834103 0.000000
0.129834 0.000000 0.437256
0.113452 0.000000 0.417714
0.439448 0.000000 0.420306
0.661298 0.000000 0.412555
0.686191 0.000000 0.419175
0.688651 0.000000 0.446127
0.700479 0.000000 0.566947
0.704344 0.000000 0.592381
0.705605 0.000000 0.602705
0.070509 0.000000 0.368928
0.062300 0.000000 0.349531
0.328766 0.000000 0.330220
0.677972 0.000000 0.481466
0.693761 0.000000 0.502681
0.694190 0.000000 0.507087
0.694533 0.000000 0.510615
0.694705 0.000000 0.512378
0.694790 0.000000 0.513260
0.000000 0.212871 0.264669
0.000000 0.184258 0.228402
0.071704 0.080971 0.079582
0.458762 0.115792 0.000000
0.678013 0.000000 0.000000
0.714092 0.000000 0.000000
0.715573 0.000000 0.000000
0.711620 0.000000 0.000000
0.708071 0.000000 0.000000
0.000000 0.481853 0.311542
0.000000 0.421577 0.248036
0.000000 0.212006 0.074040
0.339592 0.267640 0.000000
0.690536 0.278621 0.000000
0.784494 0.267720 0.000000
0.796791 0.262983 0.000000
0.790645 0.249834 0.000000
0.783037 0.235789 0.000000
0.000000 0.540142 0.265953
0.000000 0.501946 0.204029
0.000000 0.383790 0.128502
0.193277 0.411210 0.000000
0.660494 0.489036 0.000000
0.841710 0.489112 0.000000
0.878455 0.481041 0.000000
0.879914 0.466421 0.000000
0.873187 0.448122 0.000000
0.000000 0.544705 0.230093
0.000000 0.521324 0.176921
0.000000 0.462307 0.123214
0.000000 0.490340 0.000000
0.576570 0.625987 0.000000
0.863026 0.663869 0.000000
0.934402 0.661275 0.000000
0.944923 0.651546 0.000000
0.941490 0.637500 0.000000
0.000000 0.539184 0.201045
0.000000 0.525107 0.159849
0.000000 0.496571 0.119027
0.000000 0.518706 0.000000
0.462083 0.672294 0.000000
0.838587 0.749118 0.000000
0.955110 0.758648 0.000000
0.978787 0.757284 0.000000
0.980042 0.746920 0.000000
0.000000 0.528829 0.168801
0.000000 0.519885 0.139022
0.000000 0.509859 0.120912
0.000000 0.522821 0.000000
0.331408 0.663083 0.000000
0.784011 0.778525 0.000000
0.949328 0.803371 0.000000
0.991374 0.805205 0.000000
1.000688 0.802705 0.000000
0.000000 0.522525 0.147739
0.000000 0.515470 0.125007
0.000000 0.514179 0.120657
0.000000 0.527380 0.000000
0.196355 0.643259 0.000000
0.697181 0.773329 0.000000
0.927289 0.817056 0.000000
0.995178 0.826050 0.000000
1.008240 0.825771 0.000000
0.176759 0.000000 0.491017
0.174447 0.000000 0.487603
0.456047 0.000000 0.598392
0.685967 0.000000 0.628165
0.710291 0.000000 0.635748
0.712777 0.000000 0.647637
0.720719 0.000000 0.673303
0.721841 0.000000 0.676301
0.722457 0.000000 0.677946
0.166984 0.000000 0.477379
0.164643 0.000000 0.474010
0.456047 0.000000 0.598392
0.702186 0.000000 0.649723
0.715220 0.000000 0.654871
0.715436 0.000000 0.655509
0.715509 0.000000 0.655722
0.715581 0.000000 0.655934
0.715581 0.000000 0.655934
0.000000 0.263294 0.567138
0.000000 0.229063 0.537735
0.000000 0.080154 0.390447
0.460222 0.096674 0.409564
0.698710 0.000000 0.399742
0.739570 0.000000 0.392016
0.742144 0.000000 0.377567
0.737744 0.000000 0.363616
0.734099 0.000000 0.353240
0.000000 0.568824 0.671043
0.000000 0.516643 0.611836
0.000000 0.294213 0.357042
0.318148 0.285024 0.282703
0.704387 0.292367 0.242937
0.810115 0.271805 0.212935
0.825343 0.261874 0.201859
0.820897 0.249538 0.189579
0.814576 0.234300 0.173369
0.000000 0.665471 0.670046
0.000000 0.630560 0.598313
0.000000 0.463200 0.337487
0.100409 0.431695 0.171327
0.663812 0.500789 0.000000
0.869173 0.494406 0.000000
0.905362 0.479787 0.000000
0.905587 0.465775 0.000000
0.896582 0.443123 0.000000
0.000000 0.675602 0.634625
0.000000 0.646471 0.546734
0.000000 0.524696 0.291556
0.000000 0.503757 0.033125
0.561829 0.630490 0.000000
0.874776 0.660634 0.000000
0.954163 0.655919 0.000000
0.963684 0.645082 0.000000
0.957217 0.626040 0.000000
0.000000 0.668634 0.592185
0.000000 0.639764 0.499049
0.000000 0.539840 0.243207
0.000000 0.532203 0.000000
0.427709 0.666228 0.000000
0.830985 0.745996 0.000000
0.965824 0.759372 0.000000
0.988103 0.752509 0.000000
0.987291 0.739483 0.000000
0.000000 0.650706 0.529468
0.000000 0.619237 0.434145
0.000000 0.538846 0.210553
0.000000 0.534847 0.000000
0.280297 0.654264 0.000000
0.758549 0.772105 0.000000
0.946939 0.798338 0.000000
0.991443 0.800471 0.000000
0.999600 0.796926 0.000000
0.000000 0.630103 0.466430
0.000000 0.597496 0.370962
0.000000 0.534005 0.185176
0.000000 0.533559 0.054068
0.004685 0.629692 0.000000
0.660357 0.763707 0.000000
0.908502 0.811353 0.000000
0.988463 0.822302 0.000000
1.005160 0.821805 0.000000
0.177861 0.000000 0.492668
0.177861 0.000000 0.492668
0.458620 0.000000 0.628129
0.697646 0.000000 0.671987
0.722965 0.000000 0.679301
0.722965 0.000000 0.679301
0.722965 0.000000 0.679301
0.722965 0.000000 0.679301
0.722965 0.000000 0.679301
0.177861 0.000000 0.492668
0.177861 0.000000 0.492668
0.510670 0.000000 0.638953
0.709136 0.000000 0.674973
0.722965 0.000000 0.679301
0.722965 0.000000 0.679301
0.722965 0.000000 0.679301
0.722965 0.000000 0.679301
0.722965 0.000000 0.679301
0.000000 0.284625 0.646622
0.000000 0.244650 0.624349
0.000000 0.036434 0.550942
0.466588 0.000000 0.625054
0.714663 0.000000 0.638572
0.758452 0.000000 0.637484
0.761656 0.000000 0.629806
0.757583 0.000000 0.621058
0.753495 0.000000 0.612309
0.000000 0.571382 0.758385
0.000000 0.519937 0.725235
0.000000 0.320272 0.580476
0.268468 0.319735 0.602251
0.701973 0.322889 0.609157
0.823122 0.300121 0.596942
0.840947 0.287379 0.585550
0.837574 0.276141 0.565374
0.830621 0.255539 0.544623
0.000000 0.673467 0.788778
0.000000 0.650706 0.761351
0.000000 0.530506 0.621294
0.000000 0.483496 0.532577
0.628959 0.551884 0.521344
0.864443 0.539533 0.493889
0.908830 0.522632 0.473461
0.913038 0.505956 0.448875
0.905167 0.479856 0.421326
0.000000 0.696202 0.785867
0.000000 0.689671 0.759536
0.000000 0.623054 0.602545
0.000000 0.605204 0.498818
0.495444 0.678152 0.403303
0.860466 0.704443 0.346926
0.955577 0.697384 0.307700
0.971654 0.682926 0.279916
0.967098 0.660673 0.254467
0.000000 0.701340 0.776952
0.000000 0.699744 0.744712
0.000000 0.644603 0.554831
0.000000 0.632812 0.442945
0.330258 0.707479 0.292619
0.813182 0.781019 0.160431
0.972159 0.788540 0.000000
1.003553 0.779425 0.000000
1.005835 0.765135 0.000000
0.000000 0.701283 0.755728
0.000000 0.697066 0.714812
0.000000 0.639807 0.506855
0.000000 0.622479 0.387944
0.026066 0.687689 0.198411
0.731979 0.793275 0.000000
0.959502 0.819641 0.000000
1.014087 0.821552 0.000000
1.024928 0.816774 0.000000
0.000000 0.699783 0.731081
0.000000 0.689572 0.674982
0.000000 0.627386 0.458367
0.000000 0.607651 0.347949
0.000000 0.653755 0.120346
0.632186 0.776423 0.000000
0.919448 0.826086 0.000000
1.010276 0.833462 0.000000
1.028364 0.832758 0.000000
0.177861 0.000000 0.492668
0.177861 0.000000 0.492668
0.457259 0.000000 0.627845
0.698290 0.000000 0.672561
0.722965 0.000000 0.679301
0.722965 0.000000 0.679301
0.722965 0.000000 0.679301
0.722965 0.000000 0.679301
0.722965 0.000000 0.679301
0.177861 0.000000 0.492668
0.177861 0.000000 0.492668
0.529298 0.000000 0.642445
0.709728 0.000000 0.675119
0.722965 0.000000 0.679301
0.722965 0.000000 0.679301
0.722965 0.000000 0.679301
0.722965 0.000000 0.679301
0.722965 0.000000 0.679301
0.000000 0.298821 0.664453
0.000000 0.257337 0.646862
0.000000 0.037652 0.601081
0.465790 0.000000 0.696282
0.720863 0.000000 0.719606
0.767935 0.000000 0.721879
0.771333 0.000000 0.716441
0.766651 0.000000 0.708768
0.763561 0.000000 0.703368
0.000000 0.572175 0.778340
0.000000 0.521745 0.754671
0.000000 0.328372 0.659268
0.230804 0.333409 0.732260
0.697742 0.337355 0.770606
0.829673 0.314468 0.773506
0.850096 0.301099 0.768681
0.847716 0.287105 0.753360
0.842174 0.267534 0.741480
0.000000 0.672472 0.816215
0.000000 0.649787 0.801922
0.000000 0.532154 0.721477
0.000000 0.524688 0.730236
0.598580 0.582267 0.767615
0.859363 0.574076 0.769317
0.910704 0.558396 0.758187
0.916414 0.541028 0.743253
0.910016 0.515498 0.725062
0.000000 0.694806 0.822000
0.000000 0.689619 0.812178
0.000000 0.639504 0.744835
0.000000 0.658463 0.733395
0.410398 0.724503 0.718317
0.838917 0.759916 0.715525
0.944608 0.751458 0.694086
0.964653 0.735235 0.676975
0.962705 0.712201 0.654125
0.000000 0.702056 0.822486
0.000000 0.700102 0.809873
0.000000 0.682817 0.741276
0.000000 0.704863 0.716428
0.000000 0.762119 0.648165
0.768023 0.842638 0.632710
0.950865 0.848876 0.602318
0.991340 0.840461 0.578247
0.996660 0.824158 0.550553
0.000000 0.702108 0.814508
0.000000 0.702198 0.800161
0.000000 0.695544 0.725964
0.000000 0.706349 0.679400
0.000000 0.748116 0.576937
0.669513 0.852843 0.543225
0.932104 0.882057 0.501500
1.001154 0.881433 0.462010
1.014764 0.873153 0.432450
0.000000 0.702167 0.805138
0.000000 0.701894 0.787892
0.000000 0.694404 0.698931
0.000000 0.694673 0.637122
0.000000 0.715984 0.517316
0.552938 0.832229 0.460164
0.892329 0.881532 0.399128
0.997753 0.887961 0.344936
1.022029 0.884018 0.304371
0.177861 0.000000 0.492668
0.177861 0.000000 0.492668
0.459983 0.000000 0.628415
0.699290 0.000000 0.672777
0.722965 0.000000 0.679301
0.722965 0.000000 0.679301
0.722965 0.000000 0.679301
0.722965 0.000000 0.679301
0.722965 0.000000 0.679301
0.177861 0.000000 0.492668
0.177861 0.000000 0.492668
0.541529 0.000000 0.644637
0.710469 0.000000 0.675301
0.722965 0.000000 0.679301
0.722965 0.000000 0.679301
0.722965 0.000000 0.679301
0.722965 0.000000 0.679301
0.722965 0.000000 0.679301
0.000000 0.302610 0.666046
0.000000 0.257337 0.646862
0.000000 0.042306 0.615377
0.468795 0.000000 0.719246
0.723921 0.000000 0.749065
0.775022 0.000000 0.751085
0.779579 0.000000 0.748837
0.774959 0.000000 0.742423
0.771476 0.000000 0.737541
0.000000 0.569928 0.778605
0.000000 0.519532 0.757672
0.000000 0.338516 0.686651
0.204442 0.341562 0.774905
0.691527 0.351601 0.829742
0.832664 0.327992 0.837724
0.855849 0.312451 0.833431
0.854037 0.300464 0.824785
0.848297 0.277788 0.815767
0.000000 0.670447 0.821899
0.000000 0.649014 0.812424
0.000000 0.530238 0.754942
0.000000 0.532551 0.790805
0.577053 0.594516 0.861544
0.854209 0.586687 0.876211
0.910638 0.573447 0.874102
0.917512 0.556840 0.865088
0.912060 0.531621 0.852558
0.000000 0.694996 0.832458
0.000000 0.688856 0.826927
0.000000 0.637249 0.790456
0.000000 0.661110 0.806756
0.345654 0.736986 0.848671
0.820833 0.778586 0.871692
0.938324 0.772996 0.871066
0.959594 0.759370 0.862834
0.959298 0.737534 0.848098
0.000000 0.700741 0.833863
0.000000 0.699699 0.829167
0.000000 0.682510 0.800263
0.000000 0.708850 0.804855
0.000000 0.782304 0.813996
0.738209 0.871400 0.839544
0.934395 0.881356 0.836435
0.978975 0.875197 0.827055
0.988299 0.863545 0.812515
0.000000 0.701112 0.832119
0.000000 0.702025 0.827233
0.000000 0.696712 0.796112
0.000000 0.719039 0.792594
0.000000 0.785309 0.782637
0.614517 0.889042 0.793814
0.905820 0.924305 0.785981
0.985424 0.927689 0.773865
1.000824 0.920416 0.754906
0.000000 0.701884 0.828782
0.000000 0.702047 0.823756
0.000000 0.701780 0.788504
0.000000 0.718450 0.776398
0.000000 0.769415 0.751576
0.464871 0.875390 0.742008
0.859069 0.930675 0.729262
0.978086 0.940308 0.707079
1.006444 0.939107 0.690085
0.177861 0.000000 0.492668
0.177861 0.000000 0.492668
0.466794 0.000000 0.629836
0.700957 0.000000 0.673139
0.722965 0.000000 0.679301
0.722965 0.000000 0.679301
0.722965 0.000000 0.679301
0.722965 0.000000 0.679301
0.722965 0.000000 0.679301
0.177861 0.000000 0.492668
0.177861 0.000000 0.492668
0.551552 0.000000 0.646428
0.711063 0.000000 0.675447
0.722965 0.000000 0.679301
0.722965 0.000000 0.679301
0.722965 0.000000 0.679301
0.722965 0.000000 0.679301
0.722965 0.000000 0.679301
0.000000 0.306403 0.667649
0.000000 0.258594 0.647396
0.000000 0.042306 0.615377
0.466678 0.000000 0.718247
0.721711 0.000000 0.747578
0.774284 0.000000 0.751394
0.778899 0.000000 0.750260
0.774832 0.000000 0.744997
0.771289 0.000000 0.740350
0.000000 0.569019 0.778229
0.000000 0.517220 0.756704
0.000000 0.339219 0.689689
0.186383 0.347022 0.784473
0.687070 0.362756 0.845116
0.834552 0.344589 0.857123
0.859112 0.333205 0.857320
0.858566 0.312888 0.850544
0.853041 0.290622 0.842887
0.000000 0.668829 0.821184
0.000000 0.647197 0.811629
0.000000 0.529504 0.763296
0.000000 0.532439 0.808473
0.562636 0.598524 0.892351
0.849310 0.593996 0.914297
0.910027 0.580852 0.914952
0.919297 0.564215 0.909955
0.914161 0.540148 0.902284
0.000000 0.694590 0.832280
0.000000 0.688286 0.829193
0.000000 0.636079 0.804664
0.000000 0.658493 0.829219
0.300721 0.740080 0.897649
0.805173 0.783414 0.932642
0.933453 0.778649 0.937729
0.957464 0.765830 0.934615
0.957925 0.744859 0.927726
0.000000 0.700642 0.834524
0.000000 0.699281 0.833391
0.000000 0.681479 0.819298
0.000000 0.705646 0.835415
0.000000 0.785568 0.877176
0.714147 0.877398 0.924108
0.924452 0.889963 0.931536
0.974107 0.886148 0.929608
0.983136 0.877190 0.923268
0.000000 0.700808 0.834695
0.000000 0.700808 0.834695
0.000000 0.695462 0.822184
0.000000 0.716543 0.830445
0.000000 0.791837 0.858540
0.574749 0.899740 0.899248
0.887768 0.939696 0.911615
0.975714 0.944061 0.909071
0.993639 0.940013 0.903571
0.000000 0.700808 0.834695
0.000000 0.700815 0.833939
0.000000 0.701576 0.822353
0.000000 0.715882 0.820680
0.000000 0.783355 0.842961
0.397533 0.889362 0.868054
0.833432 0.950435 0.884123
0.965849 0.964479 0.880031
0.996215 0.964643 0.873243
0.177861 0.000000 0.492668
0.177861 0.000000 0.492668
0.476255 0.000000 0.631808
0.703303 0.000000 0.673655
0.722965 0.000000 0.679301
0.722965 0.000000 0.679301
0.722965 0.000000 0.679301
0.722965 0.000000 0.679301
0.722965 0.000000 0.679301
0.177861 0.000000 0.492668
0.177861 0.000000 0.492668
0.560462 0.000000 0.648018
0.711656 0.000000 0.675593
0.722965 0.000000 0.679301
0.722965 0.000000 0.679301
0.722965 0.000000 0.679301
0.722965 0.000000 0.679301
0.722965 0.000000 0.679301
0.000000 0.310393 0.669352
0.000000 0.261107 0.648465
0.000000 0.042306 0.615377
0.464560 0.000000 0.717246
0.720605 0.000000 0.746834
0.773020 0.000000 0.749985
0.777488 0.000000 0.748483
0.773503 0.000000 0.743254
0.769961 0.000000 0.738609
0.000000 0.568109 0.777855
0.000000 0.514907 0.755736
0.000000 0.336298 0.688251
0.180467 0.341645 0.781768
0.681849 0.357175 0.842845
0.831741 0.338352 0.854874
0.857087 0.326292 0.855617
0.857105 0.307113 0.850893
0.851857 0.285992 0.844599
0.000000 0.668019 0.820826
0.000000 0.645382 0.810824
0.000000 0.525525 0.761391
0.000000 0.525164 0.807084
0.552593 0.591653 0.893688
0.839871 0.593335 0.921124
0.909218 0.580991 0.925043
0.920204 0.569042 0.923681
0.915622 0.545607 0.918336
0.000000 0.694147 0.832063
0.000000 0.687844 0.828976
0.000000 0.634490 0.805988
0.000000 0.653713 0.832464
0.270399 0.736561 0.908556
0.791280 0.783813 0.952414
0.929334 0.778355 0.960333
0.956274 0.766607 0.959871
0.957675 0.748546 0.956138
0.000000 0.700551 0.834428
0.000000 0.698986 0.833328
0.000000 0.680325 0.825976
0.000000 0.701498 0.843158
0.000000 0.782072 0.898205
0.693606 0.876055 0.953716
0.917766 0.892371 0.968710
0.970421 0.889328 0.969362
0.980918 0.880173 0.966649
0.000000 0.700808 0.834695
0.000000 0.700808 0.834695
0.000000 0.695591 0.831739
0.000000 0.713650 0.842214
0.000000 0.789921 0.885533
0.548253 0.901662 0.940771
0.877197 0.944058 0.962315
0.970745 0.949363 0.965501
0.989941 0.946205 0.963569
0.000000 0.700808 0.834695
0.000000 0.700808 0.834695
0.000000 0.700470 0.832771
0.000000 0.713843 0.838268
0.000000 0.783440 0.874215
0.343177 0.891983 0.920070
0.815629 0.956984 0.949111
0.958522 0.973386 0.954223
0.992078 0.974558 0.951385
