transforms/slgv4_locon_050-050.cube
#  slgv4_locon_050-050.cube
LUT_3D_SIZE 5
0.000000 0.000000 0.000000
0.186352 0.000000 0.000000
0.660433 0.000000 0.000000
1.000000 0.000000 0.000000
1.000000 0.000000 0.000000
0.000000 0.171598 0.000000
0.163798 0.164076 0.000000
0.634254 0.003602 0.000000
0.997709 0.000000 0.000000
1.000000 0.000000 0.000000
0.000000 0.608661 0.000000
0.000000 0.594805 0.000000
0.583932 0.583942 0.000000
0.974699 0.520575 0.000000
1.000000 0.506073 0.000000
0.000000 0.939174 0.000000
0.000000 0.933477 0.000000
0.390025 0.927895 0.000000
0.916164 0.916187 0.000000
1.000000 0.902485 0.000000
0.000000 1.000000 0.000000
0.000000 1.000000 0.000000
0.302370 1.000000 0.000000
0.884431 1.000000 0.000000
1.000000 1.000000 0.000000
0.000164 0.000000 0.174514
0.186659 0.000000 0.176995
0.659872 0.000000 0.069386
1.000000 0.000000 0.000000
1.000000 0.000000 0.000000
0.000000 0.169917 0.168279
0.161819 0.162093 0.162022
0.629951 0.003012 0.010185
0.996076 0.000000 0.000000
1.000000 0.000000 0.000000
0.000000 0.604203 0.000000
0.000000 0.589836 0.000000
0.578667 0.578677 0.000000
0.973133 0.514149 0.000000
1.000000 0.498629 0.000000
0.000000 0.937328 0.000000
0.000000 0.931420 0.000000
0.378450 0.925853 0.000000
0.913950 0.913972 0.000000
1.000000 0.899813 0.000000
0.000000 1.000000 0.000000
0.000000 1.000000 0.000000
0.280375 1.000000 0.000000
0.880996 1.000000 0.000000
1.000000 1.000000 0.000000
0.000581 0.000000 0.619139
0.135057 0.000000 0.624065
0.662728 0.000000 0.628524
1.000000 0.000000 0.589584
1.000000 0.000000 0.592073
0.000000 0.121077 0.611818
0.114344 0.114710 0.601408
0.630313 0.003041 0.598365
0.996075 0.000000 0.549590
1.000000 0.000000 0.542862
0.000000 0.604185 0.598733
0.000000 0.589445 0.584232
0.578091 0.578101 0.578098
0.972898 0.513180 0.526710
1.000000 0.497291 0.516171
0.000000 0.937052 0.521172
0.000000 0.931038 0.499541
0.376017 0.925433 0.490125
0.913456 0.913481 0.475700
1.000000 0.899167 0.461912
0.000000 1.000000 0.505828
0.000000 1.000000 0.477668
0.273946 1.000000 0.464584
0.880011 1.000000 0.446759
1.000000 1.000000 0.439949
0.000901 0.000000 0.958582
0.100039 0.000000 0.959399
0.624744 0.000000 0.959821
1.000000 0.000000 0.957561
1.000000 0.000000 0.951068
0.000000 0.086381 0.954524
0.079163 0.079696 0.950749
0.587927 0.000000 0.949121
0.996190 0.000000 0.944913
1.000000 0.000000 0.934938
0.000000 0.564810 0.947471
0.000000 0.548668 0.942724
0.537504 0.537516 0.940158
0.972703 0.513190 0.934979
1.000000 0.497241 0.923697
0.000000 0.936877 0.928425
0.000000 0.930764 0.922388
0.375322 0.925109 0.919037
0.913299 0.913324 0.913316
1.000000 0.898931 0.901266
0.000000 1.000000 0.914310
0.000000 1.000000 0.906109
0.271054 1.000000 0.901696
0.879548 1.000000 0.895157
1.000000 1.000000 0.892665
0.000978 0.000000 1.000000
0.095016 0.000000 1.000000
0.621061 0.000000 1.000000
0.999758 0.000000 1.000000
1.000000 0.000000 1.000000
0.000000 0.079728 1.000000
0.071865 0.072466 1.000000
0.580139 0.000000 1.000000
0.986042 0.000000 1.000000
1.000000 0.000000 1.000000
0.000000 0.557424 1.000000
0.000000 0.540329 1.000000
0.528898 0.528908 1.000000
0.962364 0.504522 1.000000
1.000000 0.498417 1.000000
0.000000 0.927508 1.000000
0.000000 0.920636 1.000000
0.364372 0.914854 1.000000
0.903017 0.903042 1.000000
1.000000 0.899038 1.000000
0.000000 1.000000 1.000000
0.000000 1.000000 1.000000
0.270650 1.000000 1.000000
0.879421 1.000000 1.000000
1.000000 1.000000 1.000000
