transforms/slgv4_locon_050-050.cube
#  slgv4_locon_050-050.cube
LUT_3D_SIZE 9
0.000000 0.000000 0.000000
0.059626 0.000000 0.000000
0.186352 0.000000 0.000000
0.393283 0.000000 0.000000
0.660433 0.000000 0.000000
0.878706 0.000000 0.000000
1.000000 0.000000 0.000000
1.000000 0.000000 0.000000
1.000000 0.000000 0.000000
0.000000 0.054973 0.000000
0.052405 0.052613 0.000000
0.178474 0.003091 0.000000
0.375994 0.000000 0.000000
0.638287 0.000000 0.000000
0.862277 0.000000 0.000000
0.999634 0.000000 0.000000
1.000000 0.000000 0.000000
1.000000 0.000000 0.000000
0.000000 0.171598 0.000000
0.000000 0.167530 0.000000
0.163798 0.164076 0.000000
0.370963 0.122140 0.000000
0.634254 0.003602 0.000000
0.858945 0.000000 0.000000
0.997709 0.000000 0.000000
1.000000 0.000000 0.000000
1.000000 0.000000 0.000000
0.000000 0.361180 0.000000
0.000000 0.352421 0.000000
0.004215 0.350053 0.000000
0.341349 0.342585 0.000000
0.623323 0.296067 0.000000
0.852208 0.230860 0.000000
0.992668 0.141838 0.000000
1.000000 0.120755 0.000000
1.000000 0.115515 0.000000
0.000000 0.608661 0.000000
0.000000 0.597726 0.000000
0.000000 0.594805 0.000000
0.151259 0.591766 0.000000
0.583932 0.583942 0.000000
0.828912 0.546469 0.000000
0.974699 0.520575 0.000000
1.000000 0.508287 0.000000
1.000000 0.506073 0.000000
0.000000 0.814632 0.000000
0.000000 0.806703 0.000000
0.000000 0.804303 0.000000
0.000000 0.802060 0.000000
0.485529 0.796986 0.000000
0.787633 0.787891 0.000000
0.944076 0.767073 0.000000
1.000000 0.756457 0.000000
1.000000 0.753658 0.000000
0.000000 0.939174 0.000000
0.000000 0.934915 0.000000
0.000000 0.933477 0.000000
0.000000 0.931885 0.000000
0.390025 0.927895 0.000000
0.736708 0.921721 0.000000
0.916164 0.916187 0.000000
0.992074 0.905989 0.000000
1.000000 0.902485 0.000000
0.000000 0.997310 0.000000
0.000000 0.995770 0.000000
0.000000 0.995188 0.000000
0.000000 0.994092 0.000000
0.325454 0.990681 0.000000
0.708155 0.985177 0.000000
0.892882 0.980382 0.000000
0.977593 0.977595 0.000000
1.000000 0.973843 0.000000
0.000000 1.000000 0.000000
0.000000 1.000000 0.000000
0.000000 1.000000 0.000000
0.000000 1.000000 0.000000
0.302370 1.000000 0.000000
0.698830 1.000000 0.000000
0.884431 1.000000 0.000000
0.969224 1.000000 0.000000
1.000000 1.000000 0.000000
0.000052 0.000000 0.055928
0.059662 0.000000 0.056563
0.186171 0.000000 0.032068
0.392326 0.000000 0.000000
0.658947 0.000000 0.000000
0.877493 0.000000 0.000000
1.000000 0.000000 0.000000
1.000000 0.000000 0.000000
1.000000 0.000000 0.000000
0.000000 0.054428 0.053864
0.051776 0.051984 0.051932
0.177263 0.003046 0.026339
0.373546 0.000000 0.000000
0.635345 0.000000 0.000000
0.860135 0.000000 0.000000
0.998716 0.000000 0.000000
1.000000 0.000000 0.000000
1.000000 0.000000 0.000000
0.000000 0.170288 0.002353
0.000000 0.166113 0.002182
0.162323 0.162598 0.001367
0.367906 0.120826 0.000000
0.630590 0.003120 0.000000
0.856366 0.000000 0.000000
0.996365 0.000000 0.000000
1.000000 0.000000 0.000000
1.000000 0.000000 0.000000
0.000000 0.358253 0.000000
0.000000 0.349341 0.000000
0.004168 0.346871 0.000000
0.338127 0.339361 0.000000
0.619404 0.292720 0.000000
0.849483 0.226191 0.000000
0.991304 0.136954 0.000000
1.000000 0.115594 0.000000
1.000000 0.109580 0.000000
0.000000 0.605008 0.000000
0.000000 0.593922 0.000000
0.000000 0.590846 0.000000
0.148595 0.587736 0.000000
0.579842 0.579853 0.000000
0.826226 0.542000 0.000000
0.973498 0.515648 0.000000
1.000000 0.502921 0.000000
1.000000 0.500439 0.000000
0.000000 0.811994 0.000000
0.000000 0.803903 0.000000
0.000000 0.801408 0.000000
0.000000 0.799129 0.000000
0.480090 0.794060 0.000000
0.784594 0.784862 0.000000
0.942796 0.763733 0.000000
1.000000 0.752853 0.000000
1.000000 0.749898 0.000000
0.000000 0.937758 0.000000
0.000000 0.933406 0.000000
0.000000 0.931924 0.000000
0.000000 0.930319 0.000000
0.381389 0.926370 0.000000
0.732768 0.920165 0.000000
0.914523 0.914547 0.000000
0.991748 0.904136 0.000000
1.000000 0.900524 0.000000
0.000000 0.996794 0.000000
0.000000 0.995228 0.000000
0.000000 0.994628 0.000000
0.000000 0.993555 0.000000
0.312605 0.990195 0.000000
0.703330 0.984691 0.000000
0.890702 0.979846 0.000000
0.976998 0.977000 0.000000
1.000000 0.973164 0.000000
0.000000 1.000000 0.000000
0.000000 1.000000 0.000000
0.000000 1.000000 0.000000
0.000000 1.000000 0.000000
0.286609 1.000000 0.000000
0.693490 1.000000 0.000000
0.881957 1.000000 0.000000
0.968431 1.000000 0.000000
1.000000 1.000000 0.000000
0.000164 0.000000 0.174514
0.045942 0.000000 0.175878
0.186659 0.000000 0.176995
0.393513 0.000000 0.147801
0.659872 0.000000 0.069386
0.877921 0.000000 0.002486
1.000000 0.000000 0.000000
1.000000 0.000000 0.000000
1.000000 0.000000 0.000000
0.000000 0.041407 0.172255
0.039122 0.039391 0.169301
0.176995 0.003023 0.168104
0.373598 0.000000 0.138597
0.635194 0.000000 0.049436
0.859965 0.000000 0.000000
0.998582 0.000000 0.000000
1.000000 0.000000 0.000000
1.000000 0.000000 0.000000
0.000000 0.169917 0.168279
0.000000 0.165644 0.164100
0.161819 0.162093 0.162022
0.367466 0.120637 0.132384
0.629951 0.003012 0.010185
0.855860 0.000000 0.000000
0.996076 0.000000 0.000000
1.000000 0.000000 0.000000
1.000000 0.000000 0.000000
0.000000 0.357826 0.101934
0.000000 0.348785 0.097867
0.004159 0.346208 0.094839
0.337414 0.338645 0.070344
0.618456 0.291942 0.005945
0.848782 0.225003 0.000000
0.990935 0.135161 0.000000
1.000000 0.114076 0.000000
1.000000 0.107777 0.000000
0.000000 0.604203 0.000000
0.000000 0.592992 0.000000
0.000000 0.589836 0.000000
0.147849 0.586641 0.000000
0.578667 0.578677 0.000000
0.825430 0.540701 0.000000
0.973133 0.514149 0.000000
1.000000 0.501280 0.000000
1.000000 0.498629 0.000000
0.000000 0.811291 0.000000
0.000000 0.803098 0.000000
0.000000 0.800551 0.000000
0.000000 0.798236 0.000000
0.478402 0.793130 0.000000
0.783619 0.783891 0.000000
0.942378 0.762649 0.000000
1.000000 0.751620 0.000000
1.000000 0.748606 0.000000
0.000000 0.937328 0.000000
0.000000 0.932938 0.000000
0.000000 0.931420 0.000000
0.000000 0.929803 0.000000
0.378450 0.925853 0.000000
0.731404 0.919625 0.000000
0.913950 0.913972 0.000000
0.991625 0.903480 0.000000
1.000000 0.899813 0.000000
0.000000 0.996623 0.000000
0.000000 0.995041 0.000000
0.000000 0.994434 0.000000
0.000000 0.993363 0.000000
0.307860 0.990017 0.000000
0.701578 0.984508 0.000000
0.889908 0.979642 0.000000
0.976771 0.976773 0.000000
1.000000 0.972900 0.000000
0.000000 1.000000 0.000000
0.000000 1.000000 0.000000
0.000000 1.000000 0.000000
0.000000 1.000000 0.000000
0.280375 1.000000 0.000000
0.691419 1.000000 0.000000
0.880996 1.000000 0.000000
0.968111 1.000000 0.000000
1.000000 1.000000 0.000000
0.000344 0.000000 0.366988
0.025242 0.000000 0.368366
0.163741 0.000000 0.372570
0.392968 0.000000 0.372566
0.661220 0.000000 0.340248
0.878649 0.000000 0.307181
1.000000 0.000000 0.286002
1.000000 0.000000 0.279471
1.000000 0.000000 0.284086
0.000000 0.022165 0.360889
0.019975 0.020663 0.355288
0.154706 0.001407 0.355557
0.372129 0.000000 0.352845
0.635665 0.000000 0.318267
0.860184 0.000000 0.280235
0.998653 0.000000 0.252521
1.000000 0.000000 0.239898
1.000000 0.000000 0.240234
0.000000 0.148299 0.361803
0.000000 0.144422 0.353919
0.141175 0.141478 0.352606
0.365649 0.118860 0.348689
0.629973 0.003006 0.313417
0.855816 0.000000 0.274030
0.996020 0.000000 0.244166
1.000000 0.000000 0.229025
1.000000 0.000000 0.227107
0.000000 0.356041 0.352386
0.000000 0.346910 0.343331
0.003996 0.344267 0.341093
0.336580 0.337808 0.337479
0.618196 0.291695 0.302179
0.848560 0.224627 0.261277
0.990803 0.134769 0.228829
1.000000 0.113432 0.210745
1.000000 0.106942 0.206591
0.000000 0.604061 0.289293
0.000000 0.592717 0.278885
0.000000 0.589483 0.275899
0.147564 0.586233 0.271854
0.578204 0.578215 0.260083
0.825108 0.540127 0.207795
0.972958 0.513484 0.141479
1.000000 0.500481 0.129661
1.000000 0.497736 0.126693
0.000000 0.811037 0.153289
0.000000 0.802768 0.139088
0.000000 0.800173 0.135553
0.000000 0.797827 0.131686
0.477576 0.792697 0.121308
0.783142 0.783414 0.100259
0.942164 0.762083 0.046094
1.000000 0.751003 0.016873
1.000000 0.747921 0.000000
0.000000 0.937127 0.078968
0.000000 0.932704 0.027558
0.000000 0.931163 0.005206
0.000000 0.929536 0.004145
0.376925 0.925585 0.000000
0.730687 0.919341 0.000000
0.913640 0.913663 0.000000
0.991558 0.903121 0.000000
1.000000 0.899412 0.000000
0.000000 0.996537 0.000000
0.000000 0.994941 0.000000
0.000000 0.994327 0.000000
0.000000 0.993257 0.000000
0.305173 0.989916 0.000000
0.700572 0.984403 0.000000
0.889450 0.979524 0.000000
0.976637 0.976639 0.000000
1.000000 0.972745 0.000000
0.000000 1.000000 0.000000
0.000000 1.000000 0.000000
0.000000 1.000000 0.000000
0.000000 1.000000 0.000000
0.276540 1.000000 0.000000
0.690156 1.000000 0.000000
0.880420 1.000000 0.000000
0.967915 1.000000 0.000000
1.000000 1.000000 0.000000
0.000581 0.000000 0.619139
0.002033 0.000000 0.619621
0.135057 0.000000 0.624065
0.364823 0.000000 0.627581
0.662728 0.000000 0.628524
0.879515 0.000000 0.603140
1.000000 0.000000 0.589584
1.000000 0.000000 0.587033
1.000000 0.000000 0.592073
0.000536 0.001234 0.610309
0.001711 0.001136 0.603701
0.125920 0.000000 0.604108
0.343400 0.000000 0.604844
0.636386 0.000000 0.603541
0.860622 0.000000 0.574723
0.998837 0.000000 0.557477
1.000000 0.000000 0.551618
1.000000 0.000000 0.553870
0.000000 0.121077 0.611818
0.000000 0.117264 0.602758
0.114344 0.114710 0.601408
0.337573 0.089693 0.600809
0.630313 0.003041 0.598365
0.855984 0.000000 0.568288
0.996075 0.000000 0.549590
1.000000 0.000000 0.542183
1.000000 0.000000 0.542862
0.000000 0.328698 0.610409
0.000000 0.319563 0.599995
0.003031 0.317089 0.597605
0.310143 0.311471 0.596084
0.618229 0.291745 0.592821
0.848567 0.224654 0.562191
0.990788 0.134707 0.542699
1.000000 0.113239 0.534352
1.000000 0.106612 0.533871
0.000000 0.604185 0.598733
0.000000 0.592753 0.587403
0.000000 0.589445 0.584232
0.147462 0.586145 0.582046
0.578091 0.578101 0.578098
0.824975 0.539954 0.546946
0.972898 0.513180 0.526710
1.000000 0.500110 0.517552
1.000000 0.497291 0.516171
0.000000 0.811003 0.553428
0.000000 0.802678 0.540006
0.000000 0.800033 0.535865
0.000000 0.797660 0.532960
0.477205 0.792490 0.528283
0.782901 0.783184 0.520266
0.942050 0.761789 0.500338
1.000000 0.750648 0.490249
1.000000 0.747495 0.488107
0.000000 0.937052 0.521172
0.000000 0.932599 0.504986
0.000000 0.931038 0.499541
0.000000 0.929395 0.495737
0.376017 0.925433 0.490125
0.730271 0.919183 0.482418
0.913456 0.913481 0.475700
0.991514 0.902891 0.464879
1.000000 0.899167 0.461912
0.000000 0.996487 0.506741
0.000000 0.994885 0.488045
0.000000 0.994265 0.481303
0.000000 0.993190 0.476558
0.303499 0.989852 0.469998
0.699935 0.984337 0.461265
0.889157 0.979449 0.453829
0.976549 0.976551 0.449717
1.000000 0.972638 0.445955
0.000000 1.000000 0.505828
0.000000 1.000000 0.485542
0.000000 1.000000 0.477668
0.000000 1.000000 0.471955
0.273946 1.000000 0.464584
0.689335 1.000000 0.455009
0.880011 1.000000 0.446759
0.967781 1.000000 0.441784
1.000000 1.000000 0.439949
0.000780 0.000000 0.830298
0.000997 0.000000 0.830057
0.112631 0.000000 0.832745
0.341392 0.000000 0.834964
0.638209 0.000000 0.835549
0.879154 0.000000 0.833785
1.000000 0.000000 0.820673
1.000000 0.000000 0.816341
1.000000 0.000000 0.818411
0.000743 0.000113 0.823142
0.000786 0.000052 0.818482
0.102315 0.000000 0.818649
0.318223 0.000000 0.819177
0.610035 0.000000 0.818504
0.859754 0.000000 0.815375
0.999099 0.000000 0.799864
1.000000 0.000000 0.793385
1.000000 0.000000 0.793851
0.000000 0.099164 0.823848
0.000000 0.095022 0.817573
0.092278 0.092730 0.816611
0.312674 0.058869 0.816247
0.603720 0.000012 0.814823
0.854864 0.000000 0.810961
0.996232 0.000000 0.794474
1.000000 0.000000 0.786982
1.000000 0.000000 0.786424
0.000000 0.305128 0.823083
0.000000 0.295530 0.815957
0.002108 0.293048 0.814292
0.286134 0.287582 0.813337
0.592296 0.266975 0.811380
0.847288 0.223370 0.807010
0.990846 0.134845 0.789997
1.000000 0.113369 0.781860
1.000000 0.106631 0.780574
0.000000 0.579377 0.816038
0.000000 0.567392 0.808439
0.000000 0.563961 0.806311
0.128010 0.560736 0.804932
0.552779 0.552790 0.802556
0.823617 0.538658 0.797746
0.972903 0.513195 0.780409
1.000000 0.500036 0.771793
1.000000 0.497149 0.769895
0.000000 0.809785 0.802412
0.000000 0.801373 0.794065
0.000000 0.798684 0.791433
0.000000 0.796266 0.789632
0.475728 0.791083 0.786864
0.781959 0.782234 0.782160
0.942014 0.761689 0.765335
1.000000 0.750509 0.756320
1.000000 0.747298 0.753946
0.000000 0.937046 0.778410
0.000000 0.932575 0.768602
0.000000 0.930996 0.765227
0.000000 0.929337 0.762937
0.375642 0.925367 0.759766
0.730055 0.919094 0.755508
0.913357 0.913383 0.751796
0.991492 0.902767 0.742606
1.000000 0.899008 0.739796
0.000000 0.996470 0.767161
0.000000 0.994857 0.756002
0.000000 0.994233 0.751933
0.000000 0.993154 0.749103
0.302491 0.989814 0.745465
0.699542 0.984297 0.740776
0.888966 0.979401 0.736877
0.976494 0.976496 0.734704
1.000000 0.972572 0.731493
0.000000 1.000000 0.765567
0.000000 1.000000 0.753528
0.000000 1.000000 0.748834
0.000000 1.000000 0.745506
0.272239 1.000000 0.741391
0.688754 1.000000 0.736282
0.879741 1.000000 0.731935
0.967685 1.000000 0.729372
1.000000 1.000000 0.728410
0.000901 0.000000 0.958582
0.000900 0.000000 0.958198
0.100039 0.000000 0.959399
0.328595 0.000000 0.960253
0.624744 0.000000 0.959821
0.865954 0.000000 0.958513
1.000000 0.000000 0.957561
1.000000 0.000000 0.951596
1.000000 0.000000 0.951068
0.000897 0.000000 0.954380
0.000894 0.000000 0.951933
0.088461 0.000000 0.951956
0.303612 0.000000 0.952052
0.594730 0.000000 0.951113
0.845048 0.000000 0.949222
0.999180 0.000000 0.947613
1.000000 0.000000 0.940213
1.000000 0.000000 0.938769
0.000000 0.086381 0.954524
0.000000 0.081869 0.951286
0.079163 0.079696 0.950749
0.297913 0.026677 0.950413
0.587927 0.000000 0.949121
0.839747 0.000000 0.946890
0.996190 0.000000 0.944913
1.000000 0.000000 0.936917
1.000000 0.000000 0.934938
0.000000 0.291400 0.953467
0.000000 0.281302 0.949872
0.001378 0.278726 0.949005
0.271785 0.273300 0.948385
0.576712 0.252075 0.946833
0.832269 0.206514 0.944350
0.990721 0.135020 0.942101
1.000000 0.113756 0.933731
1.000000 0.106984 0.931373
0.000000 0.564810 0.947471
0.000000 0.552265 0.943785
0.000000 0.548668 0.942724
0.115516 0.545457 0.941907
0.537504 0.537516 0.940158
0.808926 0.524643 0.937458
0.972703 0.513190 0.934979
1.000000 0.500242 0.926370
1.000000 0.497241 0.923697
0.000000 0.795897 0.937239
0.000000 0.786968 0.933273
0.000000 0.784092 0.931993
0.000000 0.781663 0.930999
0.461069 0.776511 0.929069
0.768260 0.768541 0.926174
0.941774 0.761485 0.923499
1.000000 0.750500 0.914721
1.000000 0.747262 0.911807
0.000000 0.936877 0.928425
0.000000 0.932366 0.923951
0.000000 0.930764 0.922388
0.000000 0.929093 0.921169
0.375322 0.925109 0.919037
0.729776 0.918830 0.915954
0.913299 0.913324 0.913316
0.991481 0.902710 0.904380
1.000000 0.898931 0.901266
0.000000 0.996472 0.917317
0.000000 0.994850 0.911956
0.000000 0.994222 0.909979
0.000000 0.993139 0.908460
0.302060 0.989793 0.906080
0.699350 0.984276 0.902787
0.888866 0.979375 0.899982
0.976460 0.976462 0.898341
1.000000 0.972528 0.895078
0.000000 1.000000 0.914310
0.000000 1.000000 0.908419
0.000000 1.000000 0.906109
0.000000 1.000000 0.904305
0.271054 1.000000 0.901696
0.688352 1.000000 0.898174
0.879548 1.000000 0.895157
0.967619 1.000000 0.893373
1.000000 1.000000 0.892665
0.000957 0.000000 1.000000
0.000957 0.000000 1.000000
0.095207 0.000000 1.000000
0.324309 0.000000 1.000000
0.620189 0.000000 1.000000
0.860206 0.000000 1.000000
0.999877 0.000000 1.000000
1.000000 0.000000 1.000000
1.000000 0.000000 1.000000
0.000955 0.000000 1.000000
0.000954 0.000000 1.000000
0.082507 0.000000 1.000000
0.297712 0.000000 1.000000
0.588552 0.000000 1.000000
0.838049 0.000000 1.000000
0.991834 0.000000 1.000000
1.000000 0.000000 1.000000
1.000000 0.000000 1.000000
0.000000 0.080894 1.000000
0.000000 0.076076 1.000000
0.073324 0.073906 1.000000
0.291591 0.023387 1.000000
0.581180 0.000000 1.000000
0.832315 0.000000 1.000000
0.988534 0.000000 1.000000
1.000000 0.000000 1.000000
1.000000 0.000000 1.000000
0.000000 0.285681 1.000000
0.000000 0.275160 1.000000
0.000841 0.272447 1.000000
0.265459 0.267013 1.000000
0.569865 0.245427 1.000000
0.824726 0.197782 1.000000
0.983000 0.129731 1.000000
1.000000 0.114417 1.000000
1.000000 0.107630 1.000000
0.000000 0.558581 1.000000
0.000000 0.545611 1.000000
0.000000 0.541871 1.000000
0.109630 0.538611 1.000000
0.530642 0.530654 1.000000
0.801436 0.517641 1.000000
0.965074 0.506352 1.000000
1.000000 0.500634 1.000000
1.000000 0.497615 0.997776
0.000000 0.789033 1.000000
0.000000 0.779704 0.999218
0.000000 0.776701 0.998865
0.000000 0.774192 0.998354
0.453735 0.769026 0.996829
0.760762 0.761046 0.994310
0.934220 0.754195 0.992101
1.000000 0.750596 0.990803
1.000000 0.747371 0.987579
0.000000 0.929927 0.991958
0.000000 0.925037 0.990646
0.000000 0.923292 0.990177
0.000000 0.921568 0.989580
0.366853 0.917574 0.987973
0.722389 0.911293 0.985378
0.905771 0.905796 0.983100
0.991414 0.902667 0.981744
1.000000 0.898931 0.978468
0.000000 0.996431 0.987446
0.000000 0.994802 0.985829
0.000000 0.994165 0.985217
0.000000 0.993074 0.984518
0.301965 0.989727 0.982820
0.699264 0.984203 0.980144
0.888765 0.979295 0.977796
0.976441 0.976444 0.976443
1.000000 0.972506 0.973109
0.000000 1.000000 0.983498
0.000000 1.000000 0.981547
0.000000 1.000000 0.980761
0.000000 1.000000 0.979943
0.270526 1.000000 0.978139
0.688138 1.000000 0.975376
0.879440 1.000000 0.972953
0.967573 1.000000 0.971525
1.000000 1.000000 0.970957
0.000978 0.000000 1.000000
0.000978 0.000000 1.000000
0.095016 0.000000 1.000000
0.325412 0.000000 1.000000
0.621061 0.000000 1.000000
0.859628 0.000000 1.000000
0.999758 0.000000 1.000000
1.000000 0.000000 1.000000
1.000000 0.000000 1.000000
0.000977 0.000000 1.000000
0.000977 0.000000 1.000000
0.081307 0.000000 1.000000
0.297291 0.000000 1.000000
0.588138 0.000000 1.000000
0.836649 0.000000 1.000000
0.989578 0.000000 1.000000
1.000000 0.000000 1.000000
1.000000 0.000000 1.000000
0.000000 0.079728 1.000000
0.000000 0.074707 1.000000
0.071865 0.072466 1.000000
0.290575 0.022424 1.000000
0.580139 0.000000 1.000000
0.830486 0.000000 1.000000
0.986042 0.000000 1.000000
1.000000 0.000000 1.000000
1.000000 0.000000 1.000000
0.000000 0.284871 1.000000
0.000000 0.274034 1.000000
0.000545 0.271211 1.000000
0.264094 0.265660 1.000000
0.568409 0.243899 1.000000
0.822636 0.195743 1.000000
0.980360 0.128483 1.000000
1.000000 0.113042 1.000000
1.000000 0.108873 1.000000
0.000000 0.557424 1.000000
0.000000 0.544222 1.000000
0.000000 0.540329 1.000000
0.108139 0.536960 1.000000
0.528898 0.528908 1.000000
0.799168 0.515870 1.000000
0.962364 0.504522 1.000000
1.000000 0.498806 1.000000
1.000000 0.498417 1.000000
0.000000 0.787144 1.000000
0.000000 0.777592 1.000000
0.000000 0.774484 1.000000
0.000000 0.771924 1.000000
0.451780 0.766707 1.000000
0.758405 0.758689 1.000000
0.931489 0.751802 1.000000
1.000000 0.748240 1.000000
1.000000 0.747725 1.000000
0.000000 0.927508 1.000000
0.000000 0.922454 1.000000
0.000000 0.920636 1.000000
0.000000 0.918866 1.000000
0.364372 0.914854 1.000000
0.719898 0.908548 1.000000
0.903017 0.903042 1.000000
0.988581 0.899962 1.000000
1.000000 0.899038 1.000000
0.000000 0.993871 1.000000
0.000000 0.992083 1.000000
0.000000 0.991385 1.000000
0.000000 0.990269 1.000000
0.298806 0.986909 1.000000
0.696673 0.981375 1.000000
0.886008 0.976462 1.000000
0.973605 0.973607 1.000000
1.000000 0.972517 1.000000
0.000000 1.000000 1.000000
0.000000 1.000000 1.000000
0.000000 1.000000 1.000000
0.000000 1.000000 1.000000
0.270650 1.000000 1.000000
0.688162 1.000000 1.000000
0.879421 1.000000 1.000000
0.967559 1.000000 1.000000
1.000000 1.000000 1.000000
