transforms/slgv4_locon_050-050.cube
#  slgv4_locon_050-050.cube
LUT_3D_SIZE 33
0.000000 0.000000 0.000000
0.005853 0.000000 0.000000
0.019023 0.000000 0.000000
0.037336 0.000000 0.000000
0.059626 0.000000 0.000000
0.086045 0.000000 0.000000
0.116216 0.000000 0.000000
0.149618 0.000000 0.000000
0.186352 0.000000 0.000000
0.227746 0.000000 0.000000
0.276433 0.000000 0.000000
0.332169 0.000000 0.000000
0.393283 0.000000 0.000000
0.458195 0.000000 0.000000
0.525424 0.000000 0.000000
0.593427 0.000000 0.000000
0.660433 0.000000 0.000000
0.723094 0.000000 0.000000
0.780918 0.000000 0.000000
0.832701 0.000000 0.000000
0.878706 0.000000 0.000000
0.919109 0.000000 0.000000
0.954316 0.000000 0.000000
0.984332 0.000000 0.000000
1.000000 0.000000 0.000000
1.000000 0.000000 0.000000
1.000000 0.000000 0.000000
1.000000 0.000000 0.000000
1.000000 0.000000 0.000000
1.000000 0.000000 0.000000
1.000000 0.000000 0.000000
1.000000 0.000000 0.000000
1.000000 0.000000 0.000000
0.000000 0.005392 0.000000
0.004796 0.004647 0.000000
0.018191 0.003047 0.000000
0.036088 0.000189 0.000000
0.057813 0.000000 0.000000
0.083501 0.000000 0.000000
0.112936 0.000000 0.000000
0.145563 0.000000 0.000000
0.181443 0.000000 0.000000
0.221618 0.000000 0.000000
0.268819 0.000000 0.000000
0.323028 0.000000 0.000000
0.382861 0.000000 0.000000
0.446731 0.000000 0.000000
0.513208 0.000000 0.000000
0.580840 0.000000 0.000000
0.647897 0.000000 0.000000
0.711178 0.000000 0.000000
0.769900 0.000000 0.000000
0.822738 0.000000 0.000000
0.869863 0.000000 0.000000
0.911363 0.000000 0.000000
0.947591 0.000000 0.000000
0.978721 0.000000 0.000000
1.000000 0.000000 0.000000
1.000000 0.000000 0.000000
1.000000 0.000000 0.000000
1.000000 0.000000 0.000000
1.000000 0.000000 0.000000
1.000000 0.000000 0.000000
1.000000 0.000000 0.000000
1.000000 0.000000 0.000000
1.000000 0.000000 0.000000
0.000000 0.017531 0.000000
0.001052 0.017142 0.000000
0.015339 0.016383 0.000000
0.035424 0.012532 0.000000
0.057290 0.007169 0.000000
0.082835 0.000000 0.000000
0.112043 0.000000 0.000000
0.144405 0.000000 0.000000
0.179954 0.000000 0.000000
0.219688 0.000000 0.000000
0.266307 0.000000 0.000000
0.319875 0.000000 0.000000
0.379163 0.000000 0.000000
0.442543 0.000000 0.000000
0.508609 0.000000 0.000000
0.575981 0.000000 0.000000
0.642968 0.000000 0.000000
0.706378 0.000000 0.000000
0.765372 0.000000 0.000000
0.818566 0.000000 0.000000
0.866093 0.000000 0.000000
0.908008 0.000000 0.000000
0.944637 0.000000 0.000000
0.976224 0.000000 0.000000
0.999868 0.000000 0.000000
1.000000 0.000000 0.000000
1.000000 0.000000 0.000000
1.000000 0.000000 0.000000
1.000000 0.000000 0.000000
1.000000 0.000000 0.000000
1.000000 0.000000 0.000000
1.000000 0.000000 0.000000
1.000000 0.000000 0.000000
0.000000 0.034420 0.000000
0.000000 0.033804 0.000000
0.007269 0.033551 0.000000
0.032540 0.032907 0.000000
0.056134 0.028963 0.000000
0.082110 0.021445 0.000000
0.111427 0.007548 0.000000
0.143765 0.000000 0.000000
0.179199 0.000000 0.000000
0.218703 0.000000 0.000000
0.265024 0.000000 0.000000
0.318238 0.000000 0.000000
0.377180 0.000000 0.000000
0.440254 0.000000 0.000000
0.506062 0.000000 0.000000
0.573236 0.000000 0.000000
0.640111 0.000000 0.000000
0.703549 0.000000 0.000000
0.762680 0.000000 0.000000
0.816058 0.000000 0.000000
0.863798 0.000000 0.000000
0.905944 0.000000 0.000000
0.942793 0.000000 0.000000
0.974650 0.000000 0.000000
0.999741 0.000000 0.000000
1.000000 0.000000 0.000000
1.000000 0.000000 0.000000
1.000000 0.000000 0.000000
1.000000 0.000000 0.000000
1.000000 0.000000 0.000000
1.000000 0.000000 0.000000
1.000000 0.000000 0.000000
1.000000 0.000000 0.000000
0.000000 0.054973 0.000000
0.000000 0.054102 0.000000
0.000000 0.053785 0.000000
0.021269 0.053469 0.000000
0.052405 0.052613 0.000000
0.080227 0.048319 0.000000
0.110264 0.041558 0.000000
0.142907 0.028777 0.000000
0.178474 0.003091 0.000000
0.217996 0.001906 0.000000
0.264190 0.000199 0.000000
0.317228 0.000000 0.000000
0.375994 0.000000 0.000000
0.438875 0.000000 0.000000
0.504502 0.000000 0.000000
0.571533 0.000000 0.000000
0.638287 0.000000 0.000000
0.701735 0.000000 0.000000
0.760942 0.000000 0.000000
0.814412 0.000000 0.000000
0.862277 0.000000 0.000000
0.904576 0.000000 0.000000
0.941560 0.000000 0.000000
0.973586 0.000000 0.000000
0.999634 0.000000 0.000000
1.000000 0.000000 0.000000
1.000000 0.000000 0.000000
1.000000 0.000000 0.000000
1.000000 0.000000 0.000000
1.000000 0.000000 0.000000
1.000000 0.000000 0.000000
1.000000 0.000000 0.000000
1.000000 0.000000 0.000000
0.000000 0.079280 0.000000
0.000000 0.078094 0.000000
0.000000 0.077647 0.000000
0.000000 0.077336 0.000000
0.037593 0.076889 0.000000
0.075240 0.075650 0.000000
0.107591 0.071055 0.000000
0.141177 0.064364 0.000000
0.177237 0.054434 0.000000
0.217019 0.036602 0.000000
0.263335 0.010547 0.000000
0.316390 0.001707 0.000000
0.375098 0.000000 0.000000
0.437894 0.000000 0.000000
0.503428 0.000000 0.000000
0.570370 0.000000 0.000000
0.637064 0.000000 0.000000
0.700518 0.000000 0.000000
0.759730 0.000000 0.000000
0.813258 0.000000 0.000000
0.861203 0.000000 0.000000
0.903582 0.000000 0.000000
0.940675 0.000000 0.000000
0.972799 0.000000 0.000000
0.999185 0.000000 0.000000
1.000000 0.000000 0.000000
1.000000 0.000000 0.000000
1.000000 0.000000 0.000000
1.000000 0.000000 0.000000
1.000000 0.000000 0.000000
1.000000 0.000000 0.000000
1.000000 0.000000 0.000000
1.000000 0.000000 0.000000
0.000000 0.107063 0.000000
0.000000 0.105561 0.000000
0.000000 0.104969 0.000000
0.000000 0.104598 0.000000
0.003460 0.104238 0.000000
0.061066 0.103646 0.000000
0.101690 0.102145 0.000000
0.137778 0.097246 0.000000
0.174924 0.090402 0.000000
0.215351 0.081130 0.000000
0.262049 0.065401 0.000000
0.315304 0.024211 0.000000
0.374138 0.008054 0.000000
0.436985 0.002793 0.000000
0.502511 0.000000 0.000000
0.569426 0.000000 0.000000
0.636114 0.000000 0.000000
0.699557 0.000000 0.000000
0.758804 0.000000 0.000000
0.812380 0.000000 0.000000
0.860374 0.000000 0.000000
0.902808 0.000000 0.000000
0.939980 0.000000 0.000000
0.972185 0.000000 0.000000
0.998663 0.000000 0.000000
1.000000 0.000000 0.000000
1.000000 0.000000 0.000000
1.000000 0.000000 0.000000
1.000000 0.000000 0.000000
1.000000 0.000000 0.000000
1.000000 0.000000 0.000000
1.000000 0.000000 0.000000
1.000000 0.000000 0.000000
0.000000 0.137810 0.000000
0.000000 0.135997 0.000000
0.000000 0.135239 0.000000
0.000000 0.134792 0.000000
0.001572 0.134430 0.000000
0.032683 0.133969 0.000000
0.087808 0.133245 0.000000
0.131202 0.131608 0.000000
0.170878 0.126287 0.000000
0.212507 0.119017 0.000000
0.259951 0.108700 0.000000
0.313711 0.092997 0.000000
0.372859 0.061203 0.000000
0.435901 0.028128 0.000000
0.501539 0.006622 0.000000
0.568502 0.000000 0.000000
0.635214 0.000000 0.000000
0.698692 0.000000 0.000000
0.757971 0.000000 0.000000
0.811605 0.000000 0.000000
0.859669 0.000000 0.000000
0.902159 0.000000 0.000000
0.939378 0.000000 0.000000
0.971645 0.000000 0.000000
0.998198 0.000000 0.000000
1.000000 0.000000 0.000000
1.000000 0.000000 0.000000
1.000000 0.000000 0.000000
1.000000 0.000000 0.000000
1.000000 0.000000 0.000000
1.000000 0.000000 0.000000
1.000000 0.000000 0.000000
1.000000 0.000000 0.000000
0.000000 0.171598 0.000000
0.000000 0.169433 0.000000
0.000000 0.168490 0.000000
0.000000 0.167931 0.000000
0.000000 0.167530 0.000000
0.006965 0.167112 0.000000
0.061439 0.166558 0.000000
0.116983 0.165716 0.000000
0.163798 0.164076 0.000000
0.207877 0.158037 0.000000
0.256610 0.149586 0.000000
0.311228 0.138140 0.000000
0.370963 0.122140 0.000000
0.434383 0.097463 0.000000
0.500262 0.056244 0.000000
0.567398 0.008196 0.000000
0.634254 0.003602 0.000000
0.697783 0.000606 0.000000
0.757128 0.000000 0.000000
0.810823 0.000000 0.000000
0.858945 0.000000 0.000000
0.901497 0.000000 0.000000
0.938773 0.000000 0.000000
0.971096 0.000000 0.000000
0.997709 0.000000 0.000000
1.000000 0.000000 0.000000
1.000000 0.000000 0.000000
1.000000 0.000000 0.000000
1.000000 0.000000 0.000000
1.000000 0.000000 0.000000
1.000000 0.000000 0.000000
1.000000 0.000000 0.000000
1.000000 0.000000 0.000000
0.000000 0.209510 0.000000
0.000000 0.206849 0.000000
0.000000 0.205653 0.000000
0.000000 0.204930 0.000000
0.000000 0.204455 0.000000
0.000003 0.204013 0.000000
0.013001 0.203526 0.000000
0.092491 0.202872 0.000000
0.148626 0.201910 0.000000
0.200491 0.200493 0.000000
0.251350 0.192960 0.000000
0.307390 0.183352 0.000000
0.368095 0.171036 0.000000
0.432177 0.155145 0.000000
0.498492 0.133903 0.000000
0.565908 0.101489 0.000000
0.632976 0.044602 0.000000
0.696643 0.007504 0.000000
0.756101 0.000000 0.000000
0.809885 0.000000 0.000000
0.858082 0.000000 0.000000
0.900707 0.000000 0.000000
0.938056 0.000000 0.000000
0.970438 0.000000 0.000000
0.997104 0.000000 0.000000
1.000000 0.000000 0.000000
1.000000 0.000000 0.000000
1.000000 0.000000 0.000000
1.000000 0.000000 0.000000
1.000000 0.000000 0.000000
1.000000 0.000000 0.000000
1.000000 0.000000 0.000000
1.000000 0.000000 0.000000
0.000000 0.254008 0.000000
0.000000 0.250747 0.000000
0.000000 0.249242 0.000000
0.000000 0.248324 0.000000
0.000000 0.247709 0.000000
0.000000 0.247211 0.000000
0.001357 0.246738 0.000000
0.023137 0.246165 0.000000
0.120921 0.245402 0.000000
0.182067 0.244326 0.000000
0.241643 0.242047 0.000000
0.300804 0.233929 0.000000
0.363214 0.223313 0.000000
0.428453 0.210445 0.000000
0.495577 0.194764 0.000000
0.563566 0.175119 0.000000
0.630991 0.149411 0.000000
0.694916 0.118898 0.000000
0.754591 0.075776 0.000000
0.808534 0.028049 0.000000
0.856849 0.000000 0.000000
0.899569 0.000000 0.000000
0.936997 0.000000 0.000000
0.969465 0.000000 0.000000
0.996190 0.000000 0.000000
1.000000 0.000000 0.000000
1.000000 0.000000 0.000000
1.000000 0.000000 0.000000
1.000000 0.000000 0.000000
1.000000 0.000000 0.000000
1.000000 0.000000 0.000000
1.000000 0.000000 0.000000
1.000000 0.000000 0.000000
0.000000 0.305008 0.000000
0.000000 0.301127 0.000000
0.000000 0.299307 0.000000
0.000000 0.298155 0.000000
0.000000 0.297394 0.000000
0.000000 0.296808 0.000000
0.000000 0.296286 0.000000
0.003421 0.295747 0.000000
0.035685 0.295098 0.000000
0.151279 0.294245 0.000000
0.220589 0.292914 0.000000
0.288782 0.289665 0.000000
0.355334 0.281301 0.000000
0.422488 0.270105 0.000000
0.490919 0.257140 0.000000
0.559827 0.242180 0.000000
0.627915 0.225009 0.000000
0.692268 0.204488 0.000000
0.752287 0.178650 0.000000
0.806468 0.150268 0.000000
0.854965 0.125328 0.000000
0.897849 0.105222 0.000000
0.935405 0.080751 0.000000
0.967971 0.045306 0.000000
0.994773 0.003659 0.000000
1.000000 0.000000 0.000000
1.000000 0.000000 0.000000
1.000000 0.000000 0.000000
1.000000 0.000000 0.000000
1.000000 0.000000 0.000000
1.000000 0.000000 0.000000
1.000000 0.000000 0.000000
1.000000 0.000000 0.000000
0.000000 0.361180 0.000000
0.000000 0.356781 0.000000
0.000000 0.354674 0.000000
0.000000 0.353319 0.000000
0.000000 0.352421 0.000000
0.000000 0.351741 0.000000
0.000000 0.351161 0.000000
0.000000 0.350625 0.000000
0.004215 0.350053 0.000000
0.052192 0.349315 0.000000
0.182024 0.348275 0.000000
0.266018 0.346699 0.000000
0.341349 0.342585 0.000000
0.413455 0.334238 0.000000
0.483933 0.322776 0.000000
0.554243 0.310044 0.000000
0.623323 0.296067 0.000000
0.688352 0.280804 0.000000
0.748858 0.264681 0.000000
0.803417 0.248071 0.000000
0.852208 0.230860 0.000000
0.895311 0.212801 0.000000
0.933038 0.193021 0.000000
0.965742 0.168513 0.000000
0.992668 0.141838 0.000000
1.000000 0.133829 0.000000
1.000000 0.128549 0.000000
1.000000 0.124160 0.000000
1.000000 0.120755 0.000000
1.000000 0.118287 0.000000
1.000000 0.116661 0.000000
1.000000 0.115740 0.000000
1.000000 0.115515 0.000000
0.000000 0.421002 0.000000
0.000000 0.416192 0.000000
0.000000 0.413844 0.000000
0.000000 0.412315 0.000000
0.000000 0.411270 0.000000
0.000000 0.410511 0.000000
0.000000 0.409868 0.000000
0.000000 0.409310 0.000000
0.000000 0.408769 0.000000
0.000000 0.408113 0.000000
0.123824 0.407259 0.000000
0.229139 0.405987 0.000000
0.318031 0.404198 0.000000
0.398323 0.399616 0.000000
0.474028 0.391230 0.000000
0.546390 0.379763 0.000000
0.616879 0.367498 0.000000
0.682872 0.354656 0.000000
0.744084 0.341648 0.000000
0.799164 0.328908 0.000000
0.848352 0.316545 0.000000
0.891764 0.304705 0.000000
0.929733 0.293517 0.000000
0.962631 0.283102 0.000000
0.989708 0.273931 0.000000
1.000000 0.265807 0.000000
1.000000 0.259091 0.000000
1.000000 0.253569 0.000000
1.000000 0.249366 0.000000
1.000000 0.246356 0.000000
1.000000 0.244441 0.000000
1.000000 0.243411 0.000000
1.000000 0.243235 0.000000
0.000000 0.483128 0.000000
0.000000 0.478028 0.000000
0.000000 0.475497 0.000000
0.000000 0.473825 0.000000
0.000000 0.472658 0.000000
0.000000 0.471817 0.000000
0.000000 0.471122 0.000000
0.000000 0.470535 0.000000
0.000000 0.469983 0.000000
0.000000 0.469391 0.000000
0.055197 0.468644 0.000000
0.176663 0.467583 0.000000
0.283294 0.466132 0.000000
0.375052 0.464182 0.000000
0.458622 0.459672 0.000000
0.535859 0.450983 0.000000
0.608293 0.439742 0.000000
0.675573 0.428267 0.000000
0.737747 0.416905 0.000000
0.793525 0.406021 0.000000
0.843237 0.395718 0.000000
0.887057 0.386121 0.000000
0.925344 0.377293 0.000000
0.958499 0.369302 0.000000
0.985765 0.362527 0.000000
1.000000 0.356711 0.000000
1.000000 0.352052 0.000000
1.000000 0.348331 0.000000
1.000000 0.345594 0.000000
1.000000 0.343696 0.000000
1.000000 0.342581 0.000000
1.000000 0.342079 0.000000
1.000000 0.342122 0.000000
0.000000 0.546213 0.000000
0.000000 0.540976 0.000000
0.000000 0.538337 0.000000
0.000000 0.536565 0.000000
0.000000 0.535335 0.000000
0.000000 0.534406 0.000000
0.000000 0.533679 0.000000
0.000000 0.533073 0.000000
0.000000 0.532490 0.000000
0.000000 0.531934 0.000000
0.000000 0.531254 0.000000
0.104371 0.530346 0.000000
0.232029 0.529125 0.000000
0.342831 0.527512 0.000000
0.435529 0.525442 0.000000
0.521086 0.521645 0.000000
0.597349 0.512311 0.000000
0.666283 0.501665 0.000000
0.729689 0.491282 0.000000
0.786378 0.481468 0.000000
0.836769 0.472309 0.000000
0.881099 0.463899 0.000000
0.919781 0.456262 0.000000
0.953256 0.449481 0.000000
0.980763 0.443772 0.000000
0.999335 0.438950 0.000000
1.000000 0.435108 0.000000
1.000000 0.432114 0.000000
1.000000 0.429904 0.000000
1.000000 0.428414 0.000000
1.000000 0.427552 0.000000
1.000000 0.427226 0.000000
1.000000 0.427331 0.000000
0.000000 0.608661 0.000000
0.000000 0.603456 0.000000
0.000000 0.600810 0.000000
0.000000 0.599002 0.000000
0.000000 0.597726 0.000000
0.000000 0.596780 0.000000
0.000000 0.596014 0.000000
0.000000 0.595379 0.000000
0.000000 0.594805 0.000000
0.000000 0.594252 0.000000
0.000000 0.593639 0.000000
0.000324 0.592820 0.000000
0.151259 0.591766 0.000000
0.301632 0.590386 0.000000
0.405740 0.588631 0.000000
0.498039 0.586486 0.000000
0.583932 0.583942 0.000000
0.654960 0.573835 0.000000
0.719881 0.564051 0.000000
0.777683 0.554921 0.000000
0.828912 0.546469 0.000000
0.873880 0.538749 0.000000
0.913053 0.531815 0.000000
0.946914 0.525677 0.000000
0.974699 0.520575 0.000000
0.998038 0.516291 0.000000
1.000000 0.512896 0.000000
1.000000 0.510230 0.000000
1.000000 0.508287 0.000000
1.000000 0.506987 0.000000
1.000000 0.506229 0.000000
1.000000 0.505950 0.000000
1.000000 0.506073 0.000000
0.000000 0.667434 0.000000
0.000000 0.662517 0.000000
0.000000 0.659950 0.000000
0.000000 0.658207 0.000000
0.000000 0.656977 0.000000
0.000000 0.656030 0.000000
0.000000 0.655258 0.000000
0.000000 0.654640 0.000000
0.000000 0.654083 0.000000
0.000000 0.653531 0.000000
0.000000 0.652940 0.000000
0.000000 0.652201 0.000000
0.094524 0.651250 0.000000
0.236221 0.650029 0.000000
0.369280 0.648499 0.000000
0.470172 0.646634 0.000000
0.560583 0.644425 0.000000
0.640237 0.640691 0.000000
0.708253 0.632493 0.000000
0.767414 0.623738 0.000000
0.819654 0.615687 0.000000
0.865375 0.608388 0.000000
0.905115 0.601860 0.000000
0.939430 0.596105 0.000000
0.967556 0.591337 0.000000
0.991173 0.587339 0.000000
1.000000 0.584144 0.000000
1.000000 0.581647 0.000000
1.000000 0.579826 0.000000
1.000000 0.578594 0.000000
1.000000 0.577853 0.000000
1.000000 0.577529 0.000000
1.000000 0.577573 0.000000
0.000000 0.721943 0.000000
0.000000 0.717394 0.000000
0.000000 0.715012 0.000000
0.000000 0.713388 0.000000
0.000000 0.712207 0.000000
0.000000 0.711287 0.000000
0.000000 0.710568 0.000000
0.000000 0.709963 0.000000
0.000000 0.709421 0.000000
0.000000 0.708901 0.000000
0.000000 0.708354 0.000000
0.000000 0.707666 0.000000
0.027166 0.706804 0.000000
0.157533 0.705716 0.000000
0.325597 0.704350 0.000000
0.439710 0.702684 0.000000
0.535940 0.700727 0.000000
0.619893 0.698486 0.000000
0.693871 0.694393 0.000000
0.756278 0.687649 0.000000
0.809626 0.679876 0.000000
0.856178 0.672863 0.000000
0.896550 0.666610 0.000000
0.931348 0.661111 0.000000
0.959846 0.656560 0.000000
0.983765 0.652721 0.000000
0.999662 0.649655 0.000000
1.000000 0.647280 0.000000
1.000000 0.645494 0.000000
1.000000 0.644280 0.000000
1.000000 0.643524 0.000000
1.000000 0.643149 0.000000
1.000000 0.643109 0.000000
0.000000 0.770952 0.000000
0.000000 0.766842 0.000000
0.000000 0.764669 0.000000
0.000000 0.763181 0.000000
0.000000 0.762073 0.000000
0.000000 0.761215 0.000000
0.000000 0.760547 0.000000
0.000000 0.759979 0.000000
0.000000 0.759468 0.000000
0.000000 0.758976 0.000000
0.000000 0.758470 0.000000
0.000000 0.757832 0.000000
0.000000 0.757046 0.000000
0.103680 0.756052 0.000000
0.270416 0.754807 0.000000
0.407335 0.753296 0.000000
0.510826 0.751530 0.000000
0.598327 0.749503 0.000000
0.676397 0.747363 0.000000
0.743088 0.743502 0.000000
0.799319 0.737649 0.000000
0.846734 0.730824 0.000000
0.887767 0.724759 0.000000
0.923070 0.719431 0.000000
0.951952 0.715007 0.000000
0.976176 0.711288 0.000000
0.995213 0.708308 0.000000
1.000000 0.705980 0.000000
1.000000 0.704221 0.000000
1.000000 0.702982 0.000000
1.000000 0.702200 0.000000
1.000000 0.701761 0.000000
1.000000 0.701640 0.000000
0.000000 0.814632 0.000000
0.000000 0.810994 0.000000
0.000000 0.809048 0.000000
0.000000 0.807700 0.000000
0.000000 0.806703 0.000000
0.000000 0.805917 0.000000
0.000000 0.805296 0.000000
0.000000 0.804771 0.000000
0.000000 0.804303 0.000000
0.000000 0.803840 0.000000
0.000000 0.803365 0.000000
0.000000 0.802786 0.000000
0.000000 0.802060 0.000000
0.052614 0.801139 0.000000
0.187750 0.799990 0.000000
0.372930 0.798605 0.000000
0.485529 0.796986 0.000000
0.577049 0.795128 0.000000
0.657692 0.793159 0.000000
0.727801 0.791184 0.000000
0.787633 0.787891 0.000000
0.837289 0.782566 0.000000
0.878994 0.776624 0.000000
0.914809 0.771415 0.000000
0.944076 0.767073 0.000000
0.968597 0.763442 0.000000
0.988356 0.760516 0.000000
1.000000 0.758200 0.000000
1.000000 0.756457 0.000000
1.000000 0.755182 0.000000
1.000000 0.754366 0.000000
1.000000 0.753860 0.000000
1.000000 0.753658 0.000000
0.000000 0.853091 0.000000
0.000000 0.849910 0.000000
0.000000 0.848207 0.000000
0.000000 0.847003 0.000000
0.000000 0.846130 0.000000
0.000000 0.845413 0.000000
0.000000 0.844853 0.000000
0.000000 0.844364 0.000000
0.000000 0.843936 0.000000
0.000000 0.843513 0.000000
0.000000 0.843066 0.000000
0.000000 0.842545 0.000000
0.000000 0.841870 0.000000
0.000000 0.841012 0.000000
0.102043 0.839947 0.000000
0.336273 0.838661 0.000000
0.460423 0.837153 0.000000
0.556387 0.835426 0.000000
0.639807 0.833595 0.000000
0.711679 0.831748 0.000000
0.774073 0.829942 0.000000
0.827224 0.827355 0.000000
0.870459 0.822365 0.000000
0.906776 0.817239 0.000000
0.936417 0.812964 0.000000
0.961225 0.809380 0.000000
0.981213 0.806486 0.000000
0.997307 0.804180 0.000000
1.000000 0.802430 0.000000
1.000000 0.801132 0.000000
1.000000 0.800271 0.000000
1.000000 0.799705 0.000000
1.000000 0.799424 0.000000
0.000000 0.886685 0.000000
0.000000 0.883930 0.000000
0.000000 0.882445 0.000000
0.000000 0.881385 0.000000
0.000000 0.880598 0.000000
0.000000 0.879970 0.000000
0.000000 0.879475 0.000000
0.000000 0.879042 0.000000
0.000000 0.878647 0.000000
0.000000 0.878268 0.000000
0.000000 0.877860 0.000000
0.000000 0.877379 0.000000
0.000000 0.876750 0.000000
0.000000 0.875948 0.000000
0.088134 0.874951 0.000000
0.296693 0.873741 0.000000
0.435802 0.872312 0.000000
0.536600 0.870687 0.000000
0.622953 0.868964 0.000000
0.696643 0.867226 0.000000
0.760232 0.865523 0.000000
0.815080 0.863898 0.000000
0.861939 0.861984 0.000000
0.899123 0.857304 0.000000
0.929123 0.853083 0.000000
0.954212 0.849533 0.000000
0.974422 0.846659 0.000000
0.990680 0.844361 0.000000
1.000000 0.842600 0.000000
1.000000 0.841277 0.000000
1.000000 0.840373 0.000000
1.000000 0.839751 0.000000
1.000000 0.839395 0.000000
0.000000 0.915544 0.000000
0.000000 0.913256 0.000000
0.000000 0.911988 0.000000
0.000000 0.911091 0.000000
0.000000 0.910429 0.000000
0.000000 0.909897 0.000000
0.000000 0.909453 0.000000
0.000000 0.909076 0.000000
0.000000 0.908739 0.000000
0.000000 0.908399 0.000000
0.000000 0.908029 0.000000
0.000000 0.907572 0.000000
0.000000 0.906984 0.000000
0.000000 0.906233 0.000000
0.072412 0.905295 0.000000
0.252602 0.904154 0.000000
0.411915 0.902803 0.000000
0.517993 0.901263 0.000000
0.607329 0.899628 0.000000
0.682805 0.897976 0.000000
0.747586 0.896350 0.000000
0.803267 0.894794 0.000000
0.851092 0.893343 0.000000
0.892002 0.892002 0.000000
0.922335 0.887834 0.000000
0.947699 0.884294 0.000000
0.968099 0.881444 0.000000
0.984518 0.879148 0.000000
0.997372 0.877373 0.000000
1.000000 0.876030 0.000000
1.000000 0.875091 0.000000
1.000000 0.874425 0.000000
1.000000 0.874000 0.000000
0.000000 0.939174 0.000000
0.000000 0.937277 0.000000
0.000000 0.936230 0.000000
0.000000 0.935477 0.000000
0.000000 0.934915 0.000000
0.000000 0.934462 0.000000
0.000000 0.934092 0.000000
0.000000 0.933773 0.000000
0.000000 0.933477 0.000000
0.000000 0.933182 0.000000
0.000000 0.932851 0.000000
0.000000 0.932432 0.000000
0.000000 0.931885 0.000000
0.000000 0.931178 0.000000
0.052990 0.930283 0.000000
0.199385 0.929187 0.000000
0.390025 0.927895 0.000000
0.501416 0.926422 0.000000
0.593669 0.924856 0.000000
0.670847 0.923278 0.000000
0.736708 0.921721 0.000000
0.793097 0.920225 0.000000
0.841447 0.918827 0.000000
0.882760 0.917534 0.000000
0.916164 0.916187 0.000000
0.941985 0.912915 0.000000
0.962563 0.910073 0.000000
0.979111 0.907776 0.000000
0.992074 0.905989 0.000000
1.000000 0.904640 0.000000
1.000000 0.903656 0.000000
1.000000 0.902956 0.000000
1.000000 0.902485 0.000000
0.000000 0.958872 0.000000
0.000000 0.957373 0.000000
0.000000 0.956525 0.000000
0.000000 0.955924 0.000000
0.000000 0.955464 0.000000
0.000000 0.955098 0.000000
0.000000 0.954791 0.000000
0.000000 0.954522 0.000000
0.000000 0.954270 0.000000
0.000000 0.954013 0.000000
0.000000 0.953708 0.000000
0.000000 0.953323 0.000000
0.000000 0.952811 0.000000
0.000000 0.952142 0.000000
0.006872 0.951293 0.000000
0.078209 0.950251 0.000000
0.369702 0.949013 0.000000
0.486652 0.947594 0.000000
0.581701 0.946085 0.000000
0.660431 0.944558 0.000000
0.727262 0.943055 0.000000
0.784298 0.941613 0.000000
0.833112 0.940259 0.000000
0.874758 0.939006 0.000000
0.908650 0.937930 0.000000
0.936671 0.936691 0.000000
0.957704 0.934155 0.000000
0.974366 0.931858 0.000000
0.987416 0.930062 0.000000
0.997364 0.928695 0.000000
1.000000 0.927692 0.000000
1.000000 0.926957 0.000000
1.000000 0.926452 0.000000
0.000000 0.974697 0.000000
0.000000 0.973515 0.000000
0.000000 0.972856 0.000000
0.000000 0.972379 0.000000
0.000000 0.972011 0.000000
0.000000 0.971718 0.000000
0.000000 0.971474 0.000000
0.000000 0.971254 0.000000
0.000000 0.971049 0.000000
0.000000 0.970837 0.000000
0.000000 0.970569 0.000000
0.000000 0.970216 0.000000
0.000000 0.969736 0.000000
0.000000 0.969100 0.000000
0.000000 0.968288 0.000000
0.057787 0.967285 0.000000
0.352255 0.966090 0.000000
0.474179 0.964716 0.000000
0.571755 0.963254 0.000000
0.651804 0.961776 0.000000
0.719450 0.960315 0.000000
0.777052 0.958910 0.000000
0.826244 0.957590 0.000000
0.868159 0.956375 0.000000
0.902243 0.955322 0.000000
0.930722 0.954401 0.000000
0.953369 0.953380 0.000000
0.970389 0.951348 0.000000
0.983504 0.949555 0.000000
