transforms/slog3_td_style.cube
TITLE "Generated by Resolve"
LUT_3D_SIZE 33
0.000183108 0.000381476 0.000518807
0.00077821 0.000350958 0.000411994
0.00453193 0.00125124 0.00125124
0.0118868 0.00314336 0.00314336
0.0204013 0.00537118 0.00537118
0.029984 0.00753796 0.00753796
0.0419623 0.0101472 0.0101472
0.0565194 0.0127871 0.0127871
0.0749828 0.0156405 0.01561
0.0989548 0.0185702 0.0184787
0.130571 0.0213321 0.0211643
0.171633 0.0233616 0.0230564
0.223102 0.0244297 0.0239261
0.282017 0.0239567 0.0231632
0.346914 0.0221561 0.0209964
0.417395 0.0192416 0.0176394
0.491798 0.0152895 0.0131533
0.568551 0.0108949 0.00819409
0.647303 0.00619516 0.0028687
0.72578 0.00128176 0
0.801511 0 0
0.869886 0 0
0.928862 0 0
0.971389 0 0
0.988739 0 0
0.99118 0 0
0.99118 0 0
0.99118 0 0
0.99118 0 0
0.99118 0 0
0.99118 0 0
0.99118 0 0
0.99118 0 0
0.00311284 0.00588998 0.00381476
0.00360113 0.00560006 0.00340276
0.00717174 0.00601205 0.0037995
0.0142824 0.00726329 0.00538643
0.0224155 0.00859083 0.00700389
0.0321202 0.0104677 0.00906386
0.0436255 0.0120394 0.0110781
0.0579843 0.0136721 0.0134127
0.075761 0.0158389 0.0157778
0.0999771 0.018677 0.0186007
0.132235 0.0214542 0.0212863
0.174029 0.0234531 0.0231479
0.22565 0.0244602 0.0239414
0.284459 0.0239109 0.0231022
0.349722 0.0220188 0.0208286
0.421256 0.0190738 0.0174411
0.495995 0.0150759 0.0129091
0.572473 0.0106355 0.00790417
0.651621 0.00593576 0.00257877
0.730144 0.00103761 0
0.805661 0 0
0.873732 0 0
0.932052 0 0
0.973083 0 0
0.989181 0 0
0.99118 0 0
0.99118 0 0
0.99118 0 0
0.99118 0 0
0.99118 0 0
0.99118 0 0
0.99118 0 0
0.99118 0 0
0.00895705 0.0180819 0.00985733
0.00947585 0.0176699 0.00932326
0.0130312 0.0175021 0.00933852
0.0198367 0.0177768 0.0102235
0.027985 0.0181888 0.0113222
0.0375067 0.018967 0.0127718
0.0489052 0.0194095 0.0141756
0.0628672 0.0194247 0.0156405
0.0802014 0.0199741 0.0175021
0.10277 0.0204929 0.0193637
0.13431 0.0219272 0.0216068
0.176059 0.0235752 0.0232242
0.227665 0.0244755 0.0239567
0.286381 0.0238804 0.0230564
0.352087 0.0219425 0.020737
0.424109 0.0189517 0.0172885
0.498939 0.0149233 0.0127413
0.576288 0.0104219 0.00766003
0.655726 0.00570687 0.00231937
0.734188 0.000808728 0
0.809491 0 0
0.877012 0 0
0.934142 0 0
0.973037 0 0
0.988876 0 0
0.991119 0 0
0.99118 0 0
0.99118 0 0
0.99118 0 0
0.99118 0 0
0.99118 0 0
0.99118 0 0
0.99118 0 0
0.0145571 0.0333104 0.0155795
0.0151217 0.0327459 0.0149386
0.0189059 0.0324254 0.0148775
0.0260624 0.0320592 0.0154574
0.0348669 0.0323491 0.0163424
0.0445563 0.0323033 0.0171664
0.0567636 0.0320287 0.0182345
0.0715343 0.0311589 0.0192264
0.0886549 0.0296025 0.0200198
0.110735 0.0274662 0.021088
0.139544 0.0250553 0.0222324
0.179507 0.0244297 0.0235599
0.229816 0.0245975 0.0239414
0.288533 0.0238499 0.0230106
0.354879 0.0218509 0.0206302
0.426246 0.0188296 0.0171511
0.501335 0.0148013 0.0125887
0.579431 0.0102541 0.00746166
0.659205 0.00547799 0.00207523
0.737514 0.00062562 0
0.81236 0 0
0.879774 0 0
0.935714 0 0
0.973053 0 0
0.988647 0 0
0.991073 0 0
0.99118 0 0
0.99118 0 0
0.99118 0 0
0.99118 0 0
0.99118 0 0
0.99118 0 0
0.99118 0 0
0.0188144 0.0505684 0.0200198
0.0195163 0.0499886 0.0193942
0.0235142 0.0491646 0.0191653
0.0311131 0.0488289 0.0195621
0.0406806 0.0488594 0.0201877
0.0513924 0.0487221 0.0207065
0.0646677 0.047837 0.0211795
0.0807813 0.0463264 0.0218967
0.0995804 0.0437629 0.0222629
0.122881 0.0400244 0.0227207
0.151186 0.034226 0.0231937
0.186633 0.0284581 0.0238041
0.232914 0.025391 0.0239719
0.290974 0.0239414 0.0229496
0.357519 0.0217594 0.0205234
0.428458 0.0186465 0.016968
0.504158 0.0146487 0.0124208
0.582864 0.0100557 0.00724804
0.662333 0.00520333 0.00175479
0.741131 0.000411994 0
0.815442 0 0
0.882734 0 0
0.937652 0 0
0.973724 0 0
0.988571 0 0
0.991043 0 0
0.99118 0 0
0.99118 0 0
0.99118 0 0
0.99118 0 0
0.99118 0 0
0.99118 0 0
0.99118 0 0
0.021149 0.0706951 0.0226444
0.0219577 0.0700084 0.022034
0.0263218 0.0691539 0.0217594
0.0346227 0.0687877 0.021912
0.0451514 0.0690318 0.0221561
0.057023 0.0684977 0.0222629
0.0720226 0.0677043 0.0222934
0.090074 0.0659648 0.0225528
0.111101 0.0626993 0.022385
0.137057 0.0579538 0.0224765
0.168002 0.0497749 0.022797
0.202075 0.0391852 0.023331
0.242634 0.0301976 0.0235904
0.295705 0.024979 0.0229191
0.360418 0.0218051 0.0203861
0.430686 0.0184939 0.0167849
0.506874 0.0145113 0.0122683
0.585702 0.0099031 0.00706493
0.664805 0.0049897 0.00154116
0.743938 0.000259403 0
0.81828 0 0
0.885328 0 0
0.939879 0 0
0.974838 0 0
0.988739 0 0
0.991073 0 0
0.99118 0 0
0.99118 0 0
0.99118 0 0
0.99118 0 0
0.99118 0 0
0.99118 0 0
0.99118 0 0
0.0208591 0.0951858 0.0227207
0.0217594 0.0943923 0.0221103
0.0263066 0.0939956 0.021622
0.0354162 0.093431 0.0215
0.0469673 0.0934157 0.021149
0.0602731 0.0932479 0.0207828
0.0769665 0.092134 0.0201877
0.0973831 0.0907759 0.0197604
0.12166 0.0876783 0.0191196
0.150973 0.0822156 0.0186007
0.186709 0.0728313 0.0187686
0.225422 0.0596323 0.0196078
0.265202 0.0441596 0.0209049
0.309895 0.0312505 0.0212711
0.367117 0.0233005 0.0200198
0.434119 0.0185702 0.0165408
0.50956 0.0143893 0.0121004
0.588724 0.00973526 0.00686656
0.66714 0.00485237 0.00138857
0.746075 0.000137331 0
0.820981 0 0
0.887861 0 0
0.941833 0 0
0.975891 0 0
0.988922 0 0
0.991089 0 0
0.99118 0 0
0.99118 0 0
0.99118 0 0
0.99118 0 0
0.99118 0 0
0.99118 0 0
0.99118 0 0
0.0173495 0.124483 0.019501
0.0181277 0.124346 0.0189364
0.0224918 0.12401 0.0180667
0.0323339 0.123842 0.0174563
0.0451667 0.123903 0.0165103
0.0600443 0.123705 0.0155184
0.0786908 0.123095 0.0144045
0.1019 0.121599 0.0131533
0.129244 0.118486 0.0115053
0.16321 0.113664 0.0101625
0.204486 0.104494 0.00976577
0.250935 0.0908522 0.0100862
0.298146 0.0720226 0.0118563
0.342855 0.0508888 0.0146487
0.388602 0.0331884 0.0161288
0.444099 0.0216373 0.0153201
0.513222 0.0150912 0.0116426
0.591211 0.00982681 0.00663767
0.669093 0.00476081 0.00125124
0.748516 0 0
0.823987 0 0
0.890639 0 0
0.94403 0 0
0.977188 0 0
0.989273 0 0
0.991119 0 0
0.99118 0 0
0.99118 0 0
0.99118 0 0
0.99118 0 0
0.99118 0 0
0.99118 0 0
0.99118 0 0
0.0102693 0.162158 0.0125277
0.0108949 0.162142 0.0121462
0.0147097 0.161929 0.0110018
0.0246586 0.161761 0.00946059
0.0392462 0.161852 0.00814832
0.0560006 0.162142 0.00672923
0.0768444 0.161395 0.00531014
0.102907 0.160494 0.00291447
0.134081 0.157321 0.000686656
0.172061 0.152941 0
0.218784 0.145281 0
0.272465 0.132692 0
0.329946 0.114946 0
0.38497 0.0907454 0
0.434928 0.0645609 0.00318914
0.479408 0.0394903 0.00727855
0.533913 0.0239109 0.00743114
0.601068 0.01355 0.00480659
0.674357 0.00624094 0.000381476
0.751553 0.000457771 0
0.826429 0 0
0.89308 0 0
0.946044 0 0
0.978515 0 0
0.9897 0 0
0.99115 0 0
0.99118 0 0
0.99118 0 0
0.99118 0 0
0.99118 0 0
0.99118 0 0
0.99118 0 0
0.99118 0 0
0.000427253 0.21004 0.00268559
0.000747692 0.210697 0.00216678
0.00386053 0.210513 0.000885023
0.0137026 0.210224 0
0.0294804 0.21062 0
0.0483864 0.210758 0
0.07187 0.209995 0
0.100633 0.208667 0
0.135409 0.206134 0
0.17705 0.202121 0
0.227726 0.195819 0
0.28658 0.18558 0
0.349767 0.170214 0
0.414786 0.150225 0
0.477378 0.124086 0
0.535225 0.0928817 0
0.588556 0.0626383 0
0.640909 0.0373999 0
0.700465 0.0199741 0
0.765606 0.00747692 0
0.833463 0 0
0.897581 0 0
0.949065 0 0
0.980179 0 0
0.99025 0 0
0.991165 0 0
0.99118 0 0
0.99118 0 0
0.99118 0 0
0.99118 0 0
0.99118 0 0
0.99118 0 0
0.99118 0 0
0 0.268025 0
0 0.268956 0
0 0.26949 0
0.00151064 0.269642 0
0.0175021 0.269322 0
0.0385595 0.269368 0
0.0643473 0.268849 0
0.0964218 0.267842 0
0.134295 0.266011 0
0.179217 0.262348 0
0.233341 0.255985 0
0.294881 0.247333 0
0.360906 0.235645 0
0.42826 0.219501 0
0.495644 0.201022 0
0.562158 0.176135 0
0.627375 0.14551 0
0.689769 0.11017 0
0.749584 0.0762188 0
0.805722 0.0458076 0
0.861341 0.0231022 0
0.91632 0.0109407 0
0.960525 0.00106813 0
0.986725 0 0
0.993912 0 0
0.993988 0 0
0.993652 0 0
0.993271 0 0
0.993103 0 0
0.992782 0 0
0.992538 0 0
0.992309 0 0
0.992004 0 0
0 0.332647 0
0 0.333898 0
0 0.334081 0
0 0.334371 0
0.00848402 0.3346 0
0.0305486 0.3346 0
0.0583352 0.334127 0
0.0929427 0.333013 0
0.133623 0.331502 0
0.180957 0.328115 0
0.237339 0.323217 0
0.300465 0.315984 0
0.367041 0.306828 0
0.435554 0.295277 0
0.50338 0.280385 0
0.570123 0.263096 0
0.635782 0.242115 0
0.700954 0.215885 0
0.764813 0.184268 0
0.826749 0.146044 0
0.88571 0.110109 0
0.93814 0.0817426 0
0.981033 0.0558022 0
1 0.033814 0
1 0.0225528 0
1 0.0200351 0
1 0.0175021 0
1 0.0154269 0
1 0.0137942 0
1 0.0122072 0
1 0.0108797 0
1 0.00994888 0
1 0.00891127 0
0 0.400275 0
0 0.401251 0
0 0.401511 0
0 0.401907 0
0.00614939 0.402228 0
0.0260929 0.402319 0
0.0541238 0.402045 0
0.0901656 0.401572 0
0.13312 0.400305 0
0.182757 0.398428 0
0.240345 0.394141 0
0.304326 0.388418 0
0.372015 0.380636 0
0.441489 0.371145 0
0.510307 0.359747 0
0.57705 0.34609 0
0.643 0.330602 0
0.70808 0.312123 0
0.772198 0.290959 0
0.833692 0.266651 0
0.890929 0.237858 0
0.941619 0.206943 0
0.982605 0.17586 0
1 0.150607 0
1 0.133532 0
1 0.125353 0
1 0.119188 0
1 0.113741 0
1 0.110903 0
1 0.108019 0
1 0.104891 0
1 0.102892 0
1 0.101122 0
0 0.469764 0
0 0.470909 0
0 0.471214 0
0 0.471489 0
0.00511177 0.471931 0
0.0205081 0.472251 0
0.0481117 0.472404 0
0.0854658 0.472038 0
0.13051 0.471244 0
0.182101 0.469322 0
0.241611 0.465614 0
0.30724 0.461295 0
0.375784 0.454841 0
0.445609 0.446464 0
0.514702 0.436683 0
0.581445 0.425544 0
0.647669 0.412818 0
0.71281 0.398138 0
0.776715 0.38172 0
0.838666 0.363607 0
0.896254 0.343969 0
0.947051 0.32401 0
0.987366 0.306264 0
1 0.290959 0
1 0.27837 0
1 0.267628 0
1 0.260777 0
1 0.255146 0
1 0.251545 0
1 0.249439 0
1 0.246128 0
1 0.244312 0
1 0.242023 0
0.00354009 0.538231 0.00660716
0.00366217 0.539712 0.0059968
0.0037232 0.540413 0.00450141
0.00392157 0.5411 0.00306706
0.00587472 0.542367 0.00151064
0.0151064 0.542199 0
0.0391241 0.542245 0
0.0769513 0.541222 0
0.1243 0.540734 0
0.178637 0.539437 0
0.23975 0.53608 0
0.306691 0.532219 0
0.376226 0.526345 0
0.446342 0.518975 0
0.515587 0.510735 0
0.583261 0.50132 0
0.650233 0.490562 0
0.715511 0.477714 0
0.779706 0.464256 0
0.84152 0.449165 0
0.899321 0.434333 0
0.949859 0.419043 0
0.990158 0.40528 0
1 0.394339 0
1 0.385443 0
1 0.378485 0
1 0.373281 0
1 0.370108 0
1 0.368627 0
1 0.367315 0
1 0.364874 0
1 0.362615 0
1 0.361166 0
0.00697337 0.605447 0.0133059
0.00703441 0.606409 0.0122683
0.0071107 0.608118 0.0109102
0.00735485 0.60914 0.00927749
0.00788891 0.610071 0.00766003
0.0118257 0.61059 0.00585946
0.0283818 0.610605 0.00357061
0.0640726 0.609751 0.000534066
0.113268 0.608682 0
0.170977 0.607248 0
0.235096 0.605203 0
0.303777 0.600961 0
0.374594 0.595666 0
0.445884 0.5888 0
0.515602 0.582284 0
0.583734 0.574258 0
0.650828 0.564172 0
0.71632 0.553155 0
0.780529 0.541085 0
0.842893 0.529107 0
0.90135 0.516228 0
0.951553 0.503609 0
0.991943 0.492271 0
1 0.483345 0
1 0.476036 0
1 0.470665 0
1 0.467704 0
1 0.464485 0
1 0.463249 0
1 0.461799 0
1 0.460136 0
1 0.458701 0
1 0.457313 0
0.00830091 0.671763 0.018143
0.00834669 0.672862 0.0178836
0.00849927 0.673808 0.0170901
0.00854505 0.675227 0.0151827
0.00862135 0.676417 0.0136263
0.00970474 0.677424 0.0111238
0.0177768 0.678126 0.00840772
0.0479133 0.677272 0.00585946
0.0982528 0.675944 0.00115969
0.159747 0.674388 0
0.227832 0.672251 0
0.299168 0.668605 0
0.37113 0.663767 0
0.443122 0.658289 0
0.514061 0.651881 0
0.582864 0.644434 0
0.650599 0.636133 0
0.717144 0.625879 0
0.78172 0.615854 0
0.844068 0.60441 0
0.902693 0.59411 0
0.953079 0.583001 0
0.993378 0.573312 0
1 0.56553 0
1 0.55996 0
1 0.555795 0
1 0.5523 0
1 0.550057 0
1 0.548959 0
1 0.547601 0
1 0.547158 0
1 0.544839 0
1 0.543801 0
0.00823987 0.737896 0.0228122
0.00823987 0.738735 0.0230259
0.00823987 0.739849 0.0222171
0.00827039 0.741054 0.0198825
0.00828565 0.742412 0.0184939
0.00839246 0.743313 0.0159152
0.0108949 0.74374 0.0128176
0.0307927 0.743923 0.00944533
0.0792859 0.742275 0.00386053
0.145525 0.741619 0
0.218601 0.738964 0
0.29218 0.735271 0
0.36614 0.73135 0
0.439063 0.725963 0
0.51104 0.720821 0
0.580789 0.714275 0
0.648936 0.706844 0
0.716655 0.697749 0
0.781826 0.688212 0
0.844572 0.679225 0
0.902937 0.668498 0
0.953552 0.659007 0
0.994308 0.651209 0
1 0.64361 0
1 0.639155 0
1 0.63537 0
1 0.632975 0
1 0.631296 0
1 0.629679 0
1 0.62858 0
1 0.627909 0
1 0.626551 0
1 0.625208 0
0.00764477 0.80209 0.0281987
0.00762951 0.803861 0.0281529
0.00762951 0.805295 0.0274205
0.00766003 0.806851 0.0251774
0.00767529 0.807935 0.0237888
0.00773632 0.80853 0.0206912
0.00839246 0.807691 0.0177157
0.0165103 0.808362 0.0141756
0.0583047 0.808103 0.00828565
0.129488 0.807385 0.0012665
0.207416 0.804349 0
0.283986 0.801328 0
0.360357 0.797162 0
0.435065 0.79353 0
0.50782 0.787793 0
0.5785 0.7823 0
0.64712 0.774655 0
0.715053 0.766842 0
0.780331 0.758541 0
0.843717 0.750393 0
0.902129 0.741482 0
0.952148 0.732784 0
0.993301 0.72578 0
1 0.719448 0
1 0.714488 0
1 0.711696 0
1 0.709484 0
1 0.708278 0
1 0.706905 0
1 0.706188 0
1 0.705119 0
1 0.703899 0
1 0.703105 0
0.00761425 0.865843 0.0352636
0.00770581 0.867491 0.0345464
0.0075227 0.868833 0.0332189
0.00753796 0.870054 0.0306859
0.00755322 0.871138 0.0297093
0.00759899 0.871351 0.0265812
0.00762951 0.870314 0.0245212
0.0089723 0.869993 0.0202945
0.0374914 0.870985 0.0140841
0.112459 0.870924 0.00608835
0.196048 0.867811 0
0.276005 0.864927 0
0.354559 0.861097 0
0.431098 0.857359 0
0.503746 0.852857 0
0.575662 0.847623 0
0.644923 0.841031 0
0.713069 0.833265 0
0.778225 0.825223 0
0.842069 0.817853 0
0.901518 0.809812 0
0.951843 0.802609 0
0.991714 0.796078 0
1 0.790524 0
1 0.785824 0
1 0.783688 0
1 0.78204 0
1 0.781201 0
1 0.780346 0
1 0.779065 0
1 0.777844 0
1 0.777234 0
1 0.776013 0
0.00755322 0.924102 0.0421149
0.00758373 0.925704 0.0404212
0.00759899 0.92697 0.0392462
0.00762951 0.928191 0.0369421
0.00764477 0.929335 0.0361944
0.00770581 0.929549 0.0326085
0.00773632 0.929091 0.0312963
0.00828565 0.928206 0.0270085
0.0198672 0.929305 0.0199435
0.0932326 0.928985 0.0117952
0.184009 0.926452 0.00216678
0.26833 0.923903 0
0.348501 0.92079 0
0.427161 0.917006 0
0.500557 0.912673 0
0.572366 0.907576 0
0.643336 0.902312 0
0.711604 0.895384 0
0.776394 0.887373 0
0.840589 0.880003 0
0.900832 0.873045 0
0.950729 0.866438 0
0.99115 0.860945 0
1 0.855421 0
1 0.851865 0
1 0.848768 0
1 0.847898 0
1 0.846937 0
1 0.846189 0
1 0.844724 0
1 0.844358 0
1 0.843656 0
1 0.842878 0
0.00761425 0.971084 0.0480201
0.00770581 0.971817 0.0465095
0.00773632 0.9729 0.045304
0.0077821 0.973632 0.0428473
0.00779736 0.974166 0.041886
0.00787366 0.974578 0.0384527
0.00787366 0.97464 0.0371099
0.0080415 0.974243 0.032578
0.0118257 0.974456 0.0259709
0.0758984 0.973251 0.0168154
0.171725 0.97174 0.00552377
0.260548 0.970138 0
0.342977 0.967086 0
0.422141 0.963912 0
0.497002 0.960311 0
0.569284 0.95613 0
0.641443 0.952605 0
0.709834 0.947097 0
0.775372 0.940841 0
0.839643 0.933791 0
0.899901 0.927016 0
0.94963 0.920729 0
0.990234 0.915389 0
1 0.910735 0
1 0.907515 0
1 0.904509 0
1 0.903395 0
1 0.901869 0
1 0.900923 0
1 0.900374 0
1 0.900282 0
1 0.899245 0
1 0.898634 0
0.00761425 0.994293 0.0529335
0.00764477 0.994324 0.0514534
0.00766003 0.994339 0.0500038
0.00769055 0.994369 0.0483406
0.00770581 0.994385 0.0471199
0.00776684 0.994446 0.0440986
0.00781262 0.994492 0.041413
0.00807202 0.994537 0.0370642
0.0135805 0.994507 0.0301976
0.0630808 0.993255 0.0206912
0.161395 0.992706 0.00852979
0.254551 0.990845 0
0.33901 0.98909 0
0.41886 0.987381 0
0.495171 0.985992 0
0.567391 0.984451 0
0.639429 0.982361 0
0.708141 0.980331 0
0.775189 0.977554 0
0.839673 0.972168 0
0.899306 0.966003 0
0.949111 0.961593 0
0.989197 0.957473 0
1 0.953353 0
1 0.951568 0
1 0.948882 0
1 0.948028 0
1 0.946059 0
1 0.945541 0
1 0.945678 0
1 0.944778 0
1 0.943862 0
1 0.943175 0
0.00753796 0.994217 0.0571145
0.00755322 0.994232 0.0561532
0.00759899 0.994263 0.0542153
0.00761425 0.994293 0.0528115
0.00766003 0.994339 0.0509194
0.00767529 0.994354 0.0488746
0.00773632 0.994415 0.0453803
0.00807202 0.994507 0.0405737
0.0138552 0.994614 0.0343328
0.0545815 0.994522 0.0245365
0.152285 0.994217 0.011368
0.248554 0.993606 0
0.335286 0.993149 0
0.41651 0.99266 0
0.493019 0.992157 0
0.566415 0.991562 0
0.638239 0.99089 0
0.707271 0.990478 0
0.775082 0.989715 0
0.839368 0.987167 0
0.899214 0.984741 0
0.948638 0.983261 0
0.988617 0.981582 0
1 0.980194 0
1 0.979721 0
1 0.978363 0
1 0.977188 0
1 0.976562 0
1 0.976486 0
1 0.975692 0
1 0.974868 0
1 0.97467 0
1 0.974258 0
0.00747692 0.994141 0.0609293
0.00749218 0.994156 0.0598917
0.0075227 0.994186 0.0582742
0.00755322 0.994217 0.0565042
0.00758373 0.994263 0.0544594
0.00762951 0.994308 0.0521859
0.00766003 0.994339 0.0493477
0.00796521 0.994446 0.0443885
0.0130007 0.994553 0.0376287
0.0494698 0.994476 0.0276951
0.145449 0.994171 0.0142824
0.244648 0.993606 0.000732433
0.332845 0.993149 0
0.414893 0.99266 0
0.491905 0.992157 0
0.56611 0.991638 0
0.638041 0.991135 0
0.707607 0.99089 0
0.77496 0.990372 0
0.839292 0.989731 0
0.899046 0.989273 0
0.948531 0.988693 0
0.988251 0.98822 0
1 0.988098 0
1 0.987778 0
1 0.987396 0
1 0.987045 0
1 0.986954 0
1 0.986923 0
1 0.98674 0
1 0.986526 0
1 0.986542 0
1 0.986435 0
0.00743114 0.99411 0.0635538
0.00746166 0.994125 0.0621958
0.00747692 0.994141 0.0609445
0.00749218 0.994171 0.0594644
0.0075227 0.994202 0.0575418
0.00758373 0.994247 0.0550851
0.00764477 0.994324 0.0517433
0.00784314 0.994385 0.0471962
0.0117494 0.994522 0.0401465
0.0469215 0.994446 0.0300145
0.140948 0.994141 0.0160525
0.242267 0.993622 0.00172427
0.332052 0.993149 0
0.414771 0.99266 0
0.492348 0.992157 0
0.566247 0.991638 0
0.638224 0.991135 0
0.708461 0.990829 0
0.775051 0.990387 0
0.838636 0.989883 0
0.898161 0.989624 0
0.948287 0.98912 0
0.987549 0.988861 0
1 0.988861 0
1 0.988602 0
1 0.988571 0
1 0.988525 0
1 0.988525 0
1 0.988525 0
1 0.988525 0
1 0.98851 0
1 0.98854 0
1 0.98854 0
0.00740063 0.994064 0.0654002
0.00741588 0.994079 0.0644388
0.0074464 0.994125 0.0627909
0.00746166 0.994141 0.0615091
0.00747692 0.994156 0.059968
0.00753796 0.994202 0.0572366
0.00761425 0.994293 0.0533761
0.00775158 0.994354 0.048661
0.0104829 0.994492 0.0419776
0.0462654 0.994415 0.0313573
0.138659 0.994141 0.0167391
0.241215 0.993667 0.00233463
0.331716 0.993133 0
0.414969 0.99266 0
0.492882 0.992157 0
0.567193 0.991638 0
0.639078 0.991135 0
0.70869 0.990829 0
0.775799 0.990387 0
0.839734 0.989868 0
0.898619 0.989624 0
0.947967 0.98912 0
0.987167 0.988861 0
1 0.988861 0
1 0.988617 0
1 0.988617 0
1 0.988617 0
1 0.988617 0
1 0.988617 0
1 0.988617 0
1 0.988617 0
1 0.988617 0
1 0.988617 0
0.00735485 0.994034 0.0671855
0.00738537 0.994049 0.0663005
0.00741588 0.994079 0.064622
0.0074464 0.99411 0.0630808
0.00747692 0.994141 0.0614176
0.00750744 0.994171 0.058793
0.00756847 0.994247 0.0550698
0.00767529 0.994339 0.0501411
0.00959792 0.994476 0.0427558
