transforms/slog3_td_daylight_base.cube
TITLE "Generated by Resolve"
LUT_3D_SIZE 33
0.000259403 0.000747692 0.00144961
0.00331121 0.000503548 0.000915541
0.0142824 0.000289921 0.00047303
0.0320592 0.000213626 0.000350958
0.050721 0.000122072 0.000244144
0.0719463 7.62951e-05 0.000137331
0.0967422 3.0518e-05 6.10361e-05
0.125582 0 1.5259e-05
0.159518 0 0
0.20061 0 0
0.250095 0 0
0.307164 0 0
0.369375 0 0
0.433371 0 0
0.497551 0 0
0.561959 0 0
0.625727 0 0
0.688014 0 0
0.749645 0 0
0.809735 0 0
0.866438 0 0
0.917479 0 0
0.960052 0 0
0.988174 0 0
0.998596 0 0
1 0 0
1 0 0
1 0 0
1 0 0
1 0 0
1 0 0
1 0 0
1 0 0
0.000167849 0.00723278 0.00239567
0.00296025 0.00666819 0.00132753
0.0138857 0.00572213 0.000579843
0.0316777 0.00466926 0.00047303
0.0506752 0.00393683 0.000335698
0.0719921 0.00311284 0.000228885
0.0971389 0.00190738 0.00015259
0.126375 0.000595102 6.10361e-05
0.160266 4.57771e-05 1.5259e-05
0.201968 0 0
0.251957 0 0
0.309514 0 0
0.371481 0 0
0.435477 0 0
0.500114 0 0
0.564874 0 0
0.628717 0 0
0.691081 0 0
0.752789 0 0
0.812863 0 0
0.869215 0 0
0.919982 0 0
0.961852 0 0
0.989075 0 0
0.99881 0 0
1 0 0
1 0 0
1 0 0
1 0 0
1 0 0
1 0 0
1 0 0
1 0 0
6.10361e-05 0.022446 0.00283818
0.00260929 0.0214847 0.00149538
0.0135805 0.0198978 0.000640879
0.031342 0.0176089 0.000549325
0.0504921 0.0157015 0.000411994
0.071519 0.0134737 0.00030518
0.0968643 0.0106355 0.000259403
0.126818 0.00703441 0.000183108
0.160754 0.00422675 6.10361e-05
0.202701 0.00146487 0
0.2533 0.000228885 0
0.31136 1.5259e-05 0
0.373159 0 0
0.437095 0 0
0.502327 0 0
0.567239 0 0
0.631067 0 0
0.693751 0 0
0.75555 0 0
0.815595 0 0
0.871794 0 0
0.922225 0 0
0.963302 0 0
0.989502 0 0
0.998962 0 0
1 0 0
1 0 0
1 0 0
1 0 0
1 0 0
1 0 0
1 0 0
1 0 0
0 0.0419471 0.00288396
0.00225834 0.0408484 0.00146487
0.0130312 0.0390631 0.000762951
0.0306554 0.0359655 0.000732433
0.0498512 0.0336919 0.000656138
0.070573 0.0309453 0.000595102
0.0961013 0.0271458 0.000549325
0.126574 0.0223087 0.000366217
0.161074 0.0167544 0.000106813
0.203571 0.00947585 1.5259e-05
0.25478 0.00315862 0
0.313252 0.000579843 0
0.374838 4.57771e-05 0
0.438926 0 0
0.504234 0 0
0.568658 0 0
0.632685 0 0
0.695796 0 0
0.757885 0 0
0.817807 0 0
0.874174 0 0
0.924331 0 0
0.964721 0 0
0.990051 0 0
0.99913 0 0
1 0 0
1 0 0
1 0 0
1 0 0
1 0 0
1 0 0
1 0 0
1 0 0
0 0.0631418 0.0030518
0.00215152 0.0619211 0.00166323
0.0125429 0.0595102 0.00115969
0.0296941 0.0570993 0.00122072
0.0487068 0.054902 0.00112917
0.0698253 0.0520638 0.00112917
0.0958419 0.0480812 0.000946059
0.125978 0.0426642 0.000595102
0.161166 0.0357061 0.000167849
0.204044 0.0267948 3.0518e-05
0.255802 0.0142977 1.5259e-05
0.314443 0.0043946 0
0.37641 0.000671397 0
0.440955 3.0518e-05 0
0.506523 0 0
0.57023 0 0
0.634684 0 0
0.698177 0 0
0.760189 0 0
0.820188 0 0
0.876356 0 0
0.92636 0 0
0.966384 0 0
0.990967 0 0
0.999313 0 0
1 0 0
1 0 0
1 0 0
1 0 0
1 0 0
1 0 0
1 0 0
1 0 0
0 0.0866865 0.0034638
0.00209049 0.0853285 0.0021973
0.0121614 0.0830243 0.00177005
0.0290074 0.0808881 0.00183108
0.0479438 0.0789349 0.00161746
0.0692302 0.0762646 0.00163272
0.0956893 0.0723583 0.00128176
0.125811 0.067277 0.000793469
0.161288 0.0603799 0.000228885
0.203922 0.0506905 6.10361e-05
0.256565 0.0361486 1.5259e-05
0.314778 0.0180972 0
0.377661 0.00552377 0
0.442741 0.000808728 0
0.508492 4.57771e-05 0
0.572091 0 0
0.636728 0 0
0.700221 0 0
0.762051 0 0
0.822293 0 0
0.878538 0 0
0.928527 0 0
0.968368 0 0
0.992187 0 0
0.999527 0 0
1 0 0
1 0 0
1 0 0
1 0 0
1 0 0
1 0 0
1 0 0
1 0 0
0 0.11339 0.0039826
0.00189212 0.112444 0.00285344
0.0112917 0.110643 0.00234989
0.0279393 0.108675 0.00236515
0.047013 0.106981 0.00202945
0.0682231 0.104662 0.00201419
0.0950027 0.101366 0.00155642
0.125582 0.0971084 0.000946059
0.160952 0.0907759 0.000289921
0.203998 0.0812848 7.62951e-05
0.257145 0.0661631 1.5259e-05
0.315572 0.0462196 0
0.379232 0.0234989 0
0.444663 0.00764477 0
0.510475 0.00129702 0
0.57377 0.000122072 0
0.638086 1.5259e-05 0
0.701854 0 0
0.762875 0 0
0.823606 0 0
0.880522 0 0
0.930404 0 0
0.970047 0 0
0.99324 0 0
0.999664 0 0
1 0 0
1 0 0
1 0 0
1 0 0
1 0 0
1 0 0
1 0 0
1 0 0
0 0.144335 0.00459297
0.00157168 0.143542 0.00367742
0.00970474 0.142565 0.00288396
0.0260014 0.140932 0.00274662
0.0450752 0.139696 0.00239567
0.0666056 0.137453 0.00227359
0.0933242 0.134905 0.00177005
0.124529 0.131075 0.00105287
0.160479 0.125689 0.000320439
0.204273 0.117922 9.15541e-05
0.257206 0.104295 1.5259e-05
0.316579 0.0862287 0
0.380789 0.0609293 0
0.446479 0.0329442 0
0.512016 0.0128328 0
0.575586 0.00283818 0
0.639033 0.000793469 0
0.703365 0.000137331 0
0.763928 0 0
0.825116 0 0
0.88217 0 0
0.931762 0 0
0.971115 0 0
0.993622 0 0
0.999542 0 0
0.999985 0 0
1 0 0
1 0 0
1 0 0
1 0 0
1 0 0
1 0 0
1 0 0
1.5259e-05 0.180652 0.00518807
0.00115969 0.180392 0.004654
0.00762951 0.179477 0.00355535
0.0232547 0.178378 0.00311284
0.0425116 0.177371 0.00274662
0.0643473 0.175708 0.00250248
0.0912337 0.173678 0.00190738
0.123262 0.170443 0.00112917
0.160235 0.165652 0.000366217
0.204654 0.15938 0.000106813
0.25745 0.148745 1.5259e-05
0.317342 0.133837 0
0.381521 0.112337 0
0.447471 0.08365 0
0.512322 0.0525521 0
0.576944 0.0232547 0
0.64004 0.0108186 0
0.70425 0.00366217 0
0.765301 0.00143435 0
0.826474 0.000350958 0
0.883818 3.0518e-05 0
0.933333 0 0
0.972351 0 0
0.994202 0 0
0.999542 0 0
0.999985 0 0
1 0 0
1 0 0
1 0 0
1 0 0
1 0 0
1 0 0
1 0 0
3.0518e-05 0.22446 0.00590524
0.000762951 0.22501 0.00550851
0.00549325 0.224384 0.00437934
0.0194247 0.223621 0.00355535
0.0385748 0.222782 0.00317388
0.0608988 0.221836 0.00276188
0.088304 0.219989 0.00213626
0.121019 0.217121 0.00131228
0.158846 0.213153 0.000442512
0.203876 0.208484 0.000106813
0.257252 0.200305 3.0518e-05
0.317418 0.187854 0
0.381582 0.171725 0
0.447547 0.149416 0
0.512734 0.121508 0
0.577752 0.086183 0
0.641199 0.0559091 0
0.704479 0.0293889 0
0.766461 0.0159457 0
0.826764 0.00639353 0
0.884993 0.00256352 0
0.934325 0.00143435 0
0.973388 0.000610361 0
0.994873 7.62951e-05 0
0.999649 0 0
1 0 0
1 0 0
1 0 0
1 0 0
1 0 0
1 0 0
1 0 0
1 0 0
1.5259e-05 0.277317 0.00717174
0.000442512 0.277974 0.00648508
0.00366217 0.278096 0.00541695
0.0146944 0.277714 0.00427253
0.032929 0.277089 0.00355535
0.0555734 0.276539 0.00303655
0.0834516 0.275029 0.002533
0.116915 0.272984 0.00169375
0.155596 0.270375 0.000671397
0.201633 0.266423 0.00015259
0.256428 0.259648 3.0518e-05
0.317189 0.249577 0
0.381643 0.236988 0
0.447501 0.220233 0
0.513252 0.200595 0
0.578119 0.17496 0
0.64213 0.142458 0
0.705287 0.106538 0
0.767712 0.0750134 0
0.827482 0.0440223 0
0.885359 0.0261234 0
0.934112 0.0175479 0
0.973754 0.0099031 0
0.995422 0.00357061 0
0.999847 0.00169375 0
1 0.00132753 0
1 0.000869764 0
1 0.00047303 0
1 0.000183108 0
1 0 0
1 0 0
1 0 0
1 0 0
0 0.337346 0.0084535
0.000213626 0.338399 0.00781262
0.00207523 0.338674 0.00666819
0.00961318 0.338399 0.00543221
0.0255436 0.338369 0.00424201
0.0479438 0.338018 0.00343328
0.0760967 0.337621 0.00282292
0.110704 0.33608 0.00202945
0.15079 0.334295 0.000976577
0.198322 0.330678 0.000274662
0.254154 0.324788 3.0518e-05
0.315679 0.31667 0
0.380591 0.306996 0
0.446952 0.295125 0
0.512795 0.279637 0
0.577829 0.261082 0
0.642145 0.238987 0
0.706111 0.212604 0
0.768704 0.1785 0
0.828656 0.139559 0
0.885222 0.108125 0
0.933608 0.0816052 0
0.97322 0.0584573 0
0.995407 0.0386358 0
1 0.0313725 0
1 0.0286717 0
1 0.0263066 0
1 0.024155 0
1 0.0238193 0
1 0.0230716 0
1 0.0226444 0
1 0.0221408 0
1 0.0217746 0
0 0.403128 0.00952163
6.10361e-05 0.403647 0.00920119
0.000823987 0.40415 0.00819409
0.00497444 0.40412 0.00689708
0.0169223 0.40441 0.00549325
0.0378576 0.404273 0.00415045
0.0662699 0.403891 0.00318914
0.102144 0.402884 0.00230411
0.144213 0.401404 0.00123598
0.193256 0.398932 0.000366217
0.250248 0.394232 4.57771e-05
0.312856 0.387655 0
0.378683 0.379858 0
0.446006 0.370092 0
0.512322 0.357305 0
0.57734 0.343816 0
0.641657 0.327337 0
0.705699 0.308232 0
0.768551 0.286778 0
0.828824 0.260426 0
0.884932 0.231495 0
0.933577 0.199207 0
0.972183 0.170565 0
0.994583 0.145617 0
1 0.132753 0
1 0.125582 0
1 0.119646 0
1 0.115633 0
1 0.113527 0
1 0.111574 0
1 0.109651 0
1 0.108309 0
1 0.106874 0
0 0.470726 0.0112154
0 0.47155 0.0108339
0.000183108 0.472358 0.00987259
0.00175479 0.472099 0.0084535
0.0087892 0.47248 0.00700389
0.0260624 0.47303 0.00544747
0.0543679 0.472328 0.00393683
0.0914931 0.472007 0.00265507
0.135775 0.470878 0.00149538
0.186786 0.468879 0.000488289
0.245624 0.464851 4.57771e-05
0.309728 0.460563 0
0.376593 0.453208 0
0.444724 0.444694 0
0.511666 0.434501 0
0.576852 0.423209 0
0.641443 0.410361 0
0.705394 0.395087 0
0.768093 0.37818 0
0.828443 0.359289 0
0.884306 0.339681 0
0.932723 0.319493 0
0.970703 0.302403 0
0.993637 0.286412 0
1 0.27422 0
1 0.265003 0
1 0.256657 0
1 0.251331 0
1 0.247562 0
1 0.244816 0
1 0.242145 0
1 0.24004 0
1 0.237858 0
0 0.538628 0.0138399
0 0.539803 0.0131228
0 0.540108 0.0118257
0.000274662 0.540658 0.0104067
0.00308232 0.541909 0.00892653
0.0148013 0.541527 0.00730907
0.0406348 0.541405 0.00549325
0.0787823 0.54107 0.00354009
0.125505 0.540215 0.00204471
0.179324 0.538308 0.000885023
0.239948 0.534951 0.000167849
0.305425 0.530922 1.5259e-05
0.373404 0.524819 0
0.441978 0.517769 0
0.509331 0.509697 0
0.575677 0.499428 0
0.640864 0.489036 0
0.70486 0.476127 0
0.767605 0.46215 0
0.827848 0.447059 0
0.883528 0.432456 0
0.931685 0.417655 0
0.969558 0.403555 0
0.99295 0.393042 0
1 0.382849 0
1 0.376745 0
1 0.371756 0
1 0.368444 0
1 0.365896 0
1 0.363684 0
1 0.362188 0
1 0.359579 0
1 0.358129 0
0 0.605097 0.0168002
0 0.606638 0.0159457
0 0.607416 0.0146029
4.57771e-05 0.608713 0.0131991
0.000808728 0.609461 0.0117494
0.00662242 0.609583 0.0100557
0.0263981 0.609842 0.00834669
0.0636759 0.608972 0.00596628
0.112825 0.608454 0.0033875
0.169909 0.606744 0.00158694
0.233143 0.60444 0.000411994
0.30042 0.600702 3.0518e-05
0.369741 0.5953 0
0.439155 0.589242 0
0.50695 0.582193 0
0.573541 0.574319 0
0.639231 0.564019 0
0.703212 0.553399 0
0.765789 0.541314 0
0.826642 0.529259 0
0.882902 0.51667 0
0.930907 0.504067 0
0.968643 0.493446 0
0.99234 0.484245 0
1 0.476905 0
1 0.471672 0
1 0.467704 0
1 0.46537 0
1 0.464378 0
1 0.462669 0
1 0.461295 0
1 0.459144 0
1 0.457984 0
0 0.671809 0.019913
0 0.672755 0.0193942
0 0.674144 0.0184329
0 0.675227 0.0169223
0.000122072 0.676066 0.0155489
0.00201419 0.676707 0.013489
0.0137179 0.677607 0.0115816
0.0466621 0.676905 0.00903334
0.0975662 0.675731 0.0052491
0.158404 0.674464 0.00248722
0.225544 0.672221 0.000793469
0.295155 0.669047 0.000106813
0.365393 0.664149 1.5259e-05
0.435462 0.659525 0
0.504326 0.65359 0
0.571313 0.64596 0
0.637308 0.637491 0
0.702037 0.628092 0
0.765011 0.617792 0
0.825635 0.607187 0
0.881758 0.596399 0
0.929839 0.585336 0
0.967712 0.57612 0
0.991974 0.568322 0
1 0.562936 0
1 0.558511 0
1 0.555566 0
1 0.553429 0
1 0.552041 0
1 0.550896 0
1 0.549355 0
1 0.547692 0
1 0.546304 0
0 0.738277 0.02327
0 0.739345 0.023331
0 0.7402 0.0225223
0 0.741375 0.0209049
0 0.742306 0.0195773
0.000259403 0.742885 0.0172732
0.00523384 0.743572 0.014847
0.0296635 0.743679 0.0121309
0.079881 0.742458 0.00776684
0.145312 0.742123 0.00399786
0.216312 0.739727 0.0016022
0.28809 0.736309 0.000335698
0.359854 0.732403 3.0518e-05
0.431205 0.727687 0
0.500999 0.72256 0
0.568963 0.71667 0
0.635325 0.709361 0
0.700954 0.700252 0
0.764233 0.691066 0
0.82472 0.681987 0
0.880659 0.671962 0
0.928634 0.662989 0
0.966873 0.655024 0
0.991836 0.648402 0
1 0.643778 0
1 0.639826 0
1 0.637339 0
1 0.635721 0
1 0.633936 0
1 0.633204 0
1 0.632151 0
1 0.630854 0
1 0.629526 0
0 0.803296 0.0277104
0 0.804791 0.0276799
0 0.805936 0.0268254
0 0.807431 0.0250706
0 0.808637 0.0238804
7.62951e-05 0.808972 0.0214389
0.00166323 0.808103 0.0190585
0.0146792 0.809125 0.0158541
0.0603799 0.808316 0.0113527
0.130465 0.807965 0.00642405
0.206012 0.805463 0.00300603
0.280385 0.802487 0.000686656
0.35436 0.799054 4.57771e-05
0.427039 0.795193 0
0.49749 0.790311 0
0.566079 0.785061 0
0.632975 0.777966 0
0.698787 0.770199 0
0.762188 0.762097 0
0.82327 0.754177 0
0.879042 0.745327 0
0.926802 0.737102 0
0.965454 0.730144 0
0.991501 0.724086 0
0.999832 0.719738 0
1 0.71667 0
1 0.714305 0
1 0.71339 0
1 0.712428 0
1 0.711482 0
1 0.710292 0
1 0.708782 0
1 0.707851 0
0 0.867292 0.0327459
0 0.869123 0.0320897
0 0.87039 0.03122
0 0.871748 0.0293126
0 0.872465 0.0284123
0 0.872618 0.0259098
0.00015259 0.871153 0.0241398
0.00495918 0.871519 0.0206912
0.039765 0.872084 0.0155032
0.113787 0.871763 0.00978103
0.194888 0.869429 0.00471504
0.272496 0.866636 0.000976577
0.348638 0.863523 7.62951e-05
0.422629 0.8598 0
0.493339 0.856031 0
0.563088 0.850462 0
0.630594 0.84448 0
0.696605 0.836713 0
0.760021 0.829572 0
0.821683 0.821958 0
0.878279 0.814115 0
0.925734 0.807553 0
0.963638 0.801144 0
0.990158 0.795743 0
0.999252 0.79147 0
1 0.789685 0
1 0.787671 0
1 0.786557 0
1 0.785626 0
1 0.784253 0
1 0.783536 0
1 0.782376 0
1 0.781491 0
0 0.926619 0.0379644
0 0.927993 0.0365454
0 0.929213 0.0356298
0 0.930205 0.0336156
0 0.931517 0.0330205
0 0.931731 0.0303197
3.0518e-05 0.931289 0.0294194
0.00143435 0.930571 0.025742
0.0188449 0.931243 0.0200198
0.0949569 0.931365 0.0139467
0.182773 0.929152 0.00682078
0.264042 0.927001 0.00134279
0.341909 0.924269 7.62951e-05
0.417807 0.920607 0
0.489204 0.91664 0
0.559167 0.911711 0
0.628168 0.90605 0
0.694484 0.899458 0
0.757641 0.891997 0
0.81973 0.884459 0
0.877089 0.877897 0
0.924529 0.871962 0
0.962448 0.866377 0
0.989075 0.861341 0
0.998718 0.858183 0
1 0.855161 0
1 0.854109 0
1 0.853117 0
1 0.852155 0
1 0.851011 0
1 0.850446 0
1 0.849668 0
1 0.848859 0
0 0.975265 0.0420996
0 0.975921 0.0408026
0 0.976959 0.0399329
0 0.977432 0.0378729
0 0.978225 0.0373999
0 0.978592 0.0345006
0 0.978561 0.0335699
0.00015259 0.97792 0.0298314
0.00582895 0.978225 0.0243839
0.0762798 0.977142 0.0174716
0.171511 0.975982 0.00917067
0.256641 0.974746 0.00222782
0.336202 0.972061 9.15541e-05
0.412757 0.969116 0
0.485359 0.965362 0
0.555764 0.961791 0
0.625711 0.957305 0
0.69218 0.952071 0
0.755703 0.945998 0
0.817929 0.939239 0
0.875425 0.932921 0
0.923003 0.926894 0
0.961212 0.921706 0
0.988602 0.91783 0
0.998688 0.914565 0
1 0.911513 0
1 0.910765 0
1 0.908827 0
1 0.908202 0
1 0.908034 0
1 0.907195 0
1 0.906432 0
1 0.905562 0
0 1 0.0457313
0 1 0.0445258
0 1 0.0433814
0 1 0.0419471
0 1 0.0411994
0 1 0.0386816
0 1 0.0368658
0.000228885 0.999985 0.0331426
0.00614939 0.999771 0.0278172
0.0603952 0.998474 0.0204929
0.161517 0.998367 0.0112764
0.250767 0.996963 0.00360113
0.331914 0.9953 0.000213626
0.409384 0.99382 0
0.483085 0.992309 0
0.55346 0.990921 0
0.62359 0.989059 0
0.690135 0.986862 0
0.755276 0.984329 0
0.817578 0.978683 0
0.874739 0.973266 0
0.922194 0.968826 0
0.960082 0.965133 0
0.988113 0.96141 0
0.998871 0.95964 0
1 0.957076 0
1 0.955993 0
1 0.954086 0
1 0.953597 0
1 0.953506 0
1 0.952789 0
1 0.951919 0
1 0.951263 0
0 1 0.0487678
0 1 0.0478981
0 1 0.0464179
0 1 0.0455177
0 1 0.0440375
0 1 0.042237
0 1 0.0395819
0.000274662 1 0.0359197
0.0065919 1 0.0308385
0.0509194 1 0.0233005
0.152316 0.999985 0.0133059
0.244404 0.999939 0.00476081
0.327825 0.999847 0.000579843
0.40647 0.999741 1.5259e-05
0.480552 0.999619 0
0.551751 0.999451 0
0.621988 0.999237 0
0.68867 0.998962 0
0.754742 0.998489 0
0.817243 0.996078 0
0.874769 0.99379 0
0.921691 0.992493 0
0.959701 0.991028 0
0.987884 0.989624 0
0.999374 0.989044 0
1 0.987442 0
1 0.986404 0
1 0.985901 0
1 0.985672 0
1 0.985016 0
1 0.984329 0
1 0.983856 0
1 0.98352 0
0 1 0.0514992
0 1 0.0505837
0 1 0.0493172
0 1 0.0481117
0 1 0.0465095
0 1 0.0448615
0 1 0.0424811
0.000228885 1 0.0386664
0.00570687 1 0.033402
0.045182 1 0.0258793
0.145083 1 0.0155642
0.240009 1 0.00575265
0.325231 1 0.000854505
0.404562 1 4.57771e-05
0.479133 1 0
0.551217 1 0
0.621118 1 0
0.688411 1 0
0.754009 0.999985 0
0.816464 0.99971 0
0.874067 0.99942 0
0.921477 0.999252 0
0.959228 0.999039 0
0.986679 0.998856 0
0.999741 0.99881 0
1 0.998291 0
1 0.997925 0
1 0.997833 0
1 0.997879 0
1 0.997574 0
1 0.997375 0
1 0.997391 0
1 0.997314 0
0 1 0.0534829
0 1 0.0523995
0 1 0.0513619
0 1 0.0500954
0 1 0.0487068
0 1 0.046891
0 1 0.04448
0.000167849 1 0.0407263
0.00436408 1 0.0353552
0.0424506 1 0.0275883
0.13991 1 0.016846
0.237385 1 0.00646983
0.323796 1 0.00108339
0.403738 1 6.10361e-05
0.478935 1 0
0.550713 1 0
0.620783 1 0
0.688823 1 0
0.75346 1 0
0.815579 1 0
0.872969 1 0
0.920943 1 0
0.958129 1 0
0.98555 1 0
0.99913 0.999985 0
1 0.999939 0
1 0.999893 0
1 0.999893 0
1 0.999908 0
1 0.999878 0
1 0.999878 0
1 0.999908 0
1 0.999908 0
0 1 0.0547646
0 1 0.0539406
0 1 0.0527657
0 1 0.0518196
0 1 0.0503243
0 1 0.0484169
0 1 0.0454719
9.15541e-05 1 0.0417945
0.00300603 1 0.0366674
0.0418402 1 0.0285801
0.137224 1 0.0175021
0.235569 1 0.00694286
0.322805 1 0.00128176
0.403357 1 7.62951e-05
0.478843 1 0
0.551064 1 0
0.62121 1 0
0.688792 1 0
0.753948 1 0
0.816037 1 0
0.872801 1 0
0.920195 1 0
0.957458 1 0
0.985138 1 0
0.998581 1 0
1 1 0
1 1 0
1 1 0
1 1 0
1 1 0
1 1 0
1 1 0
1 1 0
0 1 0.0559243
0 1 0.0552529
0 1 0.0539559
0 1 0.0529488
0 1 0.0515908
0 1 0.0493935
0 1 0.0466926
3.0518e-05 1 0.0428626
0.00204471 1 0.0371862
