transforms/slog3_td_tungsten_base.cube
TITLE "Generated by Resolve"
LUT_3D_SIZE 9
0 0.000732433 0.00251774
0.0445258 0.00015259 0.000396735
0.148531 0 0
0.351492 0 0
0.608637 0 0
0.852232 0 0
0.998047 0 0
1 0 0
1 0 0
0 0.0640116 0.00399786
0.0432593 0.0561227 0.00155642
0.151843 0.038117 0.000381476
0.360571 0.00167849 0
0.61883 0 0
0.863264 0 0
0.998016 0 0
1 0 0
1 0 0
1.5259e-05 0.181888 0.00677501
0.0374609 0.178988 0.0041352
0.151186 0.168261 0.000839246
0.366812 0.118853 0
0.626215 0.0139315 0
0.871611 9.15541e-05 0
0.998871 0 0
1 0 0
1 0 0
0 0.404028 0.0126345
0.0130007 0.405875 0.00857557
0.134585 0.403677 0.00283818
0.365423 0.383307 0
0.629511 0.332433 0
0.874586 0.238834 0
1 0.137209 0
1 0.11574 0
1 0.108476 0
0 0.672755 0.0243534
3.0518e-05 0.676829 0.0198215
0.0866102 0.676951 0.0087129
0.353155 0.666133 3.0518e-05
0.62649 0.639918 0
0.873487 0.598611 0
1 0.564095 0
1 0.552743 0
1 0.546838 0
0 0.926925 0.042771
0 0.931777 0.0375219
0.0116884 0.931319 0.0252995
0.330632 0.924376 0.000183108
0.618891 0.907317 0
0.870619 0.878553 0
0.99852 0.857893 0
1 0.852079 0
1 0.848371 0
0 1 0.0563821
0 1 0.0514076
0.00492866 1 0.0387884
0.315129 1 0.00216678
0.61355 1 0
0.868269 0.999405 0
0.998459 0.998672 0
1 0.997742 0
1 0.997162 0
0 1 0.062211
0 1 0.0576638
0.00158694 1 0.0438087
0.316594 1 0.00363165
0.617639 1 0
0.869993 1 0
0.997147 1 0
1 1 0
1 1 0
0 1 0.064332
0 1 0.0603952
0.00137331 1 0.0474098
0.317525 1 0.0040589
0.619532 1 0
0.873106 1 0
0.996933 1 0
1 1 0
1 1 0
0 0.000244144 0.0586709
0.0380713 4.57771e-05 0.0530709
0.145052 0 0.0417182
0.349096 0 0.00619516
0.60734 0 0
0.852735 0 0
0.99762 0 0
1 0 0
1 0 0
0 0.0560616 0.0605936
0.0368353 0.0478676 0.0557717
0.147707 0.0304723 0.0441901
0.359991 0.000457771 0.00622568
0.618006 0 0
0.863737 0 0
0.998062 0 0
1 0 0
1 0 0
0 0.17789 0.0652171
0.0310826 0.174456 0.0600137
0.14696 0.163653 0.0486458
0.365469 0.112703 0.00892653
0.627237 0.0128023 0
0.871656 3.0518e-05 0
0.999115 0 0
1 0 0
1 0 0
0 0.403021 0.0724804
0.00869764 0.40499 0.0679179
0.130541 0.402579 0.0563516
0.365072 0.382025 0.013489
0.630091 0.330632 0
0.875471 0.236606 0
1 0.138109 0
1 0.117357 0
1 0.108995 0
0 0.673442 0.0853742
1.5259e-05 0.678019 0.0807507
0.0820325 0.677668 0.0694438
0.352987 0.66627 0.0205386
0.627268 0.639673 0
0.874678 0.598062 0
1 0.564736 0
1 0.55346 0
1 0.54728 0
0 0.928176 0.101778
0 0.929976 0.0978561
0.0110628 0.932357 0.0872969
0.331411 0.924758 0.0361639
0.617487 0.906905 0
0.871015 0.879469 0
0.99852 0.858808 0
1 0.852354 0
1 0.84889 0
0 1 0.114137
0 1 0.110842
0.00456245 1 0.100069
0.315312 1 0.0496834
0.614145 1 0
0.868009 0.999405 0
0.998276 0.998611 0
1 0.997238 0
1 0.997238 0
0 1 0.119905
0 1 0.116564
0.0024567 1 0.106065
0.316457 1 0.0537575
0.618036 1 0
0.871641 1 0
0.997162 1 0
1 1 0
1 1 0
0 1 0.121889
0 1 0.119112
0.00216678 1 0.108019
0.317723 1 0.0564889
0.621347 1 0.000183108
0.87335 1 0
0.996765 1 0
1 1 0
1 1 0
0 1.5259e-05 0.161608
0.0244602 0 0.158633
0.134936 0 0.150942
0.34551 0 0.118853
0.605066 0 0.0327306
0.850584 0 1.5259e-05
0.997665 0 0
1 0 0
1 0 0
0 0.0371099 0.166613
0.0230106 0.02916 0.163577
0.138033 0.0142214 0.156924
0.355138 6.10361e-05 0.125368
0.61651 0 0.038407
0.862074 0 0.000259403
0.998016 0 0
1 0 0
1 0 0
0 0.165545 0.170993
0.0162051 0.162036 0.169192
0.136355 0.150744 0.162371
0.361929 0.0955367 0.131182
0.624582 0.00933852 0.0468147
0.870146 1.5259e-05 0.0027924
0.999237 0 0
1 0 0
1 0 0
0 0.397559 0.178637
0.00303655 0.400336 0.178363
0.118578 0.397253 0.172381
0.360739 0.376745 0.141115
0.627863 0.324041 0.0572061
0.873793 0.226032 0.00404364
1 0.132677 0
1 0.110918 0
1 0.102266 0
0 0.670527 0.189975
0 0.674952 0.189731
0.0666972 0.6748 0.184146
0.348394 0.663767 0.153826
0.625132 0.636973 0.0691386
0.873335 0.5953 0.00274662
0.999985 0.562158 0
1 0.550713 0
1 0.545174 0
0 0.9252 0.202136
0 0.930175 0.202213
0.00595102 0.930541 0.196658
0.325856 0.924208 0.168536
0.616403 0.905989 0.0878157
0.869917 0.877363 0.00675975
0.998383 0.856641 0
1 0.85069 0
1 0.847501 0
0 1 0.212024
0 1 0.212909
0.00250248 1 0.208682
0.309911 1 0.181277
0.611826 1 0.105104
0.866941 0.999298 0.0158999
0.997909 0.997955 0
1 0.997086 0
1 0.996674 0
0 1 0.21886
0 1 0.221469
0.00265507 1 0.216495
0.311223 1 0.1888
0.616098 1 0.114351
0.869657 1 0.0191348
0.99649 1 0
1 1 0.000213626
1 1 0.00062562
0 1 0.222171
0 1 0.224781
0.00209049 1 0.22034
0.313252 1 0.192615
0.619303 1 0.118624
0.872435 1 0.0204929
0.996887 1 0.00289921
1 1 0.00276188
1 1 0.00196841
0 0 0.357092
0.000457771 0 0.35433
0.094789 0 0.350774
0.327535 0 0.336507
0.595789 0 0.298787
0.844602 0 0.234287
0.996536 0 0.160159
1 0 0.124498
1 0 0.113909
0 0.00144961 0.364813
0.000213626 0.000610361 0.364034
0.0953994 3.0518e-05 0.362463
0.338521 0 0.348165
0.606668 0 0.312154
0.855192 0 0.24979
0.997208 0 0.184253
1 0 0.153323
1 0 0.141375
0 0.1149 0.371695
0.000457771 0.109133 0.372824
0.0920424 0.0944839 0.371633
0.343984 0.0394751 0.357549
0.615213 0.00222782 0.322942
0.863828 0 0.263218
0.999176 0 0.201892
1 0 0.175677
1 0 0.165652
0 0.376822 0.379065
3.0518e-05 0.378042 0.383246
0.0695811 0.375448 0.381689
0.342718 0.353002 0.367636
0.618555 0.296773 0.334096
0.867384 0.185229 0.277043
0.999924 0.102571 0.221347
1 0.0717937 0.200702
1 0.0620737 0.191669
0 0.658701 0.389822
0 0.662104 0.393545
0.0209049 0.662669 0.393042
0.328618 0.651286 0.379828
0.614359 0.623438 0.347051
0.866361 0.581216 0.293339
0.998093 0.546456 0.245914
1 0.533913 0.229664
1 0.529397 0.222934
0 0.917433 0.401419
0 0.922194 0.405554
0.00120546 0.922042 0.40528
0.305821 0.914824 0.392645
0.605631 0.896849 0.360952
0.862547 0.867903 0.310857
0.997452 0.847425 0.267399
1 0.840116 0.252125
1 0.838148 0.243702
0 1 0.411139
0 1 0.415808
0.00122072 1 0.416159
0.286992 1 0.403693
0.601556 0.999893 0.372824
0.859785 0.998978 0.323903
0.996033 0.99556 0.283787
1 0.99501 0.270619
1 0.994095 0.263355
0 1 0.419867
0 1 0.424842
0.000976577 1 0.424628
0.287404 1 0.412848
0.605615 1 0.382467
0.862333 1 0.334752
0.9935 1 0.298436
1 1 0.287861
1 1 0.280934
0 1 0.422599
0 1 0.428626
0.000549325 1 0.429068
0.28986 1 0.417548
0.608591 1 0.388724
0.864759 1 0.342565
0.993851 1 0.30956
1 1 0.299702
1 1 0.294194
0 0 0.593973
0 0 0.593637
0.0137789 0 0.591257
0.287449 0 0.581735
0.574121 0 0.561044
0.830213 0 0.528176
0.993255 0 0.498756
1 0 0.484962
1 0 0.479438
0 0 0.60206
0 0 0.603479
0.0115816 0 0.602213
0.297551 0 0.593622
0.586465 0 0.573327
0.840894 0 0.542504
0.9944 0 0.514656
1 0 0.503532
1 0 0.499275
0 0.018204 0.60911
0 0.0141756 0.611811
0.0128786 0.00921645 0.611261
0.305196 0.00267033 0.602808
0.594217 4.57771e-05 0.584375
0.84979 0 0.553689
0.99585 0 0.527733
1 0 0.518685
1 0 0.514382
0 0.328679 0.616388
0 0.329961 0.620447
0.00776684 0.326543 0.620203
0.303014 0.300114 0.612879
0.597299 0.227588 0.593851
0.852857 0.111666 0.564508
0.995254 0.0423438 0.541375
1 0.0338903 0.533074
1 0.0306249 0.527962
0 0.633448 0.625437
0 0.635767 0.629511
0.00062562 0.635981 0.63064
0.286702 0.624567 0.623331
0.593393 0.595407 0.60473
0.852125 0.550149 0.576226
0.993942 0.513512 0.554131
1 0.501442 0.547097
1 0.495125 0.543938
0 0.899535 0.634928
0 0.904311 0.639231
6.10361e-05 0.904295 0.640879
0.258183 0.896971 0.634409
0.585534 0.877775 0.616648
0.848264 0.848234 0.589059
0.991196 0.826917 0.568139
1 0.820554 0.561929
1 0.817777 0.558587
0 1 0.64358
0 1 0.648829
0 1 0.650492
0.234165 0.999939 0.643275
0.579232 0.999252 0.626123
0.844663 0.995773 0.599237
0.985962 0.989487 0.580118
1 0.985504 0.575479
1 0.982879 0.57145
0 1 0.650492
0 1 0.656947
0 1 0.658122
0.232975 1 0.652338
0.582803 1 0.63415
0.846769 1 0.609369
0.983688 1 0.590356
1 1 0.585794
1 1 0.582635
0 1 0.653422
0 1 0.660166
0 1 0.663035
0.237842 1 0.656764
0.586847 1 0.639902
0.849958 1 0.615228
0.984649 1 0.598123
1 1 0.593851
1 1 0.591684
0 0 0.820584
0 0 0.820356
0 0 0.820615
0.215198 0 0.813352
0.542596 0 0.798779
0.808179 0 0.775982
0.979477 0 0.756695
1 0 0.747967
1 0 0.743282
0 0 0.828107
0 0 0.82916
0 0 0.830182
0.229389 0 0.823804
0.553964 0 0.809567
0.820493 0 0.788663
0.984176 0 0.770596
1 0 0.762875
1 0 0.759793
0 0 0.835187
0 0 0.836316
3.0518e-05 7.62951e-05 0.837659
0.23798 0 0.832349
0.563485 0 0.818021
0.828611 0 0.797925
0.987854 0 0.781338
1 0 0.775433
1 0 0.771954
0 0.243091 0.84242
0 0.244526 0.844709
4.57771e-05 0.239658 0.844984
0.234043 0.200336 0.840284
0.566583 0.119738 0.827405
0.832532 0.0357366 0.807111
0.985672 0.00709544 0.790509
1 0.00123598 0.784787
1 0.000167849 0.782422
0 0.594781 0.848569
0 0.597589 0.852949
0 0.598016 0.853101
0.214328 0.585168 0.848585
0.562982 0.553964 0.834836
0.831601 0.504509 0.816098
0.98172 0.463386 0.800763
1 0.449851 0.79646
1 0.443076 0.793469
0 0.87483 0.857176
0 0.877684 0.859449
0 0.878737 0.861418
0.176608 0.870497 0.856504
0.552666 0.851118 0.84477
0.827726 0.82031 0.824964
0.974533 0.798383 0.811612
1 0.791836 0.807507
1 0.789258 0.806226
0 0.999954 0.863371
0 0.999725 0.868574
0 0.999481 0.869032
0.150774 0.999039 0.86595
0.547448 0.995911 0.853117
0.823529 0.985122 0.834455
0.968673 0.969406 0.821164
0.999985 0.963958 0.817823
1 0.960693 0.814099
0 1 0.869642
0 1 0.875349
0 1 0.877028
0.153399 1 0.87187
0.551369 1 0.858366
0.826719 1 0.840208
0.967987 1 0.827344
0.999924 0.999924 0.824796
1 0.999832 0.82182
0 1 0.871611
0 1 0.877455
0 1 0.879606
0.151812 1 0.874769
0.555856 1 0.86157
0.829892 1 0.844968
0.967865 1 0.833295
0.999664 1 0.831067
1 1 0.828443
0 0 0.975586
0 0 0.975296
0 0 0.973495
0.1402 0 0.97023
0.510475 0 0.957305
0.788113 0 0.941222
0.964492 0 0.925704
1 0 0.920012
1 0 0.915831
0 0 0.979843
0 0 0.98056
0 0 0.978119
0.158175 0 0.974716
0.526131 0 0.961593
0.801999 0 0.945449
0.969909 0 0.931228
1 0 0.926162
1 0 0.922896
0 0 0.982864
0 0 0.983536
0 0 0.980697
0.167727 0 0.977157
0.536828 0 0.965057
0.811765 0 0.948531
0.974456 0 0.93492
1 0 0.930739
1 0 0.928344
0 0.143038 0.984131
0 0.146746 0.985336
0 0.144396 0.983551
0.162768 0.118029 0.979889
0.541131 0.0456245 0.970474
0.815976 0.00848402 0.952224
0.973053 0 0.93959
1 0 0.935286
1 0 0.933272
0 0.561563 0.986389
0 0.566384 0.987991
0 0.566735 0.988952
0.144625 0.552834 0.98378
0.538796 0.519203 0.973281
0.815991 0.466712 0.956649
0.968856 0.421714 0.943465
1 0.405875 0.938979
1 0.397681 0.938094
0 0.853346 0.991516
0 0.858106 0.991028
0 0.858671 0.990234
0.107805 0.850736 0.986969
0.528511 0.829816 0.977081
0.81207 0.799237 0.960571
0.96202 0.776959 0.948669
0.999802 0.770748 0.945312
1 0.76762 0.942931
0 0.999557 0.992615
0 0.999039 0.993957
0 0.998657 0.993011
0.0859083 0.996231 0.989807
0.523323 0.990219 0.981888
0.808164 0.970214 0.964401
0.955886 0.952483 0.95346
0.996429 0.946548 0.949828
1 0.943099 0.947478
0 1 0.995331
0 1 0.996841
0 1 0.995697
0.0839704 1 0.992584
0.52903 1 0.983795
0.812024 1 0.96669
0.955383 0.998322 0.955459
0.994842 0.994751 0.952071
1 0.992004 0.950042
0 1 0.996704
0 1 0.997269
0 1 0.996536
0.0702525 1 0.992142
0.533379 1 0.983841
0.816327 1 0.967453
0.956085 1 0.956909
0.99382 1 0.954101
1 1 0.9523
0 0 1
0 0 1
0 0 1
0.107393 0 1
0.498314 0 1
0.78085 0 0.997345
0.957229 0 0.984054
1 0 0.979278
1 0 0.976272
0 0 1
0 0 1
0 0 1
0.123735 0 1
0.514656 0 1
0.794675 0 0.997574
0.9635 0 0.98471
0.999985 0 0.980163
1 0 0.977707
0 0 1
0 0 1
0 0 1
0.134874 0 1
0.526574 0 1
0.804593 0 0.998322
0.968933 0 0.985046
1 0 0.981247
1 0 0.979614
0 0.112459 1
0 0.12134 1
0 0.119738 1
0.132494 0.0905623 1
0.53167 0.0354467 1
0.809918 0.00163272 0.998322
0.968109 0 0.98645
1 0 0.983017
1 0 0.981018
0 0.549035 1
0 0.554513 1
0 0.554864 1
0.122835 0.54168 1
0.528862 0.506966 1
0.810819 0.451942 0.998718
0.964279 0.404959 0.988403
1 0.38912 0.98378
1 0.380957 0.983307
0 0.846326 1
0 0.850477 1
0 0.85214 1
0.0802014 0.843595 1
0.520272 0.823407 1
0.806317 0.792676 0.99913
0.957061 0.769848 0.99086
0.998596 0.763638 0.987488
1 0.760006 0.984451
0 0.999115 1
0 0.997955 1
0 0.997238 1
0.0637369 0.994812 1
0.515114 0.986847 1
0.803357 0.964981 0.999756
0.951614 0.947051 0.992752
0.992813 0.940475 0.988876
1 0.938003 0.986923
0 1 1
0 1 1
0 1 1
0.0703593 1 1
0.521279 1 1
0.807477 0.999969 0.999741
0.951522 0.99469 0.993515
0.99028 0.98967 0.989502
1 0.986679 0.988083
0 1 1
0 1 1
0 1 1
0.0600137 1 1
0.527367 1 1
0.812375 1 0.99971
0.952331 1 0.993866
0.990188 1 0.989929
1 1 0.989334
0 0 1
0 0 1
0 0 1
0.100877 0 1
0.49453 0 1
0.778851 0 1
0.956329 0 0.992477
0.999954 0 0.987778
1 0 0.986877
0 0 1
0 0 1
0 0 1
0.11606 0 1
0.51165 0 1
0.791699 0 1
0.963073 0 0.993835
0.999985 0 0.989609
1 0 0.988128
0 0 1
0 0 1
0 0 1
0.126085 0 1
0.523339 0 1
0.80296 0 1
0.968109 0 0.994858
1 0 0.991455
1 0 0.990295
0 0.106905 1
0 0.11519 1
0 0.11342 1
0.124681 0.0817273 1
0.528466 0.0339971 1
0.808194 0.000396735 1
0.96698 0 0.997223
1 0 0.993408
1 0 0.99295
0 0.545663 1
0 0.550851 1
0 0.551492 1
0.114916 0.537667 1
0.52668 0.502892 1
0.80824 0.447333 1
0.962966 0.399573 0.998306
1 0.382223 0.996231
1 0.375418 0.995544
0 0.843732 1
0 0.848417 1
0 0.848539 1
0.072221 0.84123 1
0.516793 0.820447 1
0.804746 0.790387 1
0.955627 0.767529 0.999847
0.997421 0.761257 0.998657
1 0.75671 0.997909
0 0.997314 1
0 0.997192 1
0 0.996536 1
0.0601968 0.994018 1
0.512093 0.985275 1
0.801144 0.96231 1
0.949584 0.944152 1
0.991135 0.939101 0.99942
1 0.935393 0.999573
0 1 1
0 1 1
0 1 1
0.0661173 1 1
0.517296 1 1
0.805356 0.999954 1
0.949355 0.992416 1
0.989471 0.987747 0.999985
1 0.98471 1
0 1 1
0 1 1
0 1 1
0.0566415 1 1
0.523049 1 1
0.809903 1 1
0.950408 1 1
0.987808 1 1
1 1 1
