transforms/slog3_td_daylight_base.cube
TITLE "Generated by Resolve"
LUT_3D_SIZE 5
0.000259403 0.000747692 0.00144961
0.159518 0 0
0.625727 0 0
0.998596 0 0
1 0 0
1.5259e-05 0.180652 0.00518807
0.160235 0.165652 0.000366217
0.64004 0.0108186 0
0.999542 0 0
1 0 0
0 0.671809 0.019913
0.0975662 0.675731 0.0052491
0.637308 0.637491 0
1 0.562936 0
1 0.546304 0
0 1 0.0514992
0.00570687 1 0.033402
0.621118 1 0
0.999741 0.99881 0
1 0.997314 0
0 1 0.0584573
0.00149538 1 0.0418555
0.623285 1 0
0.997208 1 0
1 1 0
1.5259e-05 1.5259e-05 0.153429
0.147234 0 0.141772
0.622644 0 0.0222477
0.998291 0 0
1 0 0
0 0.165393 0.161471
0.147463 0.149172 0.150942
0.639033 0.00715648 0.028687
0.999664 0 0
1 0 0
0 0.670466 0.177478
0.0810101 0.674083 0.170184
0.636744 0.635416 0.0465858
1 0.562127 0
1 0.545419 0
0 1 0.199619
0.00315862 1 0.194659
0.620295 1 0.0789807
0.999222 0.998093 0
1 0.996933 0
0 1 0.20589
0.00265507 1 0.201526
0.62385 1 0.0881819
0.997192 1 0
1 1 0
0 0 0.5785
0.0273747 0 0.575174
0.594491 0 0.542718
0.995758 0 0.478492
1 0 0.460212
0 0.0226291 0.590387
0.024445 0.0107881 0.592294
0.611566 4.57771e-05 0.563012
0.998016 0 0.505257
1 0 0.492454
0 0.63682 0.604028
0.00303655 0.638437 0.608911
0.607904 0.596918 0.580911
0.995605 0.516106 0.528634
1 0.499062 0.518547
0 1 0.619165
0 1 0.625696
0.590845 0.999374 0.59971
0.98938 0.991089 0.551858
1 0.985168 0.54313
0 1 0.626108
0 1 0.634836
0.594308 1 0.610574
0.986954 1 0.566644
1 1 0.559777
0 0 0.968521
0 0 0.966644
0.533593 0 0.948928
0.972015 0 0.916564
1 0 0.906691
0 0 0.973739
0 0 0.972488
0.556085 0 0.956039
0.980606 0 0.926543
1 0 0.919493
0 0.563684 0.978561
0 0.568582 0.981964
0.553948 0.519661 0.964752
0.972763 0.423972 0.934585
1 0.401679 0.929046
0 0.999786 0.985351
0 0.998917 0.985641
0.535164 0.991058 0.971756
0.959365 0.953964 0.943603
1 0.945068 0.938125
0 1 0.987976
0 1 0.990524
0.540627 1 0.974945
0.958038 1 0.947723
1 1 0.943191
0 0 1
0 0 1
0.517128 0 1
0.963455 0 0.991852
1 0 0.986877
0 0 1
0 0 1
0.541543 0 1
0.973449 0 0.994842
1 0 0.990295
0 0.546029 1
0 0.551446 1
0.540536 0.501472 1
0.966049 0.399741 0.998184
1 0.376516 0.995544
0 0.99762 1
0 0.99675 1
0.522713 0.985473 1
0.952102 0.944625 1
1 0.936248 0.999573
0 1 1
0 1 1
0.529122 1 1
0.951354 1 1
1 1 0.999954
