transforms/slog3_td_tungsten_base.cube
TITLE "Generated by Resolve"
LUT_3D_SIZE 33
0 0.000732433 0.00251774
0.0016022 0.000549325 0.00180056
0.0101167 0.000350958 0.00102235
0.0264591 0.000259403 0.000686656
0.0445258 0.00015259 0.000396735
0.0648814 0.000106813 0.000213626
0.0888838 4.57771e-05 0.000106813
0.116579 0 4.57771e-05
0.148531 0 0
0.187442 0 0
0.234775 0 0
0.290288 0 0
0.351492 0 0
0.41532 0 0
0.479408 0 0
0.544427 0 0
0.608637 0 0
0.671214 0 0
0.733379 0 0
0.794247 0 0
0.852232 0 0
0.905135 0 0
0.950973 0 0
0.98436 0 0
0.998047 0 0
1 0 0
1 0 0
1 0 0
1 0 0
1 0 0
1 0 0
1 0 0
1 0 0
0 0.00756847 0.00325017
0.00161746 0.00723278 0.00204471
0.0100557 0.00640879 0.0009308
0.0261845 0.00531014 0.000640879
0.0447089 0.00447089 0.00047303
0.0654154 0.00358587 0.000335698
0.0896162 0.00231937 0.000213626
0.117739 0.000869764 0.000122072
0.149935 0.000137331 3.0518e-05
0.189212 0 0
0.237156 0 0
0.293065 0 0
0.354101 0 0
0.417533 0 0
0.482475 0 0
0.547555 0 0
0.611856 0 0
0.674632 0 0
0.736675 0 0
0.797818 0 0
0.855451 0 0
0.908293 0 0
0.953414 0 0
0.985763 0 0
0.998398 0 0
1 0 0
1 0 0
1 0 0
1 0 0
1 0 0
1 0 0
1 0 0
1 0 0
0 0.0232242 0.00363165
0.00166323 0.0225376 0.00228885
0.0102083 0.021088 0.00108339
0.026154 0.0189059 0.000732433
0.0449378 0.016846 0.000579843
0.0652323 0.0144656 0.000427253
0.0892958 0.01178 0.000366217
0.118288 0.00848402 0.000274662
0.150881 0.0053254 0.000106813
0.190753 0.00216678 1.5259e-05
0.239109 0.000442512 0
0.295705 4.57771e-05 0
0.356451 0 0
0.420066 0 0
0.485008 0 0
0.550011 0 0
0.614435 0 0
0.677424 0 0
0.739864 0 0
0.80061 0 0
0.858259 0 0
0.910643 0 0
0.955047 0 0
0.985626 0 0
0.998276 0 0
0.999969 0 0
1 0 0
1 0 0
1 0 0
1 0 0
1 0 0
1 0 0
1 0 0
0 0.0427863 0.00373846
0.00158694 0.0419165 0.00234989
0.00985733 0.0400702 0.00122072
0.0255894 0.0375525 0.000976577
0.0442969 0.03505 0.000915541
0.0645457 0.0322881 0.000823987
0.088716 0.0287327 0.000747692
0.117906 0.0242161 0.000564584
0.151568 0.0187533 0.000228885
0.191989 0.0118563 4.57771e-05
0.241108 0.00485237 1.5259e-05
0.297826 0.00120546 0
0.358831 0.00015259 0
0.422309 1.5259e-05 0
0.487465 0 0
0.552163 0 0
0.616388 0 0
0.68011 0 0
0.742565 0 0
0.803449 0 0
0.8607 0 0
0.912932 0 0
0.956359 0 0
0.985885 0 0
0.998062 0 0
0.999924 0 0
1 0 0
1 0 0
1 0 0
1 0 0
1 0 0
1 0 0
1 0 0
0 0.0640116 0.00399786
0.00146487 0.0628824 0.00263981
0.009308 0.0609293 0.00167849
0.0246281 0.05832 0.0016022
0.0432593 0.0561227 0.00155642
0.0639811 0.0533303 0.00149538
0.0886244 0.0496376 0.00132753
0.117784 0.0446479 0.000915541
0.151843 0.038117 0.000381476
0.192798 0.0297093 9.15541e-05
0.242298 0.0181277 1.5259e-05
0.299351 0.007187 0
0.360571 0.00167849 0
0.424552 0.000198367 0
0.49015 1.5259e-05 0
0.554253 0 0
0.61883 0 0
0.682628 0 0
0.745235 0 0
0.805844 0 0
0.863264 0 0
0.915053 0 0
0.958022 0 0
0.986435 0 0
0.998016 0 0
0.999908 0 0
1 0 0
1 0 0
1 0 0
1 0 0
1 0 0
1 0 0
1 0 0
0 0.0877546 0.00451667
0.00138857 0.0865492 0.00332647
0.00892653 0.0842451 0.00247196
0.0240635 0.0822156 0.00242618
0.042771 0.0803235 0.00227359
0.0634012 0.0777142 0.00218204
0.0885634 0.0741283 0.0018616
0.117891 0.0694591 0.00125124
0.152071 0.0631113 0.000518807
0.192828 0.0540322 0.000137331
0.243153 0.0404364 3.0518e-05
0.300099 0.0233463 0
0.362234 0.00886549 0
0.426947 0.00198367 0
0.492592 0.000213626 0
0.556802 1.5259e-05 0
0.621012 0 0
0.6851 0 0
0.747219 0 0
0.808087 0 0
0.865461 0 0
0.917205 0 0
0.959594 0 0
0.987213 0 0
0.998123 0 0
0.999908 0 0
1 0 0
1 0 0
1 0 0
1 0 0
1 0 0
1 0 0
1 0 0
0 0.114488 0.0052491
0.00123598 0.113588 0.00421149
0.00820935 0.111986 0.00328069
0.0231632 0.110155 0.00317388
0.041886 0.108431 0.00291447
0.0624857 0.106401 0.00273136
0.0877394 0.103243 0.00234989
0.117693 0.0990921 0.0015259
0.151797 0.0933089 0.00062562
0.193088 0.0844739 0.000167849
0.243717 0.071046 4.57771e-05
0.30132 0.0521401 0
0.363867 0.0298924 0
0.429068 0.011841 0
0.495079 0.00285344 0
0.558999 0.000335698 0
0.623087 3.0518e-05 0
0.687037 0 0
0.748882 0 0
0.809689 0 0
0.86775 0 0
0.919142 0 0
0.961105 0 0
0.988144 0 0
0.998276 0 0
0.999939 0 0
1 0 0
1 0 0
1 0 0
1 0 0
1 0 0
1 0 0
1 0 0
0 0.145312 0.00604257
0.000976577 0.14493 0.00527962
0.00689708 0.144167 0.00421149
0.0211337 0.142397 0.00381476
0.040116 0.14107 0.00349432
0.0608988 0.139528 0.00321965
0.0863355 0.136629 0.00271611
0.116609 0.13312 0.00175479
0.151568 0.128191 0.000732433
0.193454 0.120851 0.000198367
0.244343 0.109026 6.10361e-05
0.302342 0.0918593 0
0.365484 0.0684825 0
0.431281 0.0409705 0
0.49688 0.018204 0
0.561196 0.00523384 0
0.624445 0.00117494 0
0.688777 0.000289921 0
0.750408 3.0518e-05 0
0.811627 0 0
0.869764 0 0
0.921065 0 0
0.962814 0 0
0.989075 0 0
0.998535 0 0
0.999954 0 0
1 0 0
1 0 0
1 0 0
1 0 0
1 0 0
1 0 0
1 0 0
1.5259e-05 0.181888 0.00677501
0.000686656 0.181888 0.00646983
0.00521859 0.181247 0.00535592
0.0183413 0.18024 0.00448615
0.0374609 0.178988 0.0041352
0.0586709 0.177523 0.00369268
0.0841993 0.17557 0.0030518
0.115282 0.172595 0.00195315
0.151186 0.168261 0.000839246
0.193866 0.162325 0.000228885
0.244816 0.152819 6.10361e-05
0.303273 0.138567 0
0.366812 0.118853 0
0.432502 0.0920577 0
0.49807 0.0614023 0
0.562524 0.0316777 0
0.626215 0.0139315 0
0.689921 0.00573739 0
0.752194 0.00198367 0
0.81323 0.000656138 0
0.871611 9.15541e-05 0
0.92311 0 0
0.964401 0 0
0.990173 0 0
0.998871 0 0
0.999985 0 0
1 0 0
1 0 0
1 0 0
1 0 0
1 0 0
1 0 0
1 0 0
1.5259e-05 0.2262 0.00788891
0.000442512 0.226398 0.00756847
0.00366217 0.226337 0.00654612
0.0148775 0.225147 0.00538643
0.0336461 0.224537 0.00480659
0.055024 0.223743 0.0043183
0.0811475 0.22208 0.00347906
0.112825 0.219425 0.00236515
0.149767 0.215946 0.00106813
0.193027 0.211215 0.000274662
0.244556 0.203723 9.15541e-05
0.303639 0.19263 0
0.367102 0.176959 0
0.433066 0.156374 0
0.498634 0.129824 0
0.563912 0.0964675 0
0.627878 0.0641031 0
0.691218 0.0369268 0
0.753567 0.0195926 0
0.814267 0.00932326 0
0.873045 0.00360113 0
0.924468 0.0018616 0
0.96582 0.000915541 0
0.991257 0.000244144 0
0.999283 0 0
1 0 0
1 0 0
1 0 0
1 0 0
1 0 0
1 0 0
1 0 0
1 0 0
0 0.278965 0.00953689
0.000259403 0.279744 0.00901808
0.00239567 0.280034 0.0078584
0.0109865 0.27924 0.0065919
0.0279393 0.278859 0.00561532
0.0496986 0.278401 0.00495918
0.0762036 0.277119 0.00415045
0.10869 0.275135 0.00309758
0.146395 0.272801 0.00155642
0.190768 0.269383 0.000427253
0.243839 0.262837 0.000122072
0.303532 0.253697 0
0.367605 0.241352 0
0.433402 0.226123 0
0.499535 0.207355 0
0.564584 0.182696 0
0.629053 0.152193 0
0.692439 0.116854 0
0.75494 0.0832532 0
0.815625 0.0519265 0
0.873793 0.030808 0
0.925109 0.0205081 0
0.966308 0.0122377 0
0.992233 0.00555428 0
0.999725 0.00236515 0
1 0.00184634 0
1 0.00148013 0
1 0.00105287 0
1 0.000671397 0
1 0.000274662 0
1 0 0
1 0 0
1 0 0
0 0.338964 0.0112001
0.000106813 0.339971 0.0106966
0.00131228 0.340307 0.00953689
0.00688182 0.340764 0.00820935
0.0207675 0.34052 0.00686656
0.0419928 0.340017 0.00581369
0.0688334 0.339162 0.00494392
0.102159 0.337987 0.0037995
0.141314 0.336507 0.0021973
0.18735 0.33344 0.000762951
0.241703 0.327962 0.00015259
0.302632 0.320363 1.5259e-05
0.366995 0.311315 0
0.433463 0.29926 0
0.499596 0.284566 0
0.564904 0.267506 0
0.629206 0.245899 0
0.693523 0.220447 0
0.756329 0.18822 0
0.816861 0.149905 0
0.874464 0.11606 0
0.92488 0.0895247 0
0.966155 0.0643168 0
0.992386 0.0444495 0
1 0.0338903 0
1 0.0309453 0
1 0.0286259 0
1 0.0259251 0
1 0.0242618 0
1 0.0237583 0
1 0.0231479 0
1 0.0226139 0
1 0.0223239 0
0 0.404028 0.0126345
3.0518e-05 0.405371 0.0124056
0.000488289 0.405905 0.0113985
0.00335698 0.40618 0.00999466
0.0130007 0.405875 0.00857557
0.0321202 0.405859 0.0071107
0.0588693 0.405509 0.00585946
0.0933547 0.404623 0.00460822
0.134585 0.403677 0.00283818
0.182147 0.401083 0.00111391
0.237934 0.397238 0.000213626
0.299825 0.391348 3.0518e-05
0.365423 0.383307 0
0.432547 0.373266 0
0.499657 0.361868 0
0.564797 0.347951 0
0.629511 0.332433 0
0.693538 0.313542 0
0.756634 0.292348 0
0.817563 0.267124 0
0.874586 0.238834 0
0.925093 0.20827 0
0.965743 0.177676 0
0.991699 0.152621 0
1 0.137209 0
1 0.128985 0
1 0.122393 0
1 0.118151 0
1 0.11574 0
1 0.113863 0
1 0.111864 0
1 0.109926 0
1 0.108476 0
0 0.472206 0.0147555
0 0.473243 0.0144656
9.15541e-05 0.473579 0.0134279
0.00105287 0.473671 0.0120241
0.00611887 0.47396 0.0104829
0.0206912 0.474601 0.00892653
0.0468757 0.47393 0.00726329
0.0826429 0.473655 0.00552377
0.125841 0.472755 0.00361639
0.175723 0.471199 0.00157168
0.233127 0.467247 0.000335698
0.296849 0.462898 4.57771e-05
0.363394 0.456428 0
0.431693 0.447684 0
0.499168 0.437736 0
0.564828 0.426963 0
0.62945 0.41384 0
0.693629 0.399969 0
0.756802 0.383032 0
0.817563 0.364004 0
0.874647 0.344564 0
0.924697 0.32462 0
0.96492 0.306554 0
0.99086 0.290669 0
1 0.277974 0
1 0.268132 0
1 0.260014 0
1 0.253727 0
1 0.250675 0
1 0.247242 0
1 0.24416 0
1 0.242039 0
1 0.239857 0
0 0.539849 0.0176852
0 0.540917 0.0171664
0 0.541573 0.0158999
0.000137331 0.542138 0.0143587
0.00178531 0.542977 0.0129397
0.0105287 0.54313 0.0112459
0.0332799 0.542763 0.00946059
0.0695659 0.542184 0.00706493
0.115221 0.541695 0.00480659
0.16788 0.540002 0.00247196
0.227848 0.537041 0.000656138
0.292775 0.533547 7.62951e-05
0.360723 0.52752 0
0.429496 0.520775 0
0.497505 0.51281 0
0.563714 0.502831 0
0.629145 0.492363 0
0.693538 0.47982 0
0.756558 0.466423 0
0.817548 0.45124 0
0.874189 0.435904 0
0.924163 0.420554 0
0.964004 0.407324 0
0.990372 0.395407 0
1 0.385901 0
1 0.379034 0
1 0.373831 0
1 0.369863 0
1 0.368048 0
1 0.365911 0
1 0.362615 0
1 0.36144 0
1 0.359533 0
0 0.606058 0.0210727
0 0.607675 0.0201877
0 0.60885 0.0188907
1.5259e-05 0.609689 0.0174105
0.000396735 0.610819 0.0159457
0.00395209 0.610925 0.0141451
0.0197757 0.610834 0.0124208
0.0542763 0.610391 0.00987259
0.102037 0.609674 0.00656138
0.158282 0.608423 0.00361639
0.220829 0.606409 0.00115969
0.287907 0.60209 0.000137331
0.357015 0.597116 0
0.426993 0.591363 0
0.495247 0.584634 0
0.561975 0.576364 0
0.628214 0.567544 0
0.692454 0.556008 0
0.755413 0.54403 0
0.816739 0.531914 0
0.874174 0.519768 0
0.923766 0.50724 0
0.96347 0.495933 0
0.989914 0.486381 0
1 0.478737 0
1 0.473503 0
1 0.470024 0
1 0.466484 0
1 0.465064 0
1 0.463401 0
1 0.461723 0
1 0.460258 0
1 0.458686 0
0 0.672755 0.0243534
0 0.673609 0.023682
0 0.674784 0.0227512
0 0.675959 0.0211032
3.0518e-05 0.676829 0.0198215
0.000946059 0.677958 0.0176852
0.00874342 0.678325 0.0156405
0.0375525 0.677836 0.0132448
0.0866102 0.676951 0.0087129
0.146532 0.675639 0.00474556
0.213107 0.674113 0.00173953
0.282612 0.670817 0.000289921
0.353155 0.666133 3.0518e-05
0.423392 0.660655 0
0.492775 0.655314 0
0.560265 0.647791 0
0.62649 0.639918 0
0.691569 0.629755 0
0.754894 0.619791 0
0.816281 0.609689 0
0.873487 0.598611 0
0.923354 0.587686 0
0.962814 0.578653 0
0.989807 0.570077 0
1 0.564095 0
1 0.559869 0
1 0.556344 0
1 0.553841 0
1 0.552743 0
1 0.551553 0
1 0.550164 0
1 0.548226 0
1 0.546838 0
0 0.738659 0.027863
0 0.739956 0.0277256
0 0.740826 0.0271
0 0.742092 0.0252689
0 0.743084 0.024155
6.10361e-05 0.743893 0.0217288
0.002121 0.744106 0.0193027
0.0213474 0.74464 0.0165866
0.0683604 0.743343 0.0114595
0.133181 0.742809 0.00648508
0.204105 0.740932 0.0028687
0.276112 0.737591 0.000656138
0.347936 0.733822 6.10361e-05
0.419684 0.729488 0
0.490166 0.723903 0
0.558221 0.718166 0
0.624796 0.711025 0
0.6907 0.702312 0
0.75462 0.692973 0
0.815595 0.684352 0
0.872847 0.673884 0
0.922377 0.664302 0
0.962219 0.656641 0
0.989929 0.649516 0
1 0.644099 0
1 0.640497 0
1 0.637629 0
1 0.63592 0
1 0.634775 0
1 0.633783 0
1 0.632578 0
1 0.631235 0
1 0.629908 0
0 0.803525 0.0323186
0 0.805173 0.0320745
0 0.806836 0.0315557
0 0.808118 0.0295109
0 0.809415 0.0286564
0 0.809537 0.0260929
0.00047303 0.808743 0.0239109
0.00775158 0.809583 0.0205997
0.0485542 0.809018 0.0154879
0.117632 0.808621 0.00943008
0.193988 0.806622 0.00479133
0.268284 0.803418 0.00117494
0.342321 0.8 9.15541e-05
0.415961 0.796704 0
0.486778 0.791409 0
0.555947 0.786358 0
0.62295 0.779263 0
0.689509 0.771282 0
0.753094 0.763699 0
0.814878 0.755398 0
0.871809 0.746822 0
0.920882 0.738369 0
0.96083 0.731472 0
0.989776 0.724575 0
0.999802 0.719982 0
1 0.717113 0
1 0.714885 0
1 0.713283 0
1 0.711925 0
1 0.711513 0
1 0.71017 0
1 0.709178 0
1 0.707927 0
0 0.867857 0.0374456
0 0.869459 0.0366674
0 0.870802 0.035935
0 0.871946 0.0339055
0 0.87277 0.0331121
0 0.87306 0.0305333
0 0.871305 0.0291447
0.00132753 0.871778 0.0258488
0.0289158 0.872663 0.0201724
0.101045 0.872404 0.0135042
0.18262 0.870192 0.00717174
0.260395 0.867582 0.0016022
0.33698 0.863813 0.000122072
0.411933 0.860533 0
0.482979 0.856428 0
0.553201 0.851591 0
0.621118 0.845731 0
0.687526 0.838224 0
0.751385 0.830488 0
0.813535 0.823285 0
0.871504 0.815412 0
0.920317 0.807843 0
0.959396 0.802106 0
0.988617 0.79585 0
0.999115 0.791669 0
1 0.789441 0
1 0.78793 0
1 0.786526 0
1 0.78558 0
1 0.784207 0
1 0.783261 0
1 0.782528 0
1 0.781353 0
0 0.926925 0.042771
0 0.928512 0.0412909
0 0.929366 0.0403906
0 0.930785 0.0383307
0 0.931777 0.0375219
0 0.931975 0.0350347
0 0.930983 0.0344244
0.000503548 0.930663 0.0311131
0.0116884 0.931319 0.0252995
0.082414 0.931517 0.0186313
0.170504 0.929656 0.010193
0.252644 0.927413 0.00244144
0.330632 0.924376 0.000183108
0.407721 0.921294 0
0.479393 0.916976 0
0.549783 0.912215 0
0.618891 0.907317 0
0.685954 0.900465 0
0.749157 0.892699 0
0.811978 0.885481 0
0.870619 0.878553 0
0.91931 0.872618 0
0.958587 0.867201 0
0.98761 0.861418 0
0.99852 0.857893 0
1 0.855207 0
1 0.853895 0
1 0.852842 0
1 0.852079 0
1 0.850614 0
1 0.849912 0
1 0.849424 0
1 0.848371 0
0 0.974975 0.0469215
0 0.976135 0.0455482
0 0.976974 0.0446326
0 0.977554 0.0426184
0 0.978256 0.041886
0 0.978607 0.0393835
0 0.978408 0.0384527
7.62951e-05 0.97821 0.0352331
0.00357061 0.978317 0.0299382
0.0653849 0.977356 0.0227207
0.158236 0.976349 0.0133822
0.244968 0.974929 0.00416571
0.325338 0.972457 0.000396735
0.402564 0.969635 1.5259e-05
0.475975 0.965759 0
0.546609 0.961578 0
0.617151 0.957778 0
0.684062 0.952697 0
0.748012 0.946563 0
0.810697 0.939757 0
0.869261 0.933272 0
0.918135 0.92723 0
0.957397 0.92195 0
0.987228 0.917739 0
0.998505 0.914412 0
1 0.911299 0
1 0.910277 0
1 0.908415 0
1 0.907912 0
1 0.907118 0
1 0.906752 0
1 0.905699 0
1 0.904845 0
0 1 0.0506142
0 1 0.0494087
0 1 0.0483406
0 1 0.0467536
0 1 0.0458381
0 1 0.0436408
0 1 0.041886
0.000213626 0.999985 0.0384527
0.00547799 0.999756 0.0332341
0.052781 0.998642 0.0259251
0.147265 0.998383 0.016022
0.238865 0.997086 0.00643931
0.321111 0.995315 0.000976577
0.399466 0.99382 4.57771e-05
0.473747 0.992386 0
0.544823 0.99089 0
0.615061 0.988907 0
0.682231 0.987015 0
0.747631 0.984146 0
0.810361 0.978973 0
0.868406 0.973404 0
0.917281 0.968902 0
0.956191 0.965011 0
0.986313 0.961334 0
0.998581 0.959487 0
0.999985 0.956832 0
1 0.95555 0
1 0.953765 0
1 0.953063 0
1 0.95288 0
1 0.952422 0
1 0.951049 0
1 0.950378 0
0 1 0.0535134
0 1 0.052842
0 1 0.0514382
0 1 0.0502174
0 1 0.0489815
0 1 0.0470741
0 1 0.0446632
0.000244144 1 0.0411536
0.00579843 1 0.0360876
0.0446479 1 0.0287633
0.138949 0.999969 0.0184329
0.233051 0.999924 0.00805676
0.317708 0.999802 0.00161746
0.397055 0.999695 0.000106813
0.471946 0.999527 0
0.543481 0.999405 0
0.613886 0.999084 0
0.680903 0.99884 0
0.747143 0.998413 0
0.810254 0.996185 0
0.868284 0.993851 0
0.916747 0.992432 0
0.955627 0.990616 0
0.985428 0.989425 0
0.998566 0.9888 0
0.999969 0.987091 0
1 0.986145 0
1 0.985565 0
1 0.985306 0
1 0.984222 0
1 0.98381 0
1 0.983383 0
1 0.98294 0
0 1 0.0563821
0 1 0.0555734
0 1 0.0543221
0 1 0.0529793
0 1 0.0514076
0 1 0.0498054
0 1 0.0475013
0.000198367 1 0.0438697
0.00492866 1 0.0387884
0.039765 1 0.0315709
0.132006 1 0.0210269
0.228977 1 0.00958267
0.315129 1 0.00216678
0.39559 1 0.000167849
0.470771 1 0
0.543389 1 0
0.61355 1 0
0.681178 1 0
0.747204 0.999985 0
0.81001 0.999725 0
0.868269 0.999405 0
0.916518 0.999207 0
0.955322 0.998962 0
0.983917 0.998764 0
0.998459 0.998672 0
0.999985 0.998093 0
1 0.997803 0
1 0.997772 0
1 0.997742 0
1 0.99736 0
1 0.997208 0
1 0.997269 0
1 0.997162 0
0 1 0.0584726
0 1 0.0575418
0 1 0.0563973
0 1 0.0551614
0 1 0.0537575
0 1 0.0519875
0 1 0.0495766
0.000137331 1 0.0459907
0.0037232 1 0.0408026
0.0371099 1 0.0333104
0.127825 1 0.0225071
0.22649 1 0.0106203
0.314427 1 0.00254826
0.394919 1 0.000213626
0.471046 1 0
0.543267 1 0
0.613458 1 0
0.681895 1 0
0.747051 1 0
0.809659 1 0
0.867475 1 0
0.916426 1 0
0.954498 1 0
0.983124 1 0
0.997986 0.999985 0
1 0.999924 0
1 0.999878 0
1 0.999893 0
1 0.999893 0
1 0.999863 0
1 0.999878 0
1 0.999908 0
1 0.999908 0
0 1 0.0597848
0 1 0.0591135
0 1 0.0578927
0 1 0.0569772
0 1 0.0555581
0 1 0.0535744
0 1 0.0508278
7.62951e-05 1 0.0471199
0.00259403 1 0.0420691
0.0365759 1 0.0342565
0.125505 1 0.0232395
0.225803 1 0.0112459
0.314137 1 0.00299077
0.395453 1 0.000274662
0.471427 1 0
0.544411 1 0
0.614466 1 0
0.682216 1 0
0.747921 1 0
0.810315 1 0
0.867735 1 0
0.915862 1 0
0.954238 1 0
0.982834 1 0
0.997604 1 0
1 1 0
1 1 0
1 1 0
1 1 0
1 1 0
1 1 0
1 1 0
1 1 0
0 1 0.0610971
0 1 0.060502
0 1 0.0592355
0 1 0.0581064
0 1 0.0568704
0 1 0.0548409
0 1 0.0522774
1.5259e-05 1 0.0485695
0.00181582 1 0.0428626
