transforms/slog3_td_tungsten_base.cube
TITLE "Generated by Resolve"
LUT_3D_SIZE 5
0 0.000732433 0.00251774
0.148531 0 0
0.608637 0 0
0.998047 0 0
1 0 0
1.5259e-05 0.181888 0.00677501
0.151186 0.168261 0.000839246
0.626215 0.0139315 0
0.998871 0 0
1 0 0
0 0.672755 0.0243534
0.0866102 0.676951 0.0087129
0.62649 0.639918 0
1 0.564095 0
1 0.546838 0
0 1 0.0563821
0.00492866 1 0.0387884
0.61355 1 0
0.998459 0.998672 0
1 0.997162 0
0 1 0.064332
0.00137331 1 0.0474098
0.619532 1 0
0.996933 1 0
1 1 0
0 1.5259e-05 0.161608
0.134936 0 0.150942
0.605066 0 0.0327306
0.997665 0 0
1 0 0
0 0.165545 0.170993
0.136355 0.150744 0.162371
0.624582 0.00933852 0.0468147
0.999237 0 0
1 0 0
0 0.670527 0.189975
0.0666972 0.6748 0.184146
0.625132 0.636973 0.0691386
0.999985 0.562158 0
1 0.545174 0
0 1 0.212024
0.00250248 1 0.208682
0.611826 1 0.105104
0.997909 0.997955 0
1 0.996674 0
0 1 0.222171
0.00209049 1 0.22034
0.619303 1 0.118624
0.996887 1 0.00289921
1 1 0.00196841
0 0 0.593973
0.0137789 0 0.591257
0.574121 0 0.561044
0.993255 0 0.498756
1 0 0.479438
0 0.018204 0.60911
0.0128786 0.00921645 0.611261
0.594217 4.57771e-05 0.584375
0.99585 0 0.527733
1 0 0.514382
0 0.633448 0.625437
0.00062562 0.635981 0.63064
0.593393 0.595407 0.60473
0.993942 0.513512 0.554131
1 0.495125 0.543938
0 1 0.64358
0 1 0.650492
0.579232 0.999252 0.626123
0.985962 0.989487 0.580118
1 0.982879 0.57145
0 1 0.653422
0 1 0.663035
0.586847 1 0.639902
0.984649 1 0.598123
1 1 0.591684
0 0 0.975586
0 0 0.973495
0.510475 0 0.957305
0.964492 0 0.925704
1 0 0.915831
0 0 0.982864
0 0 0.980697
0.536828 0 0.965057
0.974456 0 0.93492
1 0 0.928344
0 0.561563 0.986389
0 0.566735 0.988952
0.538796 0.519203 0.973281
0.968856 0.421714 0.943465
1 0.397681 0.938094
0 0.999557 0.992615
0 0.998657 0.993011
0.523323 0.990219 0.981888
0.955886 0.952483 0.95346
1 0.943099 0.947478
0 1 0.996704
0 1 0.996536
0.533379 1 0.983841
0.956085 1 0.956909
1 1 0.9523
0 0 1
0 0 1
0.49453 0 1
0.956329 0 0.992477
1 0 0.986877
0 0 1
0 0 1
0.523339 0 1
0.968109 0 0.994858
1 0 0.990295
0 0.545663 1
0 0.551492 1
0.52668 0.502892 1
0.962966 0.399573 0.998306
1 0.375418 0.995544
0 0.997314 1
0 0.996536 1
0.512093 0.985275 1
0.949584 0.944152 1
1 0.935393 0.999573
0 1 1
0 1 1
0.523049 1 1
0.950408 1 1
1 1 1
