transforms/slog3_td_daylight_base.cube
TITLE "Generated by Resolve"
LUT_3D_SIZE 9
0.000259403 0.000747692 0.00144961
0.050721 0.000122072 0.000244144
0.159518 0 0
0.369375 0 0
0.625727 0 0
0.866438 0 0
0.998596 0 0
1 0 0
1 0 0
0 0.0631418 0.0030518
0.0487068 0.054902 0.00112917
0.161166 0.0357061 0.000167849
0.37641 0.000671397 0
0.634684 0 0
0.876356 0 0
0.999313 0 0
1 0 0
1 0 0
1.5259e-05 0.180652 0.00518807
0.0425116 0.177371 0.00274662
0.160235 0.165652 0.000366217
0.381521 0.112337 0
0.64004 0.0108186 0
0.883818 3.0518e-05 0
0.999542 0 0
1 0 0
1 0 0
0 0.403128 0.00952163
0.0169223 0.40441 0.00549325
0.144213 0.401404 0.00123598
0.378683 0.379858 0
0.641657 0.327337 0
0.884932 0.231495 0
1 0.132753 0
1 0.113527 0
1 0.106874 0
0 0.671809 0.019913
0.000122072 0.676066 0.0155489
0.0975662 0.675731 0.0052491
0.365393 0.664149 1.5259e-05
0.637308 0.637491 0
0.881758 0.596399 0
1 0.562936 0
1 0.552041 0
1 0.546304 0
0 0.926619 0.0379644
0 0.931517 0.0330205
0.0188449 0.931243 0.0200198
0.341909 0.924269 7.62951e-05
0.628168 0.90605 0
0.877089 0.877897 0
0.998718 0.858183 0
1 0.852155 0
1 0.848859 0
0 1 0.0514992
0 1 0.0465095
0.00570687 1 0.033402
0.325231 1 0.000854505
0.621118 1 0
0.874067 0.99942 0
0.999741 0.99881 0
1 0.997879 0
1 0.997314 0
0 1 0.0567941
0 1 0.0524147
0.00169375 1 0.0379034
0.324376 1 0.00167849
0.623438 1 0
0.87396 1 0
0.997818 1 0
1 1 0
1 1 0
0 1 0.0584573
0 1 0.0547494
0.00149538 1 0.0418555
0.322423 1 0.00213626
0.623285 1 0
0.875578 1 0
0.997208 1 0
1 1 0
1 1 0
0.000137331 0.000228885 0.0549935
0.0441596 4.57771e-05 0.0490425
0.156115 0 0.0369726
0.367132 0 0.00363165
0.624949 0 0
0.867002 0 0
0.998245 0 0
1 0 0
1 0 0
0 0.0554513 0.0568093
0.0425116 0.0466926 0.0515602
0.157473 0.028336 0.0392767
0.376333 0.000106813 0.00270085
0.6336 0 0
0.877394 0 0
0.999451 0 0
1 0 0
1 0 0
0 0.176761 0.0606394
0.0366369 0.173037 0.0551766
0.156466 0.161181 0.0424811
0.380331 0.105745 0.00415045
0.641108 0.00975052 0
0.884306 1.5259e-05 0
0.999619 0 0
1 0 0
1 0 0
0 0.401663 0.0670787
0.0124361 0.403296 0.0619821
0.140536 0.400244 0.0493324
0.378882 0.378973 0.00721752
0.643046 0.32578 0
0.885847 0.228519 0
1 0.134691 0
1 0.116213 0
1 0.10782 0
0 0.672435 0.0792706
7.62951e-05 0.677256 0.074342
0.0938277 0.676356 0.06215
0.36527 0.665034 0.0127718
0.638224 0.63772 0
0.883177 0.595834 0
1 0.563638 0
1 0.553033 0
1 0.547341 0
0 0.928389 0.0959335
0 0.929976 0.09131
0.0163729 0.932387 0.0803235
0.342824 0.924758 0.027039
0.627085 0.906081 0
0.877638 0.878965 0
0.998734 0.858976 0
1 0.852522 0
1 0.849638 0
0 1 0.108553
0 1 0.104707
0.00547799 1 0.0927901
0.325322 1 0.0400397
0.622019 1 0
0.874174 0.999435 0
0.999512 0.998657 0
1 0.997345 0
1 0.997375 0
0 1 0.113466
0 1 0.109773
0.00283818 1 0.0984054
0.324239 1 0.042771
0.623819 1 0
0.875608 1 0
0.997833 1 0
1 1 0
1 1 0
0 1 0.114809
0 1 0.111574
0.00256352 1 0.0996719
0.323079 1 0.0460059
0.625116 1 1.5259e-05
0.876173 1 0
0.997009 1 0
1 1 0
1 1 0
1.5259e-05 1.5259e-05 0.153429
0.0313573 0 0.150271
0.147234 0 0.141772
0.364157 0 0.105272
0.622644 0 0.0222477
0.865492 0 0
0.998291 0 0
1 0 0
1 0 0
0 0.0376135 0.158282
0.0292821 0.0291905 0.154696
0.149233 0.0133516 0.147036
0.371954 1.5259e-05 0.110994
0.632883 0 0.0233005
0.876081 0 0.000106813
0.999512 0 0
1 0 0
1 0 0
0 0.165393 0.161471
0.0225681 0.161471 0.159335
0.147463 0.149172 0.150942
0.377386 0.0896773 0.115343
0.639033 0.00715648 0.028687
0.882475 0 0.000976577
0.999664 0 0
1 0 0
1 0 0
0 0.396811 0.167468
0.0053254 0.399237 0.166751
0.130617 0.396109 0.159411
0.37525 0.374151 0.123751
0.641077 0.320714 0.0354772
0.884352 0.220157 3.0518e-05
1 0.130358 0
1 0.110613 0
1 0.10222 0
0 0.670466 0.177478
0 0.674495 0.176623
0.0810101 0.674083 0.170184
0.361929 0.662577 0.13579
0.636744 0.635416 0.0465858
0.881987 0.593881 0
1 0.562127 0
1 0.550271 0
1 0.545419 0
0 0.925917 0.189395
0 0.930312 0.189044
0.010071 0.930968 0.1832
0.338491 0.924178 0.15172
0.62652 0.905379 0.0642863
0.876707 0.877272 0.00375372
0.998627 0.857603 0
1 0.85127 0
1 0.848386 0
0 1 0.199619
0 1 0.199802
0.00315862 1 0.194659
0.321492 1 0.163714
0.620295 1 0.0789807
0.873304 0.999344 0.00689708
0.999222 0.998093 0
1 0.997375 0
1 0.996933 0
0 1 0.204868
0 1 0.206119
0.00325017 1 0.200229
0.320363 1 0.169039
0.622797 1 0.0855726
0.874189 1 0.00402838
0.997238 1 0
1 1 0
1 1 0
0 1 0.20589
0 1 0.207599
0.00265507 1 0.201526
0.320027 1 0.170459
0.62385 1 0.0881819
0.875425 1 0.00399786
0.997192 1 0
1 1 0
1 1 0
0 0 0.342504
0.00183108 0 0.339666
0.112261 0 0.335714
0.348363 0 0.319615
0.61445 0 0.278096
0.860029 0 0.205386
0.997635 0 0.130999
1 0 0.0956893
1 0 0.0843214
0 0.00265507 0.34905
0.00120546 0.00122072 0.348058
0.112337 0.000106813 0.345922
0.357519 0 0.330129
0.62359 0 0.29041
0.870039 0 0.221485
0.999359 0 0.149889
1 0 0.117266
1 0 0.106096
0 0.118898 0.354742
0.00115969 0.113191 0.355093
0.109285 0.0979934 0.35317
0.361959 0.0378882 0.337957
0.63093 0.00181582 0.299886
0.87715 0 0.233997
0.999619 0 0.167498
1 0 0.140856
1 0 0.1308
0 0.378286 0.360159
0.000106813 0.379553 0.363897
0.0883192 0.375937 0.362066
0.359426 0.352453 0.346166
0.632792 0.295033 0.309621
0.878889 0.181247 0.24744
1 0.104219 0.187961
1 0.075288 0.16672
1 0.0655222 0.157366
0 0.659358 0.369238
0 0.663478 0.3729
0.0371252 0.66334 0.371893
0.344839 0.651881 0.356878
0.627405 0.623713 0.321096
0.875624 0.580758 0.261997
0.998688 0.547646 0.210056
1 0.536233 0.190448
1 0.531548 0.180987
0 0.918959 0.37998
0 0.923278 0.38381
0.00227359 0.923583 0.38294
0.321202 0.916197 0.368917
0.617029 0.897612 0.334401
0.870314 0.868635 0.278401
0.997864 0.848814 0.229984
1 0.842268 0.212482
1 0.840314 0.203769
0 1 0.387884
0 1 0.392752
0.00163272 1 0.392615
0.302113 1 0.378775
0.611276 0.999924 0.344991
0.867094 0.999069 0.290776
0.99823 0.996017 0.246754
1 0.995636 0.232654
1 0.994797 0.224796
0 1 0.394919
0 1 0.399802
0.0015259 1 0.399603
0.300328 1 0.386023
0.613611 1 0.352972
0.867903 1 0.301411
0.995392 1 0.261418
1 1 0.250599
1 1 0.243061
0 1 0.396719
0 1 0.401434
0.000976577 1 0.402075
0.299763 1 0.388983
0.614816 1 0.357977
0.86891 1 0.307546
0.994812 1 0.27013
1 1 0.258457
1 1 0.25127
0 0 0.5785
0 0 0.578241
0.0273747 0 0.575174
0.31223 0 0.564843
0.594491 0 0.542718
0.846235 0 0.508293
0.995758 0 0.478492
1 0 0.465202
1 0 0.460212
0 0 0.584863
0 0 0.586221
0.0233005 0 0.584848
0.321035 0 0.575143
0.605158 0 0.553872
0.85687 0 0.521019
0.998154 0 0.493309
1 0 0.482628
1 0 0.479026
0 0.0226291 0.590387
0 0.0175326 0.593133
0.024445 0.0107881 0.592294
0.327016 0.00265507 0.582879
0.611566 4.57771e-05 0.563012
0.86392 0 0.531044
0.998016 0 0.505257
1 0 0.496483
1 0 0.492454
0 0.332387 0.596063
0 0.333959 0.600244
0.0167544 0.329747 0.599786
0.324071 0.302403 0.59147
0.613245 0.22974 0.571298
0.864958 0.113069 0.541283
0.997116 0.0432898 0.517678
1 0.0359808 0.509804
1 0.0325628 0.504585
0 0.63682 0.604028
0 0.638682 0.607752
0.00303655 0.638437 0.608911
0.306905 0.626459 0.600626
0.607904 0.596918 0.580911
0.862531 0.551781 0.551064
0.995605 0.516106 0.528634
1 0.504936 0.521645
1 0.499062 0.518547
0 0.902586 0.612039
0 0.906279 0.616037
0.000106813 0.906752 0.617548
0.279484 0.89868 0.610437
0.59826 0.879286 0.591379
0.857359 0.850233 0.562356
0.993469 0.829618 0.541405
1 0.824262 0.534859
1 0.821073 0.531716
0 1 0.619165
0 1 0.624155
0 1 0.625696
0.255222 0.999969 0.617899
0.590845 0.999374 0.59971
0.852766 0.996384 0.571679
0.98938 0.991089 0.551858
1 0.987411 0.547005
1 0.985168 0.54313
0 1 0.624765
0 1 0.630823
0 1 0.63212
0.251759 1 0.625971
0.592538 1 0.606561
0.853605 1 0.580179
0.986526 1 0.560998
1 1 0.556329
1 1 0.553292
0 1 0.626108
0 1 0.632532
0 1 0.634836
0.253147 1 0.628489
0.594308 1 0.610574
0.854826 1 0.584497
0.986954 1 0.566644
1 1 0.562295
1 1 0.559777
0 0 0.805249
0 0 0.805524
4.57771e-05 0 0.805234
0.249317 0 0.797192
0.565194 0 0.78204
0.825681 0 0.758541
0.985229 0 0.738964
1 0 0.730449
1 0 0.726223
0 0 0.811414
0 0 0.812543
0 0 0.81355
0.261082 0 0.8065
0.574655 0 0.791562
0.837522 0 0.769757
0.99086 0 0.751904
1 0 0.74464
1 0 0.741588
0 0 0.817014
0 1.5259e-05 0.818204
0.000137331 0.00015259 0.819821
0.266789 0 0.813794
0.582666 0 0.799069
0.84387 0 0.778347
0.99353 0 0.762173
1 0 0.757061
1 0 0.752544
0 0.250355 0.823484
0 0.252674 0.825284
0.000137331 0.246296 0.826322
0.261662 0.207034 0.821073
0.583963 0.122972 0.80763
0.845228 0.0367437 0.786984
0.99028 0.00910964 0.770733
1 0.00180056 0.765911
1 0.00047303 0.762783
0 0.598581 0.828626
0 0.602213 0.833448
1.5259e-05 0.601389 0.83331
0.241291 0.587777 0.828779
0.578515 0.556252 0.814832
0.842573 0.507301 0.794995
0.985565 0.467674 0.779828
1 0.455451 0.775464
1 0.448631 0.772442
0 0.878004 0.836393
0 0.881086 0.838788
0 0.881483 0.841123
0.208789 0.873411 0.835264
0.567102 0.854246 0.823011
0.837873 0.823423 0.802396
0.978759 0.801892 0.788952
1 0.795956 0.785229
1 0.793179 0.783261
0 1 0.841031
0 0.999832 0.846387
0 0.999649 0.84686
0.176867 0.999237 0.84329
0.560586 0.996674 0.829908
0.83238 0.986969 0.810971
0.973022 0.972259 0.797726
1 0.96733 0.794247
1 0.96405 0.791379
0 1 0.845487
0 1 0.851606
0 1 0.853223
0.175677 1 0.848768
0.56257 1 0.835172
0.83389 1 0.816846
0.971725 1 0.803922
0.999985 0.999985 0.801724
1 0.999985 0.799451
0 1 0.846494
0 1 0.852979
0 1 0.855787
0.173205 1 0.851209
0.564401 1 0.838163
0.835584 1 0.821286
0.971099 1 0.809461
0.999847 1 0.807355
1 1 0.804532
0 0 0.968521
0 0 0.968978
0 0 0.966644
0.175204 0 0.962478
0.533593 0 0.948928
0.805783 0 0.932052
0.972015 0 0.916564
1 0 0.910796
1 0 0.906691
0 0 0.97232
0 0 0.972885
0 0 0.970459
0.194537 0 0.966155
0.547356 0 0.952422
0.818479 0 0.935714
0.977661 0 0.922225
1 0 0.917403
1 0 0.913893
0 0 0.973739
0 0 0.974517
0 0 0.972488
0.201572 0 0.968429
0.556085 0 0.956039
0.826261 0 0.939101
0.980606 0 0.926543
1 0 0.92256
1 0 0.919493
0 0.14876 0.975372
0 0.152438 0.977096
0 0.14789 0.975814
0.194064 0.118166 0.971511
0.558282 0.0449989 0.961608
0.828183 0.00813306 0.943099
0.977935 0 0.930922
1 0 0.927184
1 0 0.925124
0 0.563684 0.978561
0 0.568933 0.980789
0 0.568582 0.981964
0.172274 0.553872 0.976013
0.553948 0.519661 0.964752
0.826154 0.465965 0.94725
0.972763 0.423972 0.934585
1 0.409735 0.930007
1 0.401679 0.929046
0 0.855299 0.984939
0 0.859861 0.984939
0 0.860426 0.983703
0.131609 0.852476 0.9794
0.542504 0.831418 0.967895
0.821347 0.800717 0.950744
0.965713 0.779141 0.93901
0.999908 0.773236 0.935851
1 0.770642 0.932998
0 0.999786 0.985351
0 0.999268 0.986725
0 0.998917 0.985641
0.104479 0.99678 0.981262
0.535164 0.991058 0.971756
0.816297 0.971252 0.95378
0.959365 0.953964 0.943603
0.997604 0.948745 0.940124
1 0.945068 0.938125
0 1 0.986709
0 1 0.988693
0 1 0.98822
0.104082 1 0.984451
0.538338 1 0.974182
0.818265 1 0.956481
0.957992 0.998856 0.946059
0.995941 0.996063 0.942657
1 0.993286 0.941329
0 1 0.987976
0 1 0.990204
0 1 0.990524
0.0888075 1 0.98497
0.540627 1 0.974945
0.820401 1 0.957595
0.958038 1 0.947723
0.994827 1 0.94461
1 1 0.943191
0 0 1
0 0 1
0 0 1
0.139132 0 1
0.520562 0 0.999954
0.798245 0 0.994629
0.964889 0 0.981109
1 0 0.97641
1 0 0.973709
0 0 1
0 0 1
0 0 1
0.159487 0 1
0.535454 0 1
0.810895 0 0.994781
0.970062 0 0.981506
1 0 0.977386
1 0 0.975402
0 0 1
0 0 1
0 0 1
0.168872 0 1
0.544854 0 1
0.818494 0 0.996246
0.974136 0 0.982132
1 0 0.978637
1 0 0.977096
0 0.112734 1
0 0.119509 1
0 0.118669 1
0.163546 0.0870832 1
0.547768 0.0341344 1
0.821561 0.00134279 0.996704
0.972351 0 0.984543
1 0 0.981399
1 0 0.978469
0 0.549798 1
0 0.554818 1
0 0.554498 1
0.147494 0.541024 1
0.543328 0.50576 1
0.820371 0.450584 0.997284
0.967575 0.405035 0.986145
1 0.390219 0.981872
1 0.382391 0.98117
0 0.847089 1
0 0.85214 1
0 0.853315 1
0.0948196 0.844236 1
0.533333 0.824018 1
0.815244 0.793194 0.997681
0.960189 0.771618 0.988174
0.998917 0.765408 0.984741
1 0.761547 0.982345
0 0.99939 1
0 0.998428 1
0 0.997574 1
0.0768139 0.995087 1
0.525841 0.987076 1
0.81062 0.965011 0.998856
0.954391 0.94754 0.990234
0.993317 0.941985 0.986938
1 0.939116 0.984405
0 1 1
0 1 1
0 1 1
0.0844892 1 1
0.529427 1 1
0.812924 0.999969 0.999176
0.953262 0.994995 0.990936
0.99118 0.990234 0.987549
1 0.987427 0.98584
0 1 1
0 1 1
0 1 1
0.0726329 1 1
0.533181 1 1
0.815335 1 0.999283
0.953643 1 0.991714
0.990509 1 0.987854
1 1 0.986877
0 0 1
0 0 1
0 0 1
0.130617 0 1
0.517128 0 1
0.796246 0 0.999969
0.963455 0 0.991852
1 0 0.987778
1 0 0.986877
0 0 1
0 0 1
0 0 1
0.151888 0 1
0.532479 0 1
0.808042 0 1
0.96965 0 0.993515
1 0 0.989609
1 0 0.988113
0 0 1
0 0 1
0 0 1
0.159976 0 1
0.541543 0 1
0.81706 0 1
0.973449 0 0.994842
1 0 0.991455
1 0 0.990295
0 0.105684 1
0 0.114107 1
0 0.111528 1
0.154894 0.0767681 1
0.544518 0.032517 1
0.819898 0.000289921 1
0.971145 0 0.996887
1 0 0.993423
1 0 0.99295
0 0.546029 1
0 0.551171 1
0 0.551446 1
0.139712 0.536553 1
0.540536 0.501472 1
0.817655 0.44564 1
0.966049 0.399741 0.998184
1 0.384054 0.996155
1 0.376516 0.995544
0 0.844602 1
0 0.849546 1
0 0.849348 1
0.0844892 0.841901 1
0.529778 0.820645 1
0.813962 0.790539 1
0.958709 0.768536 0.999802
0.997833 0.763043 0.998672
1 0.758419 0.997925
0 0.99762 1
0 0.997482 1
0 0.99675 1
0.0725567 0.994308 1
0.522713 0.985473 1
0.808362 0.96228 1
0.952102 0.944625 1
0.991608 0.939849 0.999435
1 0.936248 0.999573
0 1 1
0 1 1
0 1 1
0.0805829 1 1
0.525979 1 1
0.810712 0.999939 1
0.951095 0.992432 1
0.989822 0.9879 0.999985
1 0.984939 1
0 1 1
0 1 1
0 1 1
0.0686809 1 1
0.529122 1 1
0.813367 1 1
0.951354 1 1
0.988067 1 1
1 1 0.999954
