transforms/slog3_td_style.cube
TITLE "Generated by Resolve"
LUT_3D_SIZE 5
0.000183108 0.000381476 0.000518807
0.0749828 0.0156405 0.01561
0.491798 0.0152895 0.0131533
0.988739 0 0
0.99118 0 0
0.0102693 0.162158 0.0125277
0.134081 0.157321 0.000686656
0.533913 0.0239109 0.00743114
0.9897 0 0
0.99118 0 0
0.00830091 0.671763 0.018143
0.0982528 0.675944 0.00115969
0.650599 0.636133 0
1 0.55996 0
1 0.543801 0
0.00747692 0.994141 0.0609293
0.0130007 0.994553 0.0376287
0.638041 0.991135 0
1 0.987778 0
1 0.986435 0
0.00727855 0.993942 0.0712596
0.00901808 0.994339 0.0493477
0.643992 0.991135 0
1 0.988617 0
1 0.988617 0
0.00497444 0.00497444 0.0669718
0.0748302 0.0170443 0.0923171
0.490654 0.0145876 0.0371557
0.98822 0 0
0.99118 0 0
0.00857557 0.148165 0.158648
0.12015 0.140383 0.156344
0.529931 0.0196689 0.0420996
0.990204 0 0
0.99118 0 0
0.00677501 0.66833 0.198245
0.0778821 0.671733 0.192782
0.647929 0.631907 0.0548714
1 0.558312 0
1 0.54197 0
0.00737011 0.993927 0.215656
0.0100099 0.993835 0.212482
0.634806 0.98938 0.102556
1 0.987121 0
1 0.986068 0
0.00756847 0.994125 0.221592
0.00979629 0.994049 0.219287
0.641749 0.988952 0.115816
1 0.988617 0
1 0.988617 0
0.0196384 0.0194553 0.264424
0.028275 0.0204318 0.270893
0.521935 0.00735485 0.439185
1 0 0.395941
1 0 0.37792
0.0233768 0.0356298 0.315511
0.0307469 0.0288548 0.30631
0.548028 0.00491341 0.469703
1 0 0.42591
1 0 0.411948
0.01149 0.637903 0.565393
0.0123293 0.641093 0.571786
0.620569 0.597604 0.533547
1 0.516457 0.464332
1 0.499184 0.451911
0.0116732 0.998291 0.58732
0.0116121 0.99823 0.595438
0.60708 0.994247 0.561761
1 0.984329 0.500801
1 0.978302 0.489921
0.0116121 0.99823 0.597986
0.0115511 0.998169 0.608728
0.614298 0.994339 0.578027
1 0.992416 0.522667
1 0.992508 0.51519
0.0253605 0.024567 0.542824
0.0253758 0.0245823 0.541558
0.482033 0.00187686 0.82797
0.990097 0 0.850675
1 0 0.841138
0.0254368 0.0246281 0.548638
0.0254215 0.0246128 0.547143
0.512779 0 0.843397
1 0 0.859373
1 0 0.853605
0.0107729 0.566812 0.924346
0.0110933 0.571832 0.927718
0.561639 0.522408 0.907073
0.998886 0.425452 0.872602
1 0.402167 0.866896
0.0125124 0.999664 0.933349
0.0128634 0.998688 0.934325
0.549294 0.987686 0.918791
0.992462 0.947494 0.888853
1 0.937987 0.88304
0.0125124 0.99968 0.936187
0.0125277 0.99968 0.936965
0.559335 0.99585 0.921096
0.992966 0.992889 0.892531
1 0.992599 0.888304
0.0256352 0.0247654 0.565972
0.0256352 0.0247654 0.565972
0.465873 0.00218204 0.867552
0.98146 0 0.917266
1 0 0.912306
0.0256352 0.0247654 0.565972
0.0256352 0.0247654 0.565972
0.499092 0.000167849 0.876799
0.993851 0 0.919707
1 0 0.915679
0.0104829 0.54931 0.939773
0.010605 0.555627 0.939895
0.547784 0.505486 0.934646
0.992233 0.40267 0.926543
1 0.379767 0.923095
0.0129091 0.997467 0.94226
0.0129091 0.996551 0.942245
0.536461 0.982544 0.93872
0.985641 0.938918 0.935409
1 0.929946 0.934783
0.0125582 0.999725 0.941909
0.0125582 0.999725 0.941909
0.548028 0.995956 0.938872
0.986893 0.993103 0.935775
1 0.992676 0.935347
