transforms/slog3_td_style.cube
TITLE "Generated by Resolve"
LUT_3D_SIZE 9
0.000183108 0.000381476 0.000518807
0.0204013 0.00537118 0.00537118
0.0749828 0.0156405 0.01561
0.223102 0.0244297 0.0239261
0.491798 0.0152895 0.0131533
0.801511 0 0
0.988739 0 0
0.99118 0 0
0.99118 0 0
0.0188144 0.0505684 0.0200198
0.0406806 0.0488594 0.0201877
0.0995804 0.0437629 0.0222629
0.232914 0.025391 0.0239719
0.504158 0.0146487 0.0124208
0.815442 0 0
0.988571 0 0
0.99118 0 0
0.99118 0 0
0.0102693 0.162158 0.0125277
0.0392462 0.161852 0.00814832
0.134081 0.157321 0.000686656
0.329946 0.114946 0
0.533913 0.0239109 0.00743114
0.826429 0 0
0.9897 0 0
0.99118 0 0
0.99118 0 0
0 0.400275 0
0.00614939 0.402228 0
0.13312 0.400305 0
0.372015 0.380636 0
0.643 0.330602 0
0.890929 0.237858 0
1 0.133532 0
1 0.110903 0
1 0.101122 0
0.00830091 0.671763 0.018143
0.00862135 0.676417 0.0136263
0.0982528 0.675944 0.00115969
0.37113 0.663767 0
0.650599 0.636133 0
0.902693 0.59411 0
1 0.55996 0
1 0.548959 0
1 0.543801 0
0.00755322 0.924102 0.0421149
0.00764477 0.929335 0.0361944
0.0198672 0.929305 0.0199435
0.348501 0.92079 0
0.643336 0.902312 0
0.900832 0.873045 0
1 0.851865 0
1 0.846189 0
1 0.842878 0
0.00747692 0.994141 0.0609293
0.00758373 0.994263 0.0544594
0.0130007 0.994553 0.0376287
0.332845 0.993149 0
0.638041 0.991135 0
0.899046 0.989273 0
1 0.987778 0
1 0.986923 0
1 0.986435 0
0.00733959 0.994003 0.068452
0.0074464 0.994125 0.062562
0.00929274 0.994446 0.0439155
0.334432 0.993133 0
0.642557 0.991135 0
0.900923 0.989624 0
1 0.988617 0
1 0.988617 0
1 0.988617 0
0.00727855 0.993942 0.0712596
0.00738537 0.994049 0.0661784
0.00901808 0.994339 0.0493477
0.334829 0.993133 0
0.643992 0.991135 0
0.90367 0.989471 0
1 0.988617 0
1 0.988617 0
1 0.988617 0
0.00161746 0.00161746 0.024506
0.018967 0.00595102 0.0277409
0.0748455 0.0159762 0.0358282
0.221668 0.0243992 0.026688
0.489891 0.0153964 0.0132753
0.80206 0 0
0.988144 0 0
0.99118 0 0
0.99118 0 0
0.0179446 0.0454871 0.0517281
0.035935 0.04271 0.0500801
0.0947738 0.0384527 0.0469825
0.231266 0.0247349 0.0264897
0.50312 0.0147097 0.0124819
0.815961 0 0
0.988647 0 0
0.99118 0 0
0.99118 0 0
0.00877394 0.158022 0.0710307
0.0336614 0.156817 0.0647288
0.129625 0.152468 0.048127
0.325277 0.109087 0.0034638
0.53344 0.0229496 0.00772107
0.826719 0 0
0.990021 0 0
0.99118 0 0
0.99118 0 0
0 0.397436 0.0705882
0.000717174 0.399847 0.0634928
0.128099 0.397543 0.0465858
0.372061 0.379187 0
0.643671 0.328878 0
0.891615 0.234867 0
1 0.136019 0
1 0.11252 0
1 0.101549 0
0.00697337 0.670985 0.0972763
0.00703441 0.676249 0.0913252
0.0923781 0.675441 0.0755016
0.370336 0.663508 0.00921645
0.651576 0.635584 0
0.903853 0.593805 0
1 0.560327 0
1 0.549722 0
1 0.544259 0
0.00631724 0.924208 0.118456
0.00637827 0.926574 0.11339
0.0175937 0.928695 0.100038
0.348302 0.920562 0.0291142
0.641855 0.902098 0
0.901549 0.873716 0
1 0.852659 0
1 0.845884 0
1 0.843366 0
0.00645457 0.993072 0.134218
0.00648508 0.993103 0.129946
0.0115206 0.993271 0.116197
0.332143 0.99237 0.0467689
0.638437 0.991135 0
0.898741 0.989258 0
1 0.98764 0
1 0.986496 0
1 0.986496 0
0.00640879 0.993011 0.139879
0.00643931 0.993057 0.136202
0.00910964 0.993164 0.123629
0.333211 0.992309 0.0505684
0.642588 0.991135 0
0.902449 0.989532 0
1 0.988617 0
1 0.988617 0
1 0.988617 0
0.00636301 0.992966 0.141695
0.00642405 0.993042 0.138415
0.00880446 0.993149 0.125582
0.33402 0.992233 0.0545968
0.645762 0.991135 0
0.904219 0.989441 0
1 0.988617 0
1 0.988617 0
1 0.988617 0
0.00497444 0.00497444 0.0669718
0.0169375 0.00772107 0.0718853
0.0748302 0.0170443 0.0923171
0.227588 0.022797 0.10602
0.490654 0.0145876 0.0371557
0.799466 0 0
0.98822 0 0
0.99118 0 0
0.99118 0 0
0.0164797 0.0346227 0.0981765
0.027039 0.0308537 0.0965438
0.0862745 0.0284276 0.106447
0.237018 0.0227359 0.111299
0.504723 0.0137789 0.0386206
0.813794 0 0
0.988571 0 0
0.99118 0 0
0.99118 0 0
0.00857557 0.148165 0.158648
0.0225528 0.14638 0.157931
0.12015 0.140383 0.156344
0.318456 0.0932479 0.13022
0.529931 0.0196689 0.0420996
0.824643 0 0
0.990204 0 0
0.99118 0 0
0.99118 0 0
0 0.391913 0.179217
0 0.394888 0.17908
0.116167 0.392493 0.172564
0.365881 0.372534 0.139498
0.640436 0.322316 0.0271916
0.889357 0.226169 0
1 0.129015 0
1 0.10425 0
1 0.0952926 0
0.00677501 0.66833 0.198245
0.00682078 0.672724 0.197894
0.0778821 0.671733 0.192782
0.364553 0.659236 0.162676
0.647929 0.631907 0.0548714
0.902235 0.591043 0
1 0.558312 0
1 0.546548 0
1 0.54197 0
0.00672923 0.922164 0.207126
0.00675975 0.926833 0.207172
0.0134432 0.927413 0.203357
0.341451 0.918654 0.177676
0.639429 0.899855 0.0819562
0.900008 0.871916 0
1 0.850706 0
1 0.844907 0
1 0.84181 0
0.00737011 0.993927 0.215656
0.00737011 0.993927 0.216007
0.0100099 0.993835 0.212482
0.325887 0.99118 0.188388
0.634806 0.98938 0.102556
0.897551 0.989013 0
1 0.987121 0
1 0.986374 0
1 0.986068 0
0.0075227 0.994079 0.22002
0.00756847 0.994125 0.221317
0.0103151 0.993988 0.217334
0.327703 0.991302 0.193591
0.638758 0.989013 0.112261
0.900282 0.989364 0
1 0.988617 0
1 0.988617 0
1 0.988617 0
0.00756847 0.994125 0.221592
0.00762951 0.994186 0.223133
0.00979629 0.994049 0.219287
0.329137 0.991333 0.195712
0.641749 0.988952 0.115816
0.903075 0.989303 0
1 0.988617 0
1 0.988617 0
1 0.988617 0
0.0132296 0.0131991 0.131197
0.0135653 0.0131838 0.130587
0.0653239 0.0207218 0.15993
0.235416 0.0243076 0.214633
0.514839 0.00979629 0.236057
0.814237 0 0.204868
0.994995 0 0.141634
0.996872 0 0.0987716
0.996124 0 0.0843824
0.0146487 0.0157015 0.137606
0.0146029 0.0146792 0.13608
0.0665446 0.0212406 0.165072
0.246433 0.0241093 0.222797
0.530022 0.00892653 0.244694
0.829923 0 0.216449
0.997436 0 0.161913
0.998413 0 0.127367
0.99765 0 0.114214
0.0183871 0.11075 0.247868
0.0197757 0.106477 0.245518
0.0898299 0.0985122 0.255055
0.289021 0.0537118 0.257679
0.545174 0.0102846 0.25275
0.842191 0 0.22565
1 0 0.177554
1 0 0.154025
0.999634 0 0.144427
0 0.377783 0.309834
0 0.379721 0.312749
0.0733806 0.377096 0.310948
0.352544 0.35581 0.29929
0.632914 0.300114 0.274723
0.8822 0.18677 0.232685
1 0.0973526 0.191531
1 0.0624094 0.174502
1 0.0510414 0.167376
0.011841 0.662455 0.326833
0.0119783 0.666407 0.329366
0.03682 0.666514 0.328847
0.35053 0.652979 0.317952
0.640497 0.622568 0.294072
0.895293 0.57821 0.256413
1 0.542702 0.221393
1 0.530007 0.206714
1 0.525536 0.200031
0.0119478 0.919997 0.33434
0.0120699 0.92459 0.337423
0.013611 0.924941 0.337163
0.327794 0.915953 0.326741
0.632319 0.895277 0.303868
0.893339 0.863371 0.268757
1 0.841306 0.237751
1 0.83386 0.226795
1 0.831632 0.220615
0.0125124 0.9991 0.341436
0.0126497 0.999237 0.34519
0.0140383 0.999237 0.345327
0.309316 0.996872 0.334386
0.629099 0.993805 0.311574
0.891661 0.989899 0.277974
1 0.985016 0.250095
1 0.984253 0.240864
1 0.983337 0.236088
0.0127413 0.999313 0.347601
0.0128634 0.999435 0.351293
0.0140993 0.999451 0.351415
0.310292 0.997116 0.340749
0.633722 0.994125 0.3178
0.894759 0.991012 0.285313
1 0.988983 0.260487
1 0.988647 0.253468
1 0.988449 0.249226
0.0128023 0.99939 0.349874
0.0129244 0.999512 0.353765
0.0136721 0.999527 0.354314
0.312459 0.997208 0.343893
0.636439 0.994308 0.321828
0.897444 0.991241 0.289891
1 0.989334 0.267796
1 0.989013 0.261234
1 0.98883 0.257145
0.0196384 0.0194553 0.264424
0.0196384 0.0194705 0.264668
0.028275 0.0204318 0.270893
0.22118 0.0233921 0.384894
0.521935 0.00735485 0.439185
0.828855 0 0.42443
1 0 0.395941
1 0 0.382773
1 0 0.37792
0.0197604 0.0195926 0.270176
0.019791 0.0196078 0.271427
0.0278172 0.0204623 0.278004
0.231418 0.0227817 0.400381
0.537926 0.00598154 0.456031
0.842756 0 0.440681
1 0 0.412131
1 0 0.400366
1 0 0.396857
0.0233768 0.0356298 0.315511
0.0228428 0.0323644 0.30959
0.0307469 0.0288548 0.30631
0.241505 0.0242618 0.417258
0.548028 0.00491341 0.469703
0.853498 0 0.454459
1 0 0.42591
1 0 0.416342
1 0 0.411948
0 0.330861 0.548989
0 0.33228 0.554314
0.00221256 0.32871 0.553918
0.310445 0.304768 0.53492
0.610468 0.235401 0.504829
0.872251 0.117052 0.466423
1 0.0343786 0.440406
1 0.0254978 0.431495
1 0.0219883 0.426047
0.01149 0.637903 0.565393
0.0114748 0.640192 0.570016
0.0123293 0.641093 0.571786
0.308644 0.627466 0.559701
0.620569 0.597604 0.533547
0.88423 0.552621 0.493904
1 0.516457 0.464332
1 0.504753 0.455848
1 0.499184 0.451911
0.0114137 0.902525 0.576867
0.0112459 0.90605 0.58172
0.0113069 0.907042 0.583932
0.279942 0.898528 0.57438
0.613321 0.877791 0.549676
0.882277 0.847562 0.512718
1 0.826337 0.484962
1 0.820539 0.477333
1 0.817578 0.474098
0.0116732 0.998291 0.58732
0.0116426 0.99826 0.593301
0.0116121 0.99823 0.595438
0.25594 0.996735 0.585458
0.60708 0.994247 0.561761
0.878843 0.990097 0.526314
1 0.984329 0.500801
1 0.980682 0.494606
1 0.978302 0.489921
0.0116121 0.99823 0.595331
0.0115816 0.998184 0.602457
0.0115663 0.998184 0.603891
0.255222 0.996689 0.595987
0.610895 0.994644 0.571771
0.881346 0.99324 0.538445
1 0.992523 0.513985
1 0.992615 0.508019
1 0.992645 0.504463
0.0116121 0.99823 0.597986
0.0115511 0.998169 0.60589
0.0115511 0.998169 0.608728
0.25948 0.996445 0.59997
0.614298 0.994339 0.578027
0.884001 0.993133 0.545525
1 0.992416 0.522667
1 0.992477 0.517647
1 0.992508 0.51519
0.023621 0.0231632 0.419715
0.023621 0.0231785 0.42002
0.023621 0.0231785 0.420218
0.174899 0.0226291 0.554528
0.506859 0.00274662 0.680095
0.815946 0 0.699825
1 0 0.685893
1 0 0.677836
1 0 0.673671
0.023743 0.02327 0.425269
0.0237583 0.0233005 0.426383
0.0237736 0.0233005 0.427161
0.186847 0.0220951 0.571069
0.520546 0.00166323 0.692332
0.831205 0 0.712764
1 0 0.699535
1 0 0.692027
1 0 0.68954
0.0238346 0.0233616 0.430503
0.0238804 0.0233921 0.431342
0.0240024 0.0234836 0.433051
0.194553 0.021561 0.582986
0.532769 0.000854505 0.703166
0.840696 0 0.722026
1 0 0.709895
1 0 0.70457
1 0 0.700984
0 0.245258 0.77583
0 0.247089 0.778424
0 0.241215 0.778363
0.232609 0.205829 0.768444
0.57406 0.121523 0.7505
0.851484 0.0274357 0.733257
1 0 0.718837
1 0 0.714
1 0 0.711574
0.0111086 0.600046 0.788617
0.0111391 0.60322 0.793332
0.0111391 0.603265 0.793515
0.234531 0.588983 0.787488
0.587549 0.556771 0.771496
0.860792 0.507225 0.751415
1 0.46598 0.73489
1 0.453758 0.73051
1 0.446967 0.727535
0.0117952 0.877424 0.797635
0.0115816 0.880705 0.799969
0.0115969 0.881636 0.802213
0.196567 0.873182 0.796582
0.579202 0.851652 0.783368
0.860395 0.819425 0.763027
1 0.796445 0.749386
1 0.789929 0.745449
1 0.787518 0.744289
0.0122225 0.998871 0.804089
0.012253 0.998825 0.809277
0.012253 0.998642 0.809659
0.17084 0.997223 0.805493
0.574807 0.992004 0.790997
0.856657 0.980652 0.772045
1 0.964172 0.758587
1 0.958679 0.755566
1 0.955459 0.75259
0.012253 0.998901 0.8094
0.0122988 0.998947 0.815045
0.012314 0.998962 0.816846
0.173693 0.997894 0.811307
0.578485 0.99501 0.796109
0.860075 0.993042 0.777783
1 0.992172 0.765118
1 0.991821 0.762676
1 0.99176 0.760449
0.0122835 0.998917 0.811124
0.012314 0.998962 0.816983
0.0123445 0.998993 0.819455
0.17229 0.997909 0.814267
0.582834 0.995041 0.799161
0.863218 0.993088 0.782193
1 0.992218 0.770687
1 0.991943 0.768673
1 0.991913 0.766461
0.0253605 0.024567 0.542824
0.0253758 0.0245823 0.542992
0.0253758 0.0245823 0.541558
0.119783 0.0236667 0.647105
0.482033 0.00187686 0.82797
0.800595 0 0.861524
0.990097 0 0.850675
1 0 0.84506
1 0 0.841138
0.0254215 0.0246128 0.546746
0.0254215 0.0246128 0.547677
0.0254063 0.0245975 0.545312
0.133974 0.0229953 0.663355
0.500435 0.00077821 0.836988
0.816526 0 0.866148
0.995651 0 0.855634
1 0 0.851286
1 0 0.848173
0.0254368 0.0246281 0.548638
0.025452 0.0246281 0.549172
0.0254215 0.0246128 0.547143
0.141558 0.0226749 0.672282
0.512779 0 0.843397
0.827359 0 0.869749
1 0 0.859373
1 0 0.856138
1 0 0.853605
0 0.143954 0.861433
0 0.147631 0.867216
0 0.144884 0.862638
0.155383 0.119448 0.877333
0.541405 0.043946 0.886015
0.833906 0 0.875303
0.998856 0 0.864271
1 0 0.860441
1 0 0.858915
0.0107729 0.566812 0.924346
0.0110781 0.571252 0.926467
0.0110933 0.571832 0.927718
0.160464 0.557671 0.921172
0.561639 0.522408 0.907073
0.843397 0.469154 0.88751
0.998886 0.425452 0.872602
1 0.410407 0.867979
1 0.402167 0.866896
0.012192 0.85594 0.931212
0.012314 0.860868 0.931365
0.0122988 0.861708 0.930755
0.123857 0.853407 0.926879
0.55375 0.830213 0.914275
0.843976 0.798093 0.896513
0.998184 0.774868 0.883864
1 0.768994 0.880537
1 0.765896 0.877974
0.0125124 0.999664 0.933349
0.0128786 0.9991 0.935454
0.0128634 0.998688 0.934325
0.102434 0.995926 0.930083
0.549294 0.987686 0.918791
0.840742 0.966094 0.899931
0.992462 0.947494 0.888853
1 0.941238 0.884947
1 0.937987 0.88304
0.0125124 0.99968 0.935271
0.0125277 0.99968 0.936461
0.0125124 0.99968 0.935714
0.100572 0.998749 0.932113
0.555047 0.99585 0.92079
0.844923 0.993835 0.90248
0.992248 0.991547 0.891066
1 0.987915 0.887602
1 0.985153 0.885679
0.0125124 0.99968 0.936187
0.0125277 0.999695 0.937301
0.0125277 0.99968 0.936965
0.0851606 0.999008 0.93225
0.559335 0.99585 0.921096
0.848875 0.993744 0.903166
0.992966 0.992889 0.892531
1 0.992599 0.889723
1 0.992599 0.888304
0.0256352 0.0247654 0.565972
0.0256352 0.0247654 0.565972
0.0256352 0.0247654 0.565972
0.0950637 0.0242161 0.650507
0.470573 0.00190738 0.868986
0.794614 0 0.918074
0.982284 0 0.908766
1 0 0.904585
1 0 0.901442
0.0256352 0.0247654 0.565972
0.0256352 0.0247654 0.565972
0.0256352 0.0247654 0.565972
0.10692 0.0238804 0.662974
0.489921 0.000823987 0.874647
0.809537 0 0.918669
0.988968 0 0.9093
1 0 0.905379
1 0 0.902937
0.0256352 0.0247654 0.565972
0.0256352 0.0247654 0.565972
0.0256352 0.0247654 0.565972
0.115511 0.0236057 0.671656
0.502785 0 0.877668
0.820569 0 0.920058
0.99472 0 0.909758
1 0 0.906508
1 0 0.904799
0.0075227 0.112596 0.834485
0.00527962 0.120806 0.848386
0.00540169 0.120348 0.847623
0.12459 0.0926528 0.858045
0.527443 0.0317845 0.910597
0.826978 0 0.920851
0.993835 0 0.911315
1 0 0.908232
1 0 0.906188
0.0103609 0.552972 0.939635
0.0107118 0.55906 0.940002
0.0107271 0.559442 0.940017
0.136217 0.546273 0.939101
0.550607 0.510002 0.934783
0.837324 0.454917 0.929381
0.993484 0.407797 0.916808
1 0.392782 0.911742
1 0.385748 0.911254
0.0122225 0.848341 0.941543
0.0124208 0.853056 0.941741
0.0123445 0.854475 0.941665
0.0940566 0.846021 0.941024
0.544518 0.823362 0.938064
0.837659 0.7906 0.935149
0.992828 0.767895 0.925933
1 0.761425 0.922683
1 0.757595 0.919707
0.0129244 0.999329 0.94226
0.0129244 0.998138 0.94226
0.0129091 0.99733 0.942245
0.0776532 0.994583 0.941543
0.539925 0.984161 0.938735
0.835477 0.960708 0.936172
0.987976 0.941741 0.928344
1 0.935393 0.924392
1 0.932631 0.922591
0.0125582 0.999725 0.941909
0.0125582 0.999725 0.941909
0.0125582 0.999725 0.941909
0.0843366 0.999069 0.941741
0.546715 0.995956 0.938872
0.839765 0.993942 0.936309
0.98819 0.988159 0.92932
1 0.982834 0.925002
1 0.979812 0.923491
0.0125582 0.999725 0.941909
0.0125582 0.999725 0.941909
0.0125582 0.999725 0.941909
0.0729992 0.999069 0.941741
0.552499 0.995956 0.938872
0.844541 0.993957 0.936309
0.988937 0.993072 0.929656
1 0.992782 0.925551
1 0.992599 0.924743
0.0256352 0.0247654 0.565972
0.0256352 0.0247654 0.565972
0.0256352 0.0247654 0.565972
0.0897841 0.0243839 0.645014
0.465873 0.00218204 0.867552
0.792065 0 0.920806
0.98146 0 0.917266
1 0 0.913191
1 0 0.912306
0.0256352 0.0247654 0.565972
0.0256352 0.0247654 0.565972
0.0256352 0.0247654 0.565972
0.100587 0.0240635 0.656367
0.485908 0.00105287 0.873518
0.806256 0 0.921431
0.988525 0 0.918654
1 0 0.914977
1 0 0.913527
0.0256352 0.0247654 0.565972
0.0256352 0.0247654 0.565972
0.0256352 0.0247654 0.565972
0.108461 0.0238346 0.66453
0.499092 0.000167849 0.876799
0.818494 0 0.921996
0.993851 0 0.919707
1 0 0.916564
1 0 0.915679
0.0091249 0.106615 0.823301
0.00703441 0.114565 0.838087
0.00738537 0.113313 0.835889
0.116732 0.085359 0.842161
0.521981 0.0285344 0.907698
0.824506 0 0.922362
0.992752 0 0.922072
1 0 0.918486
1 0 0.918044
0.0104829 0.54931 0.939773
0.0105898 0.554925 0.939879
0.010605 0.555627 0.939895
0.127123 0.541833 0.938796
0.547784 0.505486 0.934646
0.834623 0.449485 0.930831
0.992233 0.40267 0.926543
1 0.386358 0.923934
1 0.379767 0.923095
0.0122225 0.845411 0.941543
0.0122988 0.850782 0.941634
0.0123751 0.851087 0.941695
0.0855268 0.843549 0.941207
0.54107 0.820249 0.938308
0.83592 0.788739 0.936263
0.991501 0.765148 0.935088
1 0.758663 0.933501
1 0.754238 0.932784
0.0129091 0.997467 0.94226
0.0129091 0.997269 0.942245
0.0129091 0.996551 0.942245
0.074052 0.99382 0.941588
0.536461 0.982544 0.93872
0.833173 0.958083 0.936797
0.985641 0.938918 0.935409
1 0.933639 0.934829
1 0.929946 0.934783
0.0125582 0.999725 0.941909
0.0125582 0.999725 0.941909
0.0125582 0.999725 0.941909
0.079469 0.999069 0.941741
0.542473 0.995956 0.938888
0.837583 0.993927 0.936645
0.985672 0.985855 0.935653
1 0.981003 0.935546
1 0.97789 0.935347
0.0125582 0.999725 0.941909
0.0125582 0.999725 0.941909
0.0125582 0.999725 0.941909
0.068925 0.999069 0.941741
0.548028 0.995956 0.938872
0.84181 0.993973 0.936645
0.986893 0.993103 0.935775
1 0.992798 0.93547
1 0.992676 0.935347
