transforms/sv2_base_locon_r709_g24.cube
# sv2_base_locon_r709_g24.cube
LUT_3D_SIZE 9
0.000000 0.000000 0.000000
0.085637 0.000000 0.000000
0.236190 0.000000 0.000000
0.440591 0.000000 0.000000
0.659361 0.000000 0.000000
0.843280 0.000000 0.000000
0.976905 0.000000 0.000000
1.056436 0.000000 0.000000
1.087858 0.000000 0.000000
0.000000 0.078906 0.000000
0.075718 0.075718 0.000000
0.225110 0.032821 0.000000
0.420839 0.000000 0.000000
0.636049 0.000000 0.000000
0.824351 0.000000 0.000000
0.965011 0.000000 0.000000
1.051689 0.000000 0.000000
1.086827 0.000000 0.000000
0.000000 0.217225 0.000000
0.000000 0.211508 0.000000
0.207802 0.207802 0.000000
0.414351 0.170164 0.000000
0.631653 0.078062 0.000000
0.820840 0.000000 0.000000
0.962448 0.000000 0.000000
1.050222 0.000000 0.000000
1.086045 0.000000 0.000000
0.000000 0.404765 0.000000
0.000000 0.394532 0.000000
0.000000 0.392013 0.000000
0.386397 0.386397 0.000000
0.618043 0.349002 0.000000
0.812010 0.306523 0.000000
0.955761 0.264503 0.000000
1.044714 0.232148 0.000000
1.081002 0.221667 0.000000
0.000000 0.607672 0.000000
0.000000 0.595820 0.000000
0.000000 0.593190 0.000000
0.277686 0.589879 0.000000
0.583022 0.583022 0.000000
0.789816 0.551927 0.000000
0.938839 0.526039 0.000000
1.030198 0.509469 0.000000
1.067324 0.505336 0.000000
0.000000 0.781015 0.000000
0.000000 0.771549 0.000000
0.000000 0.769264 0.000000
0.000000 0.766798 0.000000
0.504303 0.762088 0.000000
0.755455 0.755455 0.000000
0.912840 0.732805 0.000000
1.007895 0.718467 0.000000
1.046369 0.714119 0.000000
0.000000 0.908456 0.000000
0.000000 0.902627 0.000000
0.000000 0.901028 0.000000
0.000000 0.899143 0.000000
0.416224 0.895437 0.000000
0.701753 0.890186 0.000000
0.884820 0.884820 0.000000
0.983885 0.871029 0.000000
1.023882 0.865944 0.000000
0.000000 0.985585 0.000000
0.000000 0.983306 0.000000
0.000000 0.982544 0.000000
0.000000 0.981159 0.000000
0.337588 0.978056 0.000000
0.662485 0.973524 0.000000
0.853367 0.968825 0.000000
0.965303 0.965303 0.000000
1.006427 0.959758 0.000000
0.000000 1.016489 0.000000
0.000000 1.016021 0.000000
0.000000 1.015762 0.000000
0.000000 1.014655 0.000000
0.302550 1.011819 0.000000
0.647481 1.007612 0.000000
0.840669 1.003226 0.000000
0.952979 0.999901 0.000000
0.998391 0.998391 0.000000
0.000000 0.000000 0.080266
0.085952 0.000000 0.081516
0.236044 0.000000 0.057183
0.439733 0.000000 0.000000
0.658051 0.000000 0.000000
0.842068 0.000000 0.000000
0.976070 0.000000 0.000000
1.056077 0.000000 0.000000
1.087771 0.000000 0.000000
0.000000 0.078325 0.077619
0.074972 0.074972 0.074972
0.223381 0.031867 0.049495
0.417887 0.000000 0.000000
0.632722 0.000000 0.000000
0.821732 0.000000 0.000000
0.963410 0.000000 0.000000
1.051063 0.000000 0.000000
1.086707 0.000000 0.000000
0.000000 0.215413 0.000000
0.000000 0.209537 0.000000
0.205733 0.205733 0.000000
0.410715 0.168231 0.000000
0.627590 0.074632 0.000000
0.817713 0.000000 0.000000
0.960585 0.000000 0.000000
1.049523 0.000000 0.000000
1.085938 0.000000 0.000000
0.000000 0.401379 0.000000
0.000000 0.390908 0.000000
0.000000 0.388267 0.000000
0.382601 0.382601 0.000000
0.613761 0.345120 0.000000
0.808734 0.302021 0.000000
0.953880 0.258782 0.000000
1.044103 0.224722 0.000000
1.081051 0.212994 0.000000
0.000000 0.603757 0.000000
0.000000 0.591634 0.000000
0.000000 0.588844 0.000000
0.273251 0.585465 0.000000
0.578552 0.578552 0.000000
0.786547 0.547126 0.000000
0.937057 0.520793 0.000000
1.029793 0.503696 0.000000
1.067630 0.499130 0.000000
0.000000 0.777883 0.000000
0.000000 0.768183 0.000000
0.000000 0.765785 0.000000
0.000000 0.763282 0.000000
0.498789 0.758555 0.000000
0.751835 0.751835 0.000000
0.910983 0.728839 0.000000
1.007528 0.714152 0.000000
1.046772 0.709547 0.000000
0.000000 0.906541 0.000000
0.000000 0.900545 0.000000
0.000000 0.898884 0.000000
0.000000 0.896998 0.000000
0.408028 0.893316 0.000000
0.697170 0.888027 0.000000
0.882588 0.882588 0.000000
0.983329 0.868497 0.000000
1.024155 0.863237 0.000000
0.000000 0.984838 0.000000
0.000000 0.982483 0.000000
0.000000 0.981707 0.000000
0.000000 0.980343 0.000000
0.324482 0.977278 0.000000
0.656633 0.972748 0.000000
0.850383 0.967997 0.000000
0.964404 0.964404 0.000000
1.006435 0.958712 0.000000
0.000000 1.016332 0.000000
0.000000 1.015860 0.000000
0.000000 1.015603 0.000000
0.000000 1.014536 0.000000
0.284891 1.011756 0.000000
0.640655 1.007565 0.000000
0.837106 1.003144 0.000000
0.951726 0.999762 0.000000
0.998216 0.998216 0.000000
0.000000 0.000000 0.220821
0.069327 0.000000 0.223047
0.237176 0.000000 0.224933
0.441113 0.000000 0.197402
0.659184 0.000000 0.155640
0.842717 0.000000 0.091643
0.976346 0.000000 0.000000
1.056140 0.000000 0.000000
1.087775 0.000000 0.000000
0.000000 0.062568 0.217853
0.059600 0.059600 0.213565
0.223501 0.031932 0.212469
0.417956 0.000000 0.184279
0.632657 0.000000 0.140143
0.821596 0.000000 0.050975
0.963278 0.000000 0.000000
1.050994 0.000000 0.000000
1.086689 0.000000 0.000000
0.000000 0.215438 0.213494
0.000000 0.209422 0.207627
0.205539 0.205539 0.205539
0.410277 0.168021 0.177000
0.627072 0.074121 0.131485
0.817246 0.000000 0.000000
0.960279 0.000000 0.000000
1.049396 0.000000 0.000000
1.085917 0.000000 0.000000
0.000000 0.401053 0.160437
0.000000 0.390441 0.154533
0.000000 0.387698 0.151735
0.381964 0.381964 0.141737
0.612998 0.344396 0.073788
0.808118 0.301168 0.000000
0.953495 0.257609 0.000000
1.043970 0.223111 0.000000
1.081060 0.210976 0.000000
0.000000 0.603148 0.000000
0.000000 0.590861 0.000000
0.000000 0.588026 0.000000
0.272298 0.584578 0.000000
0.577579 0.577579 0.000000
0.785819 0.546066 0.000000
0.936651 0.519562 0.000000
1.029696 0.502312 0.000000
1.067702 0.497604 0.000000
0.000000 0.777295 0.000000
0.000000 0.767478 0.000000
0.000000 0.765018 0.000000
0.000000 0.762480 0.000000
0.497483 0.757714 0.000000
0.750968 0.750968 0.000000
0.910512 0.727855 0.000000
1.007438 0.713029 0.000000
1.046879 0.708320 0.000000
0.000000 0.906094 0.000000
0.000000 0.900048 0.000000
0.000000 0.898370 0.000000
0.000000 0.896446 0.000000
0.405934 0.892750 0.000000
0.695973 0.887450 0.000000
0.881975 0.881975 0.000000
0.983175 0.867783 0.000000
1.024234 0.862462 0.000000
0.000000 0.984641 0.000000
0.000000 0.982262 0.000000
0.000000 0.981476 0.000000
0.000000 0.980115 0.000000
0.320741 0.977055 0.000000
0.654976 0.972524 0.000000
0.849500 0.967756 0.000000
0.964140 0.964140 0.000000
1.006438 0.958396 0.000000
0.000000 1.016287 0.000000
0.000000 1.015811 0.000000
0.000000 1.015557 0.000000
0.000000 1.014499 0.000000
0.279238 1.011737 0.000000
0.638534 1.007549 0.000000
0.836010 1.003119 0.000000
0.951324 0.999718 0.000000
0.998158 0.998158 0.000000
0.000000 0.000000 0.411305
0.048262 0.000000 0.413700
0.213980 0.000000 0.418104
0.442508 0.000000 0.419666
0.660421 0.000000 0.392505
0.843500 0.000000 0.367496
0.976725 0.000000 0.348807
1.056251 0.000000 0.340490
1.087790 0.000000 0.345515
0.000000 0.042918 0.404895
0.040505 0.040505 0.397988
0.200980 0.000000 0.398051
0.418382 0.000000 0.396871
0.633033 0.000000 0.367604
0.821822 0.000000 0.338801
0.963377 0.000000 0.315005
1.051014 0.000000 0.300833
1.086687 0.000000 0.300337
0.000000 0.193472 0.405422
0.000000 0.187870 0.395993
0.184246 0.184246 0.394592
0.410362 0.168040 0.392386
0.627081 0.074194 0.362634
0.817218 0.000000 0.333072
0.960231 0.000000 0.308022
1.049366 0.000000 0.292037
1.085909 0.000000 0.289325
0.000000 0.401170 0.397551
0.000000 0.390441 0.386934
0.000000 0.387624 0.384718
0.381824 0.381824 0.381824
0.612804 0.344222 0.351701
0.807932 0.300909 0.321443
0.953363 0.257268 0.295337
1.043924 0.222552 0.277945
1.081063 0.210185 0.273637
0.000000 0.603092 0.349592
0.000000 0.590713 0.337819
0.000000 0.587778 0.335081
0.272052 0.584284 0.331562
0.577255 0.577255 0.324280
0.785553 0.545681 0.291635
0.936481 0.519115 0.262479
1.029656 0.501728 0.242002
1.067734 0.496909 0.235699
0.000000 0.777125 0.287321
0.000000 0.767235 0.271460
0.000000 0.764727 0.267379
0.000000 0.762162 0.262559
0.496925 0.757393 0.252576
0.750591 0.750591 0.237329
0.910300 0.727433 0.198570
1.007391 0.712549 0.167590
1.046927 0.707748 0.155935
0.000000 0.905941 0.214007
0.000000 0.899842 0.185910
0.000000 0.898138 0.177680
0.000000 0.896202 0.168447
0.404953 0.892495 0.148831
0.695425 0.887178 0.112363
0.881683 0.881683 0.018311
0.983103 0.867450 0.000000
1.024275 0.862065 0.000000
0.000000 0.984555 0.138710
0.000000 0.982160 0.041425
0.000000 0.981365 0.000000
0.000000 0.980003 0.000000
0.318843 0.976945 0.000000
0.654135 0.972415 0.000000
0.849063 0.967638 0.000000
0.964004 0.964004 0.000000
1.006440 0.958228 0.000000
0.000000 1.016264 0.106289
0.000000 1.015786 0.000000
0.000000 1.015532 0.000000
0.000000 1.014480 0.000000
0.276137 1.011727 0.000000
0.637408 1.007541 0.000000
0.835397 1.003105 0.000000
0.951111 0.999695 0.000000
0.998128 0.998128 0.000000
0.000000 0.000000 0.618131
0.027010 0.000000 0.619705
0.190177 0.000000 0.624273
0.417641 0.000000 0.626990
0.661677 0.000000 0.627523
0.844310 0.000000 0.606065
0.977133 0.000000 0.591405
1.056373 0.000000 0.585899
1.087808 0.000000 0.591147
0.000000 0.022947 0.609650
0.020924 0.020924 0.602033
0.177051 0.000000 0.602328
0.392971 0.000000 0.602386
0.633581 0.000000 0.600887
0.822183 0.000000 0.576335
0.963552 0.000000 0.557978
1.051063 0.000000 0.548405
1.086693 0.000000 0.549522
0.000000 0.170714 0.611038
0.000000 0.165156 0.600867
0.161835 0.161835 0.599598
0.385669 0.144350 0.598626
0.627304 0.074380 0.596233
0.817355 0.000000 0.570877
0.960293 0.000000 0.551435
1.049372 0.000000 0.540408
1.085907 0.000000 0.539712
0.000000 0.377008 0.608306
0.000000 0.366266 0.596811
0.000000 0.363606 0.594731
0.357955 0.357955 0.593109
0.612830 0.344275 0.590149
0.807953 0.300936 0.564480
0.953348 0.257228 0.544530
1.043910 0.222429 0.532697
1.081066 0.209856 0.530802
0.000000 0.603230 0.597789
0.000000 0.590761 0.585433
0.000000 0.587782 0.582722
0.271980 0.584256 0.580620
0.577193 0.577193 0.577193
0.785457 0.545579 0.551162
0.936432 0.518925 0.530689
1.029637 0.501495 0.518189
1.067751 0.496572 0.515401
0.000000 0.777142 0.560416
0.000000 0.767181 0.546226
0.000000 0.764634 0.542790
0.000000 0.762046 0.540225
0.496722 0.757237 0.536334
0.750435 0.750435 0.531081
0.910209 0.727206 0.509880
1.007374 0.712274 0.496526
1.046957 0.707415 0.492981
0.000000 0.905877 0.528187
0.000000 0.899758 0.511269
0.000000 0.898023 0.506832
0.000000 0.896084 0.503577
0.404407 0.892369 0.499015
0.695102 0.887040 0.493057
0.881527 0.881527 0.487075
0.983059 0.867244 0.472726
1.024297 0.861840 0.468273
0.000000 0.984509 0.508067
0.000000 0.982103 0.487975
0.000000 0.981299 0.482241
0.000000 0.979935 0.478120
0.317741 0.976880 0.472751
0.653623 0.972348 0.465896
0.848804 0.967561 0.458934
0.963920 0.963920 0.453885
1.006442 0.958120 0.448298
0.000000 1.016250 0.505133
0.000000 1.015771 0.482490
0.000000 1.015516 0.475311
0.000000 1.014469 0.470219
0.274104 1.011719 0.463987
0.636658 1.007536 0.456266
0.834996 1.003097 0.448347
0.950965 0.999678 0.442172
0.998106 0.998106 0.439442
0.000000 0.000000 0.795764
0.010327 0.000000 0.796332
0.170880 0.000000 0.799489
0.397636 0.000000 0.801431
0.640886 0.000000 0.801905
0.845224 0.000000 0.801595
0.977581 0.000000 0.786576
1.056516 0.000000 0.779872
1.087833 0.000000 0.782308
0.000000 0.007085 0.788244
0.005262 0.005262 0.782389
0.156658 0.000000 0.782538
0.371409 0.000000 0.782693
0.611175 0.000000 0.781829
0.822639 0.000000 0.780177
0.963782 0.000000 0.762451
1.051134 0.000000 0.752828
1.086703 0.000000 0.752567
0.000000 0.151739 0.789162
0.000000 0.145865 0.781412
0.142781 0.142781 0.780456
0.364601 0.123803 0.779829
0.604994 0.000000 0.778333
0.817601 0.000000 0.776074
0.960413 0.000000 0.757522
1.049410 0.000000 0.746870
1.085911 0.000000 0.745278
0.000000 0.356899 0.787532
0.000000 0.345716 0.778883
0.000000 0.343132 0.777313
0.337591 0.337591 0.776217
0.591123 0.323614 0.774328
0.808063 0.301100 0.771682
0.953404 0.257381 0.752772
1.043920 0.222518 0.741547
1.081066 0.209836 0.739117
0.000000 0.582293 0.780784
0.000000 0.569319 0.771619
0.000000 0.566289 0.769603
0.248563 0.562865 0.768183
0.555865 0.555865 0.765985
0.785484 0.545618 0.763005
0.936431 0.518925 0.743866
1.029638 0.501408 0.732218
1.067758 0.496431 0.729138
0.000000 0.777261 0.770249
0.000000 0.767239 0.760318
0.000000 0.764662 0.757889
0.000000 0.762046 0.756154
0.496636 0.757211 0.753645
0.750368 0.750368 0.750368
0.910167 0.727136 0.730950
1.007358 0.712162 0.718935
1.046972 0.707235 0.715324
0.000000 0.905891 0.744122
0.000000 0.899727 0.732553
0.000000 0.897982 0.729458
0.000000 0.896027 0.727327
0.404197 0.892300 0.724500
0.694949 0.886969 0.720882
0.881436 0.881436 0.717342
0.983034 0.867130 0.704884
1.024313 0.861682 0.700729
0.000000 0.984494 0.728306
0.000000 0.982074 0.714860
0.000000 0.981261 0.710988
0.000000 0.979896 0.708320
0.317025 0.976841 0.705064
0.653323 0.972302 0.701049
0.848612 0.967514 0.697035
0.963860 0.963860 0.694185
1.006442 0.958050 0.689379
0.000000 1.016241 0.725354
0.000000 1.015761 0.710374
0.000000 1.015505 0.705647
0.000000 1.014458 0.702371
0.272687 1.011714 0.698560
0.636129 1.007531 0.694068
0.834699 1.003090 0.689514
0.950854 0.999667 0.686007
0.998090 0.998090 0.684456
0.000000 0.000000 0.926903
0.002430 0.000000 0.926877
0.157532 0.000000 0.928516
0.384033 0.000000 0.929393
0.626717 0.000000 0.929151
0.830174 0.000000 0.928266
0.978170 0.000000 0.927679
1.056694 0.000000 0.919252
1.087864 0.000000 0.918677
0.000000 0.001841 0.921808
0.001523 0.001523 0.918293
0.141909 0.000000 0.918331
0.355965 0.000000 0.918251
0.595109 0.000000 0.917352
0.805934 0.000000 0.915784
0.964131 0.000000 0.914365
1.051246 0.000000 0.903907
1.086720 0.000000 0.901678
0.000000 0.138177 0.922110
0.000000 0.131883 0.917529
0.128941 0.128941 0.916923
0.349271 0.108450 0.916420
0.588760 0.000000 0.915167
0.800691 0.000000 0.913277
0.960623 0.000000 0.911467
1.049474 0.000000 0.900326
1.085917 0.000000 0.897328
0.000000 0.342523 0.920521
0.000000 0.330811 0.915503
0.000000 0.328214 0.914541
0.322739 0.322739 0.913786
0.575228 0.308526 0.912318
0.791393 0.285158 0.910198
0.953528 0.257742 0.908134
1.043953 0.222869 0.896672
1.081063 0.210144 0.893157
0.000000 0.567256 0.914972
0.000000 0.553725 0.909781
0.000000 0.550597 0.908597
0.230947 0.547221 0.907654
0.540217 0.540217 0.906015
0.769170 0.529897 0.903711
0.936484 0.519124 0.901448
1.029647 0.501537 0.889767
1.067756 0.496472 0.885885
0.000000 0.761682 0.906426
0.000000 0.751099 0.900890
0.000000 0.748394 0.899507
0.000000 0.745782 0.898385
0.480501 0.741009 0.896591
0.734168 0.734168 0.894128
0.910184 0.727165 0.891680
1.007358 0.712160 0.879802
1.046978 0.707168 0.875635
0.000000 0.905968 0.897795
0.000000 0.899778 0.891661
0.000000 0.898007 0.889984
0.000000 0.896041 0.888663
0.404182 0.892294 0.886674
0.694913 0.886951 0.884046
0.881400 0.881400 0.881400
0.983022 0.867068 0.869311
1.024325 0.861582 0.864843
0.000000 0.984493 0.882599
0.000000 0.982068 0.875196
0.000000 0.981247 0.873016
0.000000 0.979877 0.871388
0.316616 0.976817 0.869152
0.653104 0.972277 0.866305
0.848499 0.967484 0.863428
0.963821 0.963821 0.861327
1.006442 0.957992 0.856490
0.000000 1.016235 0.878250
0.000000 1.015753 0.869871
0.000000 1.015496 0.867172
0.000000 1.014452 0.865190
0.271483 1.011711 0.862664
0.635662 1.007529 0.859527
0.834452 1.003084 0.856348
0.950761 0.999657 0.853878
0.998076 0.998076 0.852767
0.000000 0.000000 1.006699
0.001785 0.000000 1.006543
0.150662 0.000000 1.007041
0.377432 0.000000 1.006993
0.619706 0.000000 1.006023
0.822208 0.000000 1.004474
0.969357 0.000000 1.003050
1.056951 0.000000 1.002393
1.087910 0.000000 0.999441
0.000000 0.001175 1.004503
0.000847 0.000847 1.003146
0.133452 0.000000 1.003102
0.347347 0.000000 1.002794
0.586157 0.000000 1.001694
0.796300 0.000000 0.999952
0.953921 0.000000 0.998203
1.051424 0.000000 0.997151
1.086747 0.000000 0.993260
0.000000 0.130458 1.004393
0.000000 0.123740 1.002673
0.120831 0.120831 1.002400
0.340456 0.099145 1.001944
0.579366 0.000000 1.000731
0.790691 0.000000 0.998877
0.950138 0.000000 0.996990
1.049598 0.000000 0.995753
1.085932 0.000000 0.991492
0.000000 0.334447 1.002614
0.000000 0.322210 1.000833
0.000000 0.319492 1.000457
0.314030 0.314030 0.999909
0.565892 0.299634 0.998629
0.781405 0.275686 0.996689
0.943074 0.247289 0.994699
1.044020 0.223712 0.993322
1.081060 0.210862 0.988843
0.000000 0.558635 0.997388
0.000000 0.544593 0.995700
0.000000 0.541332 0.995280
0.220324 0.537924 0.994686
0.530909 0.530909 0.993347
0.759279 0.520511 0.991346
0.926164 0.509629 0.989267
1.029673 0.501982 0.987779
1.067741 0.496789 0.983132
0.000000 0.752534 0.989494
0.000000 0.741425 0.987762
0.000000 0.738581 0.987284
0.000000 0.735942 0.986641
0.470804 0.731157 0.985247
0.724311 0.724311 0.983182
0.899972 0.717283 0.981037
1.007374 0.712332 0.979464
1.046969 0.707272 0.974717
0.000000 0.896462 0.981405
0.000000 0.889741 0.979402
0.000000 0.887855 0.978806
0.000000 0.885842 0.978084
0.393178 0.882099 0.976618
0.684900 0.876756 0.974487
0.871196 0.871196 0.972267
0.983029 0.867104 0.970621
1.024325 0.861578 0.965782
0.000000 0.984531 0.975649
0.000000 0.982090 0.973230
0.000000 0.981263 0.972471
0.000000 0.979882 0.971629
0.316700 0.976821 0.970069
0.653073 0.972275 0.967851
0.848456 0.967473 0.965542
0.963803 0.963803 0.963803
1.006443 0.957961 0.958849
0.000000 1.016233 0.969885
0.000000 1.015750 0.966872
0.000000 1.015492 0.965864
0.000000 1.014448 0.964855
0.270696 1.011708 0.963157
0.635371 1.007527 0.960819
0.834278 1.003081 0.958401
0.950693 0.999649 0.956526
0.998064 0.998064 0.955662
0.000000 0.000000 1.038823
0.001670 0.000000 1.038758
0.150259 0.000000 1.038784
0.378202 0.000000 1.038327
0.620087 0.000000 1.037015
0.821160 0.000000 1.035166
0.966962 0.000000 1.033371
1.053601 0.000000 1.032174
1.087989 0.000000 1.031830
0.000000 0.000994 1.038334
0.000647 0.000647 1.038076
0.131389 0.000000 1.038020
0.345953 0.000000 1.037598
0.584633 0.000000 1.036379
0.793889 0.000000 1.034522
0.950593 0.000000 1.032601
1.047397 0.000000 1.031208
1.086798 0.000000 1.030699
0.000000 0.128559 1.038115
0.000000 0.121492 1.037814
0.118482 0.118482 1.037725
0.338375 0.096199 1.037290
0.577154 0.000000 1.036074
0.787758 0.000000 1.034209
0.946460 0.000000 1.032252
1.045382 0.000000 1.030799
1.085963 0.000000 1.030224
0.000000 0.332771 1.036232
0.000000 0.320077 1.036055
0.000000 0.317210 1.035972
0.311651 0.311651 1.035534
0.563324 0.297130 1.034315
0.778215 0.273007 1.032433
0.939256 0.244319 1.030446
1.039749 0.220388 1.028945
1.081051 0.212669 1.028298
0.000000 0.556557 1.031058
0.000000 0.542084 1.031111
0.000000 0.538667 1.031073
0.217057 0.535170 1.030646
0.528094 0.528094 1.029428
0.755916 0.517625 1.027535
0.922270 0.506678 1.025519
1.025393 0.498923 1.023975
1.067699 0.497695 1.023266
0.000000 0.749694 1.023357
0.000000 0.738254 1.023483
0.000000 0.735275 1.023465
0.000000 0.732565 1.023046
0.467783 0.727725 1.021821
0.720852 0.720852 1.019914
0.896036 0.713773 1.017880
1.003128 0.708750 1.016315
1.046926 0.707763 1.015585
0.000000 0.893000 1.015421
0.000000 0.885997 1.015406
0.000000 0.883992 1.015353
0.000000 0.881943 1.014912
0.389593 0.878187 1.013669
0.681296 0.872800 1.011739
0.867224 0.867224 1.009684
0.978803 0.863105 1.008105
1.024305 0.861762 1.007380
0.000000 0.980713 1.009571
0.000000 0.978007 1.009283
0.000000 0.977104 1.009151
0.000000 0.975691 1.008662
0.311953 0.972616 1.007380
0.649205 0.968060 1.005420
0.844378 0.963246 1.003337
0.959563 0.959563 1.001738
1.006443 0.957977 1.001014
0.000000 1.016242 1.007075
0.000000 1.015755 1.006592
0.000000 1.015495 1.006390
0.000000 1.014449 1.005852
0.270804 1.011709 1.004529
0.635365 1.007527 1.002538
0.834233 1.003080 1.000431
0.950669 0.999646 0.998808
0.998059 0.998059 0.998059
