transforms/sv2_look_2_r709_g24.cube
# sv2_look_2_r709_g24.cube
LUT_3D_SIZE 5
0.000000 0.000000 0.000000
0.088801 0.000000 0.000000
0.520936 0.000000 0.000000
0.949098 0.000000 0.000000
1.087858 0.000000 0.000000
0.000000 0.115136 0.000000
0.137555 0.133747 0.000000
0.588337 0.000000 0.000000
0.975530 0.000000 0.000000
1.086588 0.000000 0.000000
0.000000 0.557061 0.000000
0.000000 0.561709 0.000000
0.584594 0.558063 0.000000
0.975806 0.498021 0.000000
1.071012 0.452929 0.000000
0.000000 0.903242 0.000000
0.000000 0.899596 0.000000
0.379341 0.889229 0.000000
0.880678 0.858434 0.000000
1.028568 0.797888 0.000000
0.000000 0.991336 0.000000
0.000000 0.989074 0.000000
0.000000 0.984758 0.000000
0.714982 0.972502 0.000000
0.970185 0.956891 0.000000
0.000000 0.000000 0.125251
0.091200 0.000000 0.117805
0.535300 0.000000 0.000000
0.953986 0.000000 0.000000
1.087770 0.000000 0.000000
0.000000 0.124384 0.131751
0.147556 0.141929 0.128283
0.594476 0.000000 0.000000
0.978703 0.000000 0.000000
1.086413 0.000000 0.000000
0.000000 0.562656 0.000000
0.000000 0.566505 0.000000
0.589376 0.562802 0.000000
0.977671 0.501886 0.000000
1.070738 0.454239 0.000000
0.000000 0.904078 0.000000
0.000000 0.899937 0.000000
0.380375 0.888936 0.000000
0.879947 0.857111 0.000000
1.028607 0.795955 0.000000
0.000000 0.991156 0.000000
0.000000 0.988941 0.000000
0.000000 0.984711 0.000000
0.715301 0.972908 0.000000
0.970698 0.957528 0.000000
0.000000 0.000000 0.482020
0.061815 0.000000 0.480334
0.549028 0.000000 0.474841
0.958313 0.000000 0.417186
1.087794 0.000000 0.410498
0.000000 0.093096 0.504453
0.113437 0.108911 0.510713
0.600860 0.000000 0.500452
0.981999 0.000000 0.449763
1.086377 0.000000 0.437427
0.000000 0.568637 0.510220
0.000000 0.572528 0.512444
0.597084 0.568716 0.505550
0.978868 0.506279 0.460303
1.070590 0.455971 0.417549
0.000000 0.904251 0.411219
0.000000 0.899584 0.400825
0.382563 0.888168 0.387724
0.879087 0.856111 0.338220
1.028312 0.794776 0.267966
0.000000 0.990887 0.178179
0.000000 0.988808 0.156066
0.000000 0.984693 0.137208
0.717037 0.973109 0.000000
0.971261 0.958205 0.000000
0.000000 0.000000 0.860261
0.029713 0.000000 0.864365
0.518368 0.000000 0.866610
0.961860 0.000000 0.858917
1.087846 0.000000 0.850877
0.000000 0.063233 0.881197
0.079776 0.075054 0.884315
0.567326 0.000000 0.887191
0.984912 0.000000 0.879127
1.086382 0.000000 0.862442
0.000000 0.536273 0.893498
0.000000 0.540152 0.895913
0.566028 0.539427 0.900043
0.977904 0.506650 0.882276
1.070862 0.451724 0.840781
0.000000 0.900879 0.850847
0.000000 0.895288 0.843256
0.370808 0.884049 0.832906
0.874413 0.851144 0.800243
1.028427 0.788901 0.743091
0.000000 0.989542 0.704892
0.000000 0.987658 0.694730
0.000000 0.983793 0.688304
0.704645 0.974070 0.662297
0.971869 0.958935 0.631153
0.000000 0.000000 1.032045
0.023122 0.000000 1.033224
0.511577 0.000000 1.032289
0.951380 0.000000 1.028354
1.087960 0.000000 1.025701
0.000000 0.055627 1.036709
0.067984 0.063026 1.037611
0.556234 0.000000 1.036398
0.975912 0.000000 1.032026
1.086447 0.000000 1.028222
0.000000 0.527201 1.031952
0.000000 0.530867 1.031337
0.553617 0.526942 1.029268
0.962451 0.491067 1.025311
1.071634 0.439980 1.017365
0.000000 0.878408 1.010245
0.000000 0.870877 1.009186
0.347562 0.858174 1.005332
0.848198 0.823627 0.997456
1.027531 0.777897 0.977600
0.000000 0.986998 0.954419
0.000000 0.985383 0.951619
0.000000 0.981934 0.948246
0.693168 0.973169 0.941726
0.970988 0.957637 0.927789
