transforms/sv2_look_7525_r709_g24.cube
# sv2_look_7525_r709_g24.cube
LUT_3D_SIZE 33
0.000000 0.000000 0.000000
0.004168 0.000000 0.000000
0.014504 0.000000 0.000000
0.029709 0.000000 0.000000
0.048731 0.000000 0.000000
0.071565 0.000000 0.000000
0.098612 0.000000 0.000000
0.129718 0.000000 0.000000
0.164775 0.000000 0.000000
0.204778 0.000000 0.000000
0.251552 0.000000 0.000000
0.306495 0.000000 0.000000
0.369345 0.000000 0.000000
0.438237 0.000000 0.000000
0.511132 0.000000 0.000000
0.585788 0.000000 0.000000
0.659361 0.000000 0.000000
0.728104 0.000000 0.000000
0.790239 0.000000 0.000000
0.845020 0.000000 0.000000
0.892427 0.000000 0.000000
0.933086 0.000000 0.000000
0.967398 0.000000 0.000000
0.995718 0.000000 0.000000
1.018646 0.000000 0.000000
1.036801 0.000000 0.000000
1.050940 0.000000 0.000000
1.061858 0.000000 0.000000
1.070196 0.000000 0.000000
1.076558 0.000000 0.000000
1.081376 0.000000 0.000000
1.085001 0.000000 0.000000
1.087858 0.000000 0.000000
0.000000 0.003839 0.000000
0.003683 0.003683 0.000000
0.013943 0.000000 0.000000
0.028722 0.000000 0.000000
0.047262 0.000000 0.000000
0.069509 0.000000 0.000000
0.095902 0.000000 0.000000
0.126319 0.000000 0.000000
0.160630 0.000000 0.000000
0.199645 0.000000 0.000000
0.245106 0.000000 0.000000
0.298572 0.000000 0.000000
0.360041 0.000000 0.000000
0.427833 0.000000 0.000000
0.499921 0.000000 0.000000
0.574209 0.000000 0.000000
0.647841 0.000000 0.000000
0.717238 0.000000 0.000000
0.780334 0.000000 0.000000
0.836225 0.000000 0.000000
0.884763 0.000000 0.000000
0.926466 0.000000 0.000000
0.961824 0.000000 0.000000
0.991113 0.000000 0.000000
1.014949 0.000000 0.000000
1.033906 0.000000 0.000000
1.048695 0.000000 0.000000
1.060151 0.000000 0.000000
1.068904 0.000000 0.000000
1.075596 0.000000 0.000000
1.080662 0.000000 0.000000
1.084492 0.000000 0.000000
1.087429 0.000000 0.000000
0.000000 0.013365 0.000000
0.000000 0.013076 0.000000
0.012825 0.012825 0.000000
0.028307 0.009805 0.000000
0.046885 0.000000 0.000000
0.068991 0.000000 0.000000
0.095154 0.000000 0.000000
0.125312 0.000000 0.000000
0.159318 0.000000 0.000000
0.197937 0.000000 0.000000
0.242866 0.000000 0.000000
0.295696 0.000000 0.000000
0.356573 0.000000 0.000000
0.423844 0.000000 0.000000
0.495488 0.000000 0.000000
0.569455 0.000000 0.000000
0.643045 0.000000 0.000000
0.712588 0.000000 0.000000
0.775996 0.000000 0.000000
0.832296 0.000000 0.000000
0.881280 0.000000 0.000000
0.923397 0.000000 0.000000
0.959200 0.000000 0.000000
0.988938 0.000000 0.000000
1.013157 0.000000 0.000000
1.032494 0.000000 0.000000
1.047577 0.000000 0.000000
1.059296 0.000000 0.000000
1.068250 0.000000 0.000000
1.075109 0.000000 0.000000
1.080297 0.000000 0.000000
1.084232 0.000000 0.000000
1.087214 0.000000 0.000000
0.000000 0.027385 0.000000
0.000000 0.026894 0.000000
0.000000 0.026711 0.000000
0.026298 0.026298 0.000000
0.046000 0.022979 0.000000
0.068442 0.016636 0.000000
0.094662 0.000000 0.000000
0.124762 0.000000 0.000000
0.158643 0.000000 0.000000
0.197045 0.000000 0.000000
0.241691 0.000000 0.000000
0.294163 0.000000 0.000000
0.354616 0.000000 0.000000
0.421552 0.000000 0.000000
0.492852 0.000000 0.000000
0.566598 0.000000 0.000000
0.640082 0.000000 0.000000
0.709675 0.000000 0.000000
0.773265 0.000000 0.000000
0.829781 0.000000 0.000000
0.879021 0.000000 0.000000
0.921395 0.000000 0.000000
0.957472 0.000000 0.000000
0.987475 0.000000 0.000000
1.011961 0.000000 0.000000
1.031520 0.000000 0.000000
1.046815 0.000000 0.000000
1.058704 0.000000 0.000000
1.067800 0.000000 0.000000
1.074767 0.000000 0.000000
1.080042 0.000000 0.000000
1.084047 0.000000 0.000000
1.087066 0.000000 0.000000
0.000000 0.044929 0.000000
0.000000 0.044228 0.000000
0.000000 0.043976 0.000000
0.015393 0.043727 0.000000
0.043154 0.043154 0.000000
0.066971 0.039363 0.000000
0.093768 0.033387 0.000000
0.124091 0.021548 0.000000
0.158048 0.000000 0.000000
0.196428 0.000000 0.000000
0.240925 0.000000 0.000000
0.293189 0.000000 0.000000
0.353398 0.000000 0.000000
0.420071 0.000000 0.000000
0.491153 0.000000 0.000000
0.564717 0.000000 0.000000
0.638081 0.000000 0.000000
0.707685 0.000000 0.000000
0.771380 0.000000 0.000000
0.828021 0.000000 0.000000
0.877437 0.000000 0.000000
0.919969 0.000000 0.000000
0.956224 0.000000 0.000000
0.986406 0.000000 0.000000
1.011070 0.000000 0.000000
1.030802 0.000000 0.000000
1.046249 0.000000 0.000000
1.058259 0.000000 0.000000
1.067459 0.000000 0.000000
1.074511 0.000000 0.000000
1.079849 0.000000 0.000000
1.083907 0.000000 0.000000
1.086957 0.000000 0.000000
0.000000 0.065956 0.000000
0.000000 0.065005 0.000000
0.000000 0.064643 0.000000
0.000000 0.064391 0.000000
0.032453 0.064033 0.000000
0.063316 0.063316 0.000000
0.091683 0.058926 0.000000
0.122770 0.052691 0.000000
0.157099 0.042931 0.000000
0.195661 0.020664 0.000000
0.240223 0.000000 0.000000
0.292428 0.000000 0.000000
0.352511 0.000000 0.000000
0.419046 0.000000 0.000000
0.489972 0.000000 0.000000
0.563410 0.000000 0.000000
0.636672 0.000000 0.000000
0.706285 0.000000 0.000000
0.770008 0.000000 0.000000
0.826746 0.000000 0.000000
0.876255 0.000000 0.000000
0.918920 0.000000 0.000000
0.955286 0.000000 0.000000
0.985605 0.000000 0.000000
1.010391 0.000000 0.000000
1.030257 0.000000 0.000000
1.045808 0.000000 0.000000
1.057919 0.000000 0.000000
1.067189 0.000000 0.000000
1.074310 0.000000 0.000000
1.079695 0.000000 0.000000
1.083797 0.000000 0.000000
1.086869 0.000000 0.000000
0.000000 0.090854 0.000000
0.000000 0.089626 0.000000
0.000000 0.089129 0.000000
0.000000 0.088813 0.000000
0.000000 0.088515 0.000000
0.051654 0.088036 0.000000
0.087162 0.087162 0.000000
0.119988 0.082182 0.000000
0.155249 0.075566 0.000000
0.194338 0.066043 0.000000
0.239200 0.049629 0.000000
0.291547 0.000000 0.000000
0.351678 0.000000 0.000000
0.418184 0.000000 0.000000
0.489046 0.000000 0.000000
0.562411 0.000000 0.000000
0.635636 0.000000 0.000000
0.705238 0.000000 0.000000
0.768993 0.000000 0.000000
0.825779 0.000000 0.000000
0.875352 0.000000 0.000000
0.918100 0.000000 0.000000
0.954562 0.000000 0.000000
0.984980 0.000000 0.000000
1.009864 0.000000 0.000000
1.029827 0.000000 0.000000
1.045460 0.000000 0.000000
1.057643 0.000000 0.000000
1.066978 0.000000 0.000000
1.074144 0.000000 0.000000
1.079571 0.000000 0.000000
1.083704 0.000000 0.000000
1.086797 0.000000 0.000000
0.000000 0.119492 0.000000
0.000000 0.117986 0.000000
0.000000 0.117339 0.000000
0.000000 0.116944 0.000000
0.000000 0.116625 0.000000
0.014742 0.116250 0.000000
0.074409 0.115640 0.000000
0.114604 0.114604 0.000000
0.151740 0.109053 0.000000
0.191917 0.101844 0.000000
0.237455 0.091673 0.000000
0.290236 0.075509 0.000000
0.350599 0.040935 0.000000
0.417248 0.000000 0.000000
0.488157 0.000000 0.000000
0.561515 0.000000 0.000000
0.634737 0.000000 0.000000
0.704353 0.000000 0.000000
0.768137 0.000000 0.000000
0.824995 0.000000 0.000000
0.874624 0.000000 0.000000
0.917423 0.000000 0.000000
0.953961 0.000000 0.000000
0.984459 0.000000 0.000000
1.009424 0.000000 0.000000
1.029462 0.000000 0.000000
1.045167 0.000000 0.000000
1.057407 0.000000 0.000000
1.066790 0.000000 0.000000
1.073995 0.000000 0.000000
1.079454 0.000000 0.000000
1.083614 0.000000 0.000000
1.086725 0.000000 0.000000
0.000000 0.151756 0.000000
0.000000 0.149957 0.000000
0.000000 0.149136 0.000000
0.000000 0.148640 0.000000
0.000000 0.148274 0.000000
0.000000 0.147919 0.000000
0.047836 0.147451 0.000000
0.100741 0.146706 0.000000
0.145509 0.145509 0.000000
0.187696 0.139255 0.000000
0.234492 0.131080 0.000000
0.288085 0.119657 0.000000
0.348989 0.102654 0.000000
0.415958 0.073793 0.000000
0.487063 0.000000 0.000000
0.560530 0.000000 0.000000
0.633832 0.000000 0.000000
0.703488 0.000000 0.000000
0.767326 0.000000 0.000000
0.824241 0.000000 0.000000
0.873942 0.000000 0.000000
0.916801 0.000000 0.000000
0.953393 0.000000 0.000000
0.983958 0.000000 0.000000
1.008989 0.000000 0.000000
1.029090 0.000000 0.000000
1.044852 0.000000 0.000000
1.057141 0.000000 0.000000
1.066569 0.000000 0.000000
1.073803 0.000000 0.000000
1.079290 0.000000 0.000000
1.083471 0.000000 0.000000
1.086597 0.000000 0.000000
0.000000 0.188471 0.000000
0.000000 0.186274 0.000000
0.000000 0.185240 0.000000
0.000000 0.184593 0.000000
0.000000 0.184151 0.000000
0.000000 0.183765 0.000000
0.000000 0.183343 0.000000
0.075388 0.182772 0.000000
0.130137 0.181887 0.000000
0.180508 0.180508 0.000000
0.229529 0.173270 0.000000
0.284569 0.163792 0.000000
0.346421 0.150983 0.000000
0.414019 0.133267 0.000000
0.485504 0.107157 0.000000
0.559221 0.056472 0.000000
0.632715 0.000000 0.000000
0.702475 0.000000 0.000000
0.766405 0.000000 0.000000
0.823397 0.000000 0.000000
0.873169 0.000000 0.000000
0.916102 0.000000 0.000000
0.952755 0.000000 0.000000
0.983380 0.000000 0.000000
1.008471 0.000000 0.000000
1.028627 0.000000 0.000000
1.044442 0.000000 0.000000
1.056772 0.000000 0.000000
1.066233 0.000000 0.000000
1.073499 0.000000 0.000000
1.079007 0.000000 0.000000
1.083207 0.000000 0.000000
1.086345 0.000000 0.000000
0.000000 0.231265 0.000000
0.000000 0.228545 0.000000
0.000000 0.227233 0.000000
0.000000 0.226398 0.000000
0.000000 0.225825 0.000000
0.000000 0.225373 0.000000
0.000000 0.224943 0.000000
0.000000 0.224437 0.000000
0.103181 0.223749 0.000000
0.162884 0.222721 0.000000
0.221108 0.221108 0.000000
0.278687 0.212633 0.000000
0.342184 0.201811 0.000000
0.410871 0.187976 0.000000
0.483085 0.170188 0.000000
0.557267 0.146589 0.000000
0.631073 0.112810 0.000000
0.701053 0.043389 0.000000
0.765160 0.000000 0.000000
0.822272 0.000000 0.000000
0.872141 0.000000 0.000000
0.915156 0.000000 0.000000
0.951897 0.000000 0.000000
0.982585 0.000000 0.000000
1.007743 0.000000 0.000000
1.027949 0.000000 0.000000
1.043814 0.000000 0.000000
1.056183 0.000000 0.000000
1.065680 0.000000 0.000000
1.072969 0.000000 0.000000
1.078497 0.000000 0.000000
1.082713 0.000000 0.000000
1.085862 0.000000 0.000000
0.000000 0.281510 0.000000
0.000000 0.278197 0.000000
0.000000 0.276584 0.000000
0.000000 0.275518 0.000000
0.000000 0.274789 0.000000
0.000000 0.274226 0.000000
0.000000 0.273736 0.000000
0.000000 0.273249 0.000000
0.000000 0.272656 0.000000
0.132621 0.271852 0.000000
0.200575 0.270645 0.000000
0.268742 0.268742 0.000000
0.335113 0.259013 0.000000
0.405651 0.247154 0.000000
0.479092 0.232860 0.000000
0.554130 0.215604 0.000000
0.628492 0.194832 0.000000
0.698860 0.170043 0.000000
0.763271 0.139713 0.000000
0.820574 0.098664 0.000000
0.870606 0.000000 0.000000
0.913747 0.000000 0.000000
0.950586 0.000000 0.000000
0.981363 0.000000 0.000000
1.006594 0.000000 0.000000
1.026868 0.000000 0.000000
1.042784 0.000000 0.000000
1.055195 0.000000 0.000000
1.064724 0.000000 0.000000
1.072040 0.000000 0.000000
1.077586 0.000000 0.000000
1.081818 0.000000 0.000000
1.084974 0.000000 0.000000
0.000000 0.339148 0.000000
0.000000 0.335291 0.000000
0.000000 0.333361 0.000000
0.000000 0.332089 0.000000
0.000000 0.331172 0.000000
0.000000 0.330487 0.000000
0.000000 0.329915 0.000000
0.000000 0.329391 0.000000
0.000000 0.328851 0.000000
0.054334 0.328164 0.000000
0.166844 0.327226 0.000000
0.245288 0.325780 0.000000
0.323575 0.323575 0.000000
0.397242 0.312839 0.000000
0.472706 0.300398 0.000000
0.549105 0.286095 0.000000
0.624423 0.269973 0.000000
0.695443 0.252413 0.000000
0.760310 0.233736 0.000000
0.817948 0.214286 0.000000
0.868221 0.194188 0.000000
0.911558 0.173474 0.000000
0.948549 0.152032 0.000000
0.979450 0.129717 0.000000
1.004768 0.106005 0.000000
1.025129 0.079348 0.000000
1.041107 0.042327 0.000000
1.053572 0.000000 0.000000
1.063138 0.000000 0.000000
1.070484 0.000000 0.000000
1.076050 0.000000 0.000000
1.080299 0.000000 0.000000
1.083462 0.000000 0.000000
0.000000 0.402593 0.000000
0.000000 0.398304 0.000000
0.000000 0.396133 0.000000
0.000000 0.394649 0.000000
0.000000 0.393571 0.000000
0.000000 0.392777 0.000000
0.000000 0.392118 0.000000
0.000000 0.391548 0.000000
0.000000 0.391014 0.000000
0.000000 0.390409 0.000000
0.096734 0.389614 0.000000
0.209431 0.388481 0.000000
0.297910 0.386779 0.000000
0.384311 0.384311 0.000000
0.463017 0.372916 0.000000
0.541532 0.360243 0.000000
0.618286 0.346440 0.000000
0.690325 0.332035 0.000000
0.755872 0.317478 0.000000
0.814016 0.303217 0.000000
0.864669 0.289533 0.000000
0.908282 0.276642 0.000000
0.945486 0.264721 0.000000
0.976556 0.254060 0.000000
1.002020 0.244766 0.000000
1.022478 0.236995 0.000000
1.038541 0.230783 0.000000
1.051071 0.225974 0.000000
1.060684 0.222463 0.000000
1.068064 0.220034 0.000000
1.073658 0.218485 0.000000
1.077924 0.217691 0.000000
1.081097 0.217596 0.000000
0.000000 0.469889 0.000000
0.000000 0.465298 0.000000
0.000000 0.462923 0.000000
0.000000 0.461273 0.000000
0.000000 0.460055 0.000000
0.000000 0.459137 0.000000
0.000000 0.458413 0.000000
0.000000 0.457787 0.000000
0.000000 0.457222 0.000000
0.000000 0.456652 0.000000
0.000000 0.455958 0.000000
0.146856 0.455015 0.000000
0.261617 0.453638 0.000000
0.357337 0.451708 0.000000
0.449042 0.449042 0.000000
0.530734 0.437297 0.000000
0.609583 0.424805 0.000000
0.683069 0.412113 0.000000
0.749631 0.399643 0.000000
0.808468 0.387753 0.000000
0.859636 0.376701 0.000000
0.903648 0.366609 0.000000
0.941161 0.357558 0.000000
0.972466 0.349696 0.000000
0.998106 0.343096 0.000000
1.018706 0.337740 0.000000
1.034876 0.333597 0.000000
1.047487 0.330447 0.000000
1.057161 0.328241 0.000000
1.064586 0.326755 0.000000
1.070210 0.325906 0.000000
1.074498 0.325544 0.000000
1.077685 0.325624 0.000000
0.000000 0.539105 0.000000
0.000000 0.534376 0.000000
0.000000 0.531877 0.000000
0.000000 0.530115 0.000000
0.000000 0.528809 0.000000
0.000000 0.527807 0.000000
0.000000 0.527008 0.000000
0.000000 0.526357 0.000000
0.000000 0.525762 0.000000
0.000000 0.525182 0.000000
0.000000 0.524551 0.000000
0.000000 0.523724 0.000000
0.206372 0.522583 0.000000
0.321700 0.520993 0.000000
0.421497 0.518851 0.000000
0.516060 0.516060 0.000000
0.597874 0.504381 0.000000
0.673317 0.492684 0.000000
0.741244 0.481410 0.000000
0.801060 0.470829 0.000000
0.852927 0.461169 0.000000
0.897451 0.452488 0.000000
0.935364 0.444835 0.000000
0.966979 0.438292 0.000000
0.992860 0.432853 0.000000
1.013642 0.428501 0.000000
1.029947 0.425171 0.000000
1.042663 0.422698 0.000000
1.052415 0.420959 0.000000
1.059899 0.419816 0.000000
1.065564 0.419206 0.000000
1.069882 0.418984 0.000000
1.073090 0.419115 0.000000
0.000000 0.607672 0.000000
0.000000 0.602982 0.000000
0.000000 0.600474 0.000000
0.000000 0.598694 0.000000
0.000000 0.597340 0.000000
0.000000 0.596306 0.000000
0.000000 0.595476 0.000000
0.000000 0.594785 0.000000
0.000000 0.594177 0.000000
0.000000 0.593604 0.000000
0.000000 0.593007 0.000000
0.000000 0.592268 0.000000
0.087637 0.591271 0.000000
0.273510 0.589931 0.000000
0.387618 0.588126 0.000000
0.488928 0.585819 0.000000
0.583022 0.583022 0.000000
0.661032 0.571933 0.000000
0.730697 0.561366 0.000000
0.791746 0.551610 0.000000
0.844514 0.542758 0.000000
0.889705 0.534883 0.000000
0.928124 0.527994 0.000000
0.960120 0.522151 0.000000
0.986287 0.517342 0.000000
1.007294 0.513518 0.000000
1.023767 0.510593 0.000000
1.036611 0.508413 0.000000
1.046460 0.506905 0.000000
1.054016 0.505918 0.000000
1.059736 0.505370 0.000000
1.064092 0.505201 0.000000
1.067324 0.505336 0.000000
0.000000 0.672152 0.000000
0.000000 0.667754 0.000000
0.000000 0.665348 0.000000
0.000000 0.663619 0.000000
0.000000 0.662324 0.000000
0.000000 0.661311 0.000000
0.000000 0.660475 0.000000
0.000000 0.659790 0.000000
0.000000 0.659201 0.000000
0.000000 0.658637 0.000000
0.000000 0.658052 0.000000
0.000000 0.657371 0.000000
0.000000 0.656483 0.000000
0.204251 0.655302 0.000000
0.346961 0.653752 0.000000
0.458271 0.651777 0.000000
0.557555 0.649370 0.000000
0.646674 0.646674 0.000000
0.718433 0.636543 0.000000
0.780957 0.627246 0.000000
0.834779 0.618898 0.000000
0.880737 0.611517 0.000000
0.919737 0.605095 0.000000
0.952179 0.599669 0.000000
0.978682 0.595217 0.000000
0.999945 0.591664 0.000000
1.016620 0.588937 0.000000
1.029615 0.586914 0.000000
1.039574 0.585505 0.000000
1.047216 0.584566 0.000000
1.052998 0.584024 0.000000
1.057405 0.583790 0.000000
1.060672 0.583863 0.000000
0.000000 0.730767 0.000000
0.000000 0.726747 0.000000
0.000000 0.724547 0.000000
0.000000 0.722958 0.000000
0.000000 0.721741 0.000000
0.000000 0.720762 0.000000
0.000000 0.719985 0.000000
0.000000 0.719331 0.000000
0.000000 0.718755 0.000000
0.000000 0.718221 0.000000
0.000000 0.717681 0.000000
0.000000 0.717049 0.000000
0.000000 0.716240 0.000000
0.000000 0.715192 0.000000
0.298068 0.713820 0.000000
0.424652 0.712066 0.000000
0.530745 0.709952 0.000000
0.623620 0.707565 0.000000
0.705056 0.705056 0.000000
0.769207 0.696053 0.000000
0.824197 0.688017 0.000000
0.871013 0.680945 0.000000
0.910645 0.674807 0.000000
0.943570 0.669631 0.000000
0.970452 0.665366 0.000000
0.992002 0.661957 0.000000
1.008884 0.659355 0.000000
1.022039 0.657402 0.000000
1.032121 0.656007 0.000000
1.039858 0.655067 0.000000
1.045710 0.654496 0.000000
1.050171 0.654209 0.000000
1.053481 0.654206 0.000000
0.000000 0.782665 0.000000
0.000000 0.779104 0.000000
0.000000 0.777125 0.000000
0.000000 0.775683 0.000000
0.000000 0.774570 0.000000
0.000000 0.773673 0.000000
0.000000 0.772944 0.000000
0.000000 0.772348 0.000000
0.000000 0.771818 0.000000
0.000000 0.771310 0.000000
0.000000 0.770806 0.000000
0.000000 0.770228 0.000000
0.000000 0.769487 0.000000
0.000000 0.768532 0.000000
0.237128 0.767282 0.000000
0.388649 0.765698 0.000000
0.503372 0.763800 0.000000
0.600683 0.761653 0.000000
0.684725 0.759376 0.000000
0.757113 0.757113 0.000000
0.813314 0.749266 0.000000
0.861024 0.742394 0.000000
0.901326 0.736441 0.000000
0.934753 0.731408 0.000000
0.962014 0.727279 0.000000
0.983853 0.723969 0.000000
1.000957 0.721411 0.000000
1.014278 0.719495 0.000000
1.024488 0.718088 0.000000
1.032319 0.717129 0.000000
1.038251 0.716495 0.000000
1.042768 0.716165 0.000000
1.046121 0.716080 0.000000
0.000000 0.827726 0.000000
0.000000 0.824629 0.000000
0.000000 0.822899 0.000000
0.000000 0.821615 0.000000
0.000000 0.820641 0.000000
0.000000 0.819827 0.000000
0.000000 0.819168 0.000000
0.000000 0.818609 0.000000
0.000000 0.818127 0.000000
0.000000 0.817666 0.000000
0.000000 0.817190 0.000000
0.000000 0.816666 0.000000
0.000000 0.815989 0.000000
0.000000 0.815106 0.000000
0.147202 0.813955 0.000000
0.350479 0.812505 0.000000
0.476127 0.810766 0.000000
0.578470 0.808800 0.000000
0.665351 0.806713 0.000000
0.739507 0.804615 0.000000
0.802614 0.802614 0.000000
0.851220 0.795857 0.000000
0.892184 0.790025 0.000000
0.926109 0.785096 0.000000
0.953742 0.781037 0.000000
0.975859 0.777790 0.000000
0.993177 0.775264 0.000000
1.006666 0.773346 0.000000
1.017000 0.771936 0.000000
1.024931 0.770935 0.000000
1.030935 0.770262 0.000000
1.035511 0.769865 0.000000
1.038911 0.769704 0.000000
0.000000 0.866458 0.000000
0.000000 0.863790 0.000000
0.000000 0.862280 0.000000
0.000000 0.861169 0.000000
0.000000 0.860289 0.000000
0.000000 0.859584 0.000000
0.000000 0.858997 0.000000
0.000000 0.858501 0.000000
0.000000 0.858051 0.000000
0.000000 0.857637 0.000000
0.000000 0.857205 0.000000
0.000000 0.856720 0.000000
0.000000 0.856105 0.000000
0.000000 0.855282 0.000000
0.000000 0.854215 0.000000
0.309990 0.852865 0.000000
0.449526 0.851236 0.000000
0.557385 0.849407 0.000000
0.647276 0.847463 0.000000
0.723249 0.845507 0.000000
0.787528 0.843634 0.000000
0.841881 0.841881 0.000000
0.883488 0.836128 0.000000
0.917889 0.831271 0.000000
0.945879 0.827267 0.000000
0.968269 0.824056 0.000000
0.985788 0.821546 0.000000
0.999433 0.819627 0.000000
1.009888 0.818197 0.000000
1.017910 0.817164 0.000000
1.023989 0.816448 0.000000
1.028619 0.815992 0.000000
1.032066 0.815759 0.000000
0.000000 0.899316 0.000000
0.000000 0.897078 0.000000
0.000000 0.895788 0.000000
0.000000 0.894840 0.000000
0.000000 0.894087 0.000000
0.000000 0.893471 0.000000
0.000000 0.892951 0.000000
0.000000 0.892521 0.000000
0.000000 0.892135 0.000000
0.000000 0.891758 0.000000
0.000000 0.891371 0.000000
0.000000 0.890920 0.000000
0.000000 0.890351 0.000000
0.000000 0.889586 0.000000
0.000000 0.888587 0.000000
0.266448 0.887320 0.000000
0.423947 0.885782 0.000000
0.537805 0.884060 0.000000
0.630698 0.882229 0.000000
0.708479 0.880382 0.000000
0.773940 0.878602 0.000000
0.829078 0.876951 0.000000
0.875435 0.875435 0.000000
0.910280 0.870642 0.000000
0.938611 0.866669 0.000000
0.961245 0.863485 0.000000
0.978959 0.860986 0.000000
0.992744 0.859061 0.000000
1.003307 0.857616 0.000000
1.011418 0.856549 0.000000
1.017560 0.855808 0.000000
1.022247 0.855290 0.000000
1.025734 0.854992 0.000000
0.000000 0.926564 0.000000
0.000000 0.924727 0.000000
0.000000 0.923663 0.000000
0.000000 0.922858 0.000000
0.000000 0.922225 0.000000
0.000000 0.921707 0.000000
0.000000 0.921273 0.000000
0.000000 0.920901 0.000000
0.000000 0.920565 0.000000
0.000000 0.920246 0.000000
0.000000 0.919902 0.000000
0.000000 0.919493 0.000000
0.000000 0.918959 0.000000
0.000000 0.918245 0.000000
0.000000 0.917301 0.000000
0.218729 0.916099 0.000000
0.400134 0.914638 0.000000
0.520186 0.913000 0.000000
0.616011 0.911258 0.000000
0.695499 0.909504 0.000000
0.762025 0.907803 0.000000
0.817909 0.906219 0.000000
0.864796 0.904773 0.000000
0.903505 0.903505 0.000000
0.932122 0.899570 0.000000
0.954988 0.896393 0.000000
0.972860 0.893907 0.000000
0.986776 0.891974 0.000000
0.997435 0.890518 0.000000
1.005621 0.889422 0.000000
1.011823 0.888646 0.000000
1.016556 0.888096 0.000000
1.020084 0.887740 0.000000
0.000000 0.948736 0.000000
0.000000 0.947263 0.000000
0.000000 0.946398 0.000000
0.000000 0.945750 0.000000
0.000000 0.945221 0.000000
0.000000 0.944795 0.000000
0.000000 0.944434 0.000000
0.000000 0.944125 0.000000
0.000000 0.943843 0.000000
0.000000 0.943564 0.000000
0.000000 0.943259 0.000000
0.000000 0.942890 0.000000
0.000000 0.942397 0.000000
0.000000 0.941726 0.000000
0.000000 0.940833 0.000000
0.162922 0.939685 0.000000
0.378639 0.938288 0.000000
0.504833 0.936718 0.000000
0.603392 0.935044 0.000000
0.684425 0.933357 0.000000
0.751908 0.931728 0.000000
0.808425 0.930201 0.000000
0.855763 0.928804 0.000000
0.894807 0.927575 0.000000
0.926535 0.926535 0.000000
0.949580 0.923366 0.000000
0.967596 0.920882 0.000000
0.981617 0.918943 0.000000
0.992361 0.917473 0.000000
1.000607 0.916370 0.000000
1.006862 0.915554 0.000000
1.011635 0.914971 0.000000
1.015195 0.914580 0.000000
0.000000 0.966406 0.000000
0.000000 0.965257 0.000000
0.000000 0.964570 0.000000
0.000000 0.964052 0.000000
0.000000 0.963633 0.000000
0.000000 0.963289 0.000000
0.000000 0.963003 0.000000
0.000000 0.962750 0.000000
0.000000 0.962516 0.000000
0.000000 0.962285 0.000000
0.000000 0.962020 0.000000
0.000000 0.961680 0.000000
0.000000 0.961222 0.000000
0.000000 0.960589 0.000000
0.000000 0.959739 0.000000
0.076932 0.958642 0.000000
0.359806 0.957298 0.000000
0.491910 0.955782 0.000000
0.592908 0.954166 0.000000
0.675243 0.952534 0.000000
0.743558 0.950951 0.000000
0.800611 0.949471 0.000000
0.848325 0.948116 0.000000
0.887634 0.946919 0.000000
0.919556 0.945898 0.000000
0.945057 0.945057 0.000000
0.963189 0.942568 0.000000
0.977291 0.940631 0.000000
0.988104 0.939149 0.000000
0.996404 0.938023 0.000000
1.002696 0.937195 0.000000
1.007505 0.936582 0.000000
1.011092 0.936161 0.000000
0.000000 0.980206 0.000000
0.000000 0.979309 0.000000
0.000000 0.978778 0.000000
0.000000 0.978375 0.000000
0.000000 0.978044 0.000000
0.000000 0.977772 0.000000
0.000000 0.977542 0.000000
0.000000 0.977341 0.000000
0.000000 0.977153 0.000000
0.000000 0.976958 0.000000
0.000000 0.976732 0.000000
0.000000 0.976428 0.000000
0.000000 0.976001 0.000000
0.000000 0.975399 0.000000
0.000000 0.974583 0.000000
0.000000 0.973524 0.000000
0.344006 0.972225 0.000000
0.481442 0.970752 0.000000
0.584513 0.969180 0.000000
0.667936 0.967591 0.000000
0.736887 0.966052 0.000000
0.794393 0.964603 0.000000
0.842398 0.963281 0.000000
0.881911 0.962113 0.000000
0.913979 0.961113 0.000000
0.939588 0.960279 0.000000
0.959613 0.959613 0.000000
0.973788 0.957673 0.000000
0.984646 0.956191 0.000000
