transforms/sv2_look_2_r709_g24.cube
# sv2_look_2_r709_g24.cube
LUT_3D_SIZE 9
0.000000 0.000000 0.000000
0.005819 0.000000 0.000000
0.088801 0.000000 0.000000
0.264436 0.000000 0.000000
0.520936 0.000000 0.000000
0.768045 0.000000 0.000000
0.949098 0.000000 0.000000
1.052852 0.000000 0.000000
1.087858 0.000000 0.000000
0.000000 0.002902 0.000000
0.002982 0.004747 0.000000
0.136434 0.000000 0.000000
0.311546 0.000000 0.000000
0.562533 0.000000 0.000000
0.796155 0.000000 0.000000
0.965260 0.000000 0.000000
1.061118 0.000000 0.000000
1.087112 0.000000 0.000000
0.000000 0.115136 0.000000
0.000000 0.131770 0.000000
0.137555 0.133747 0.000000
0.342005 0.099321 0.000000
0.588337 0.000000 0.000000
0.811938 0.000000 0.000000
0.975530 0.000000 0.000000
1.065647 0.000000 0.000000
1.086588 0.000000 0.000000
0.000000 0.311033 0.000000
0.000000 0.321649 0.000000
0.000000 0.328508 0.000000
0.342502 0.326210 0.000000
0.600018 0.285138 0.000000
0.823887 0.227947 0.000000
0.982597 0.158676 0.000000
1.066960 0.090864 0.000000
1.083222 0.000000 0.000000
0.000000 0.557061 0.000000
0.000000 0.558479 0.000000
0.000000 0.561709 0.000000
0.237765 0.563864 0.000000
0.584594 0.558063 0.000000
0.818272 0.525794 0.000000
0.975806 0.498021 0.000000
1.053375 0.474786 0.000000
1.071012 0.452929 0.000000
0.000000 0.771014 0.000000
0.000000 0.771347 0.000000
0.000000 0.773423 0.000000
0.000000 0.773923 0.000000
0.510248 0.768827 0.000000
0.781655 0.754983 0.000000
0.939526 0.721628 0.000000
1.024079 0.692070 0.000000
1.052192 0.665680 0.000000
0.000000 0.903242 0.000000
0.000000 0.900676 0.000000
0.000000 0.899596 0.000000
0.000000 0.896738 0.000000
0.379341 0.889229 0.000000
0.692603 0.876642 0.000000
0.880678 0.858434 0.000000
0.982293 0.826178 0.000000
1.028568 0.797888 0.000000
0.000000 0.963893 0.000000
0.000000 0.960969 0.000000
0.000000 0.959121 0.000000
0.000000 0.956255 0.000000
0.048403 0.950214 0.000000
0.577667 0.939858 0.000000
0.793512 0.927089 0.000000
0.929693 0.911289 0.000000
0.997904 0.889014 0.000000
0.000000 0.991336 0.000000
0.000000 0.989904 0.000000
0.000000 0.989074 0.000000
0.000000 0.987784 0.000000
0.000000 0.984758 0.000000
0.464319 0.979510 0.000000
0.714982 0.972502 0.000000
0.875545 0.964792 0.000000
0.970185 0.956891 0.000000
0.000000 0.000000 0.041934
0.000000 0.000000 0.042189
0.094355 0.000000 0.000000
0.274807 0.000000 0.000000
0.528206 0.000000 0.000000
0.773412 0.000000 0.000000
0.952027 0.000000 0.000000
1.054448 0.000000 0.000000
1.087817 0.000000 0.000000
0.000000 0.001347 0.036857
0.001813 0.003241 0.033169
0.163570 0.000000 0.000000
0.317838 0.000000 0.000000
0.567398 0.000000 0.000000
0.799013 0.000000 0.000000
0.967344 0.000000 0.000000
1.062114 0.000000 0.000000
1.087017 0.000000 0.000000
0.000000 0.122870 0.000000
0.000000 0.145182 0.000000
0.146948 0.141565 0.000000
0.356737 0.098842 0.000000
0.591415 0.000000 0.000000
0.814243 0.000000 0.000000
0.977122 0.000000 0.000000
1.066482 0.000000 0.000000
1.086473 0.000000 0.000000
0.000000 0.316756 0.000000
0.000000 0.326080 0.000000
0.000000 0.335076 0.000000
0.345227 0.328741 0.000000
0.602337 0.287636 0.000000
0.826065 0.230836 0.000000
0.984236 0.163266 0.000000
1.067466 0.100687 0.000000
1.083049 0.032964 0.000000
0.000000 0.559951 0.000000
0.000000 0.560447 0.000000
0.000000 0.563724 0.000000
0.241032 0.565787 0.000000
0.586573 0.559960 0.000000
0.819696 0.527768 0.000000
0.976734 0.499303 0.000000
1.053591 0.475350 0.000000
1.070891 0.452776 0.000000
0.000000 0.772902 0.000000
0.000000 0.772673 0.000000
0.000000 0.774618 0.000000
0.000000 0.774851 0.000000
0.510812 0.769391 0.000000
0.781556 0.755139 0.000000
0.939631 0.721171 0.000000
1.024120 0.690986 0.000000
1.052229 0.664096 0.000000
0.000000 0.903544 0.000000
0.000000 0.900592 0.000000
0.000000 0.899440 0.000000
0.000000 0.896419 0.000000
0.378473 0.888679 0.000000
0.691392 0.875801 0.000000
0.879850 0.857207 0.000000
0.981891 0.824672 0.000000
1.028622 0.796189 0.000000
0.000000 0.963525 0.000000
0.000000 0.960345 0.000000
0.000000 0.958452 0.000000
0.000000 0.955533 0.000000
0.000000 0.949535 0.000000
0.575477 0.939099 0.000000
0.792023 0.926256 0.000000
0.929142 0.910633 0.000000
0.997911 0.888435 0.000000
0.000000 0.991195 0.000000
0.000000 0.989700 0.000000
0.000000 0.988888 0.000000
0.000000 0.987616 0.000000
0.000000 0.984627 0.000000
0.463740 0.979414 0.000000
0.714598 0.972632 0.000000
0.875668 0.964961 0.000000
0.970397 0.957153 0.000000
0.000000 0.000000 0.125251
0.000000 0.000000 0.122297
0.091200 0.000000 0.117805
0.281131 0.000000 0.093463
0.535300 0.000000 0.000000
0.777972 0.000000 0.000000
0.953986 0.000000 0.000000
1.055267 0.000000 0.000000
1.087770 0.000000 0.000000
0.000000 0.000000 0.131697
0.000000 0.000000 0.169146
0.160673 0.000000 0.160773
0.331548 0.000000 0.099917
0.572480 0.000000 0.000000
0.801819 0.000000 0.000000
0.969197 0.000000 0.000000
1.062918 0.000000 0.000000
1.086966 0.000000 0.000000
0.000000 0.124384 0.131751
0.000000 0.146111 0.143688
0.147556 0.141929 0.128283
0.405338 0.068066 0.066369
0.594476 0.000000 0.000000
0.816758 0.000000 0.000000
0.978703 0.000000 0.000000
1.067220 0.000000 0.000000
1.086413 0.000000 0.000000
0.000000 0.322760 0.059201
0.000000 0.334735 0.038975
0.000000 0.353013 0.000000
0.354885 0.336466 0.000000
0.612881 0.287669 0.000000
0.828613 0.234113 0.000000
0.986010 0.168404 0.000000
1.067948 0.110647 0.000000
1.082928 0.058441 0.000000
0.000000 0.562656 0.000000
0.000000 0.563103 0.000000
0.000000 0.566505 0.000000
0.233191 0.571474 0.000000
0.589376 0.562802 0.000000
0.821807 0.530777 0.000000
0.977671 0.501886 0.000000
1.053773 0.477399 0.000000
1.070738 0.454239 0.000000
0.000000 0.774950 0.000000
0.000000 0.774558 0.000000
0.000000 0.776570 0.000000
0.000000 0.776619 0.000000
0.513028 0.770903 0.000000
0.782578 0.756367 0.000000
0.940182 0.722067 0.000000
1.024178 0.691518 0.000000
1.052155 0.664214 0.000000
0.000000 0.904078 0.000000
0.000000 0.901045 0.000000
0.000000 0.899937 0.000000
0.000000 0.896814 0.000000
0.380375 0.888936 0.000000
0.691947 0.875904 0.000000
0.879947 0.857111 0.000000
0.981790 0.824508 0.000000
1.028607 0.795955 0.000000
0.000000 0.963385 0.000000
0.000000 0.960161 0.000000
0.000000 0.958283 0.000000
0.000000 0.955362 0.000000
0.032829 0.949438 0.000000
0.575779 0.938986 0.000000
0.791981 0.926121 0.000000
0.929187 0.910684 0.000000
0.997999 0.888587 0.000000
0.000000 0.991156 0.000000
0.000000 0.989705 0.000000
0.000000 0.988941 0.000000
0.000000 0.987689 0.000000
0.000000 0.984711 0.000000
0.465240 0.979522 0.000000
0.715301 0.972908 0.000000
0.876224 0.965287 0.000000
0.970698 0.957528 0.000000
0.000000 0.000000 0.277110
0.000000 0.000000 0.269930
0.078231 0.000000 0.269042
0.288199 0.000000 0.270588
0.542414 0.000000 0.231723
0.782746 0.000000 0.181447
0.956263 0.000000 0.122167
1.056258 0.000000 0.050413
1.087777 0.000000 0.020417
0.000000 0.000000 0.284593
0.000000 0.000000 0.286529
0.118646 0.000000 0.297698
0.329890 0.000000 0.282635
0.577430 0.000000 0.245404
0.804750 0.000000 0.200592
0.971197 0.000000 0.154389
1.063765 0.000000 0.120139
1.086954 0.000000 0.117944
0.000000 0.111095 0.293944
0.000000 0.122966 0.308208
0.124241 0.118729 0.352099
0.406614 0.063543 0.326247
0.606795 0.000000 0.256379
0.819473 0.000000 0.214280
0.980401 0.000000 0.172346
1.067965 0.000000 0.143830
1.086389 0.000000 0.137429
0.000000 0.328170 0.291531
0.000000 0.334292 0.291329
0.000000 0.351710 0.301356
0.352853 0.334041 0.285686
0.663716 0.264752 0.230060
0.830923 0.237674 0.217964
0.987793 0.173776 0.178955
1.068352 0.119877 0.153640
1.082842 0.073688 0.135305
0.000000 0.565733 0.236258
0.000000 0.566053 0.237659
0.000000 0.573279 0.234021
0.084410 0.591462 0.160210
0.599120 0.571299 0.111366
0.828979 0.532157 0.167568
0.978456 0.504436 0.127698
1.053824 0.479341 0.048659
1.070623 0.455648 0.000000
0.000000 0.777197 0.111242
0.000000 0.776521 0.112703
0.000000 0.778428 0.118895
0.000000 0.778211 0.115255
0.507779 0.774365 0.000000
0.783446 0.757369 0.000000
0.940432 0.722751 0.000000
1.024087 0.691878 0.000000
1.052124 0.664255 0.000000
0.000000 0.904496 0.000000
0.000000 0.901294 0.000000
0.000000 0.900147 0.000000
0.000000 0.896917 0.000000
0.382271 0.888912 0.000000
0.692329 0.875745 0.000000
0.879761 0.856821 0.000000
0.981533 0.824129 0.000000
1.028530 0.795685 0.000000
0.000000 0.963213 0.000000
0.000000 0.959872 0.000000
0.000000 0.958009 0.000000
0.000000 0.955068 0.000000
0.057836 0.949139 0.000000
0.576209 0.938727 0.000000
0.791954 0.925898 0.000000
0.929189 0.910678 0.000000
0.998053 0.888754 0.000000
0.000000 0.991145 0.000000
0.000000 0.989697 0.000000
0.000000 0.988972 0.000000
0.000000 0.987734 0.000000
0.000000 0.984785 0.000000
0.467119 0.979621 0.000000
0.716295 0.973074 0.000000
0.876876 0.965599 0.000000
0.971020 0.957918 0.000000
0.000000 0.000000 0.482020
0.000000 0.000000 0.473554
0.061815 0.000000 0.480334
0.269571 0.000000 0.481610
0.549028 0.000000 0.474841
0.787073 0.000000 0.441907
0.958313 0.000000 0.417186
1.057186 0.000000 0.406117
1.087794 0.000000 0.410498
0.000000 0.000000 0.492401
0.000000 0.000000 0.493798
0.097397 0.000000 0.495131
0.312935 0.000000 0.496247
0.581746 0.000000 0.487385
0.807400 0.000000 0.457694
0.972907 0.000000 0.435797
1.064407 0.000000 0.426925
1.086955 0.000000 0.429886
0.000000 0.093096 0.504453
0.000000 0.104321 0.505144
0.113437 0.108911 0.510713
0.345933 0.079052 0.529282
0.600860 0.000000 0.500452
0.822021 0.000000 0.471653
0.981999 0.000000 0.449763
1.068653 0.000000 0.440235
1.086377 0.000000 0.437427
0.000000 0.311119 0.515463
0.000000 0.315550 0.515223
0.000000 0.319175 0.535580
0.322712 0.304100 0.582024
0.664426 0.259816 0.553224
0.838783 0.235608 0.485926
0.989468 0.178659 0.463981
1.068620 0.127032 0.453746
1.082789 0.081982 0.440852
0.000000 0.568637 0.510220
0.000000 0.568845 0.509506
0.000000 0.572528 0.512444
0.000000 0.590261 0.524075
0.597084 0.568716 0.505550
0.869093 0.513598 0.459364
0.978868 0.506279 0.460303
1.053677 0.480373 0.438967
1.070590 0.455971 0.417549
0.000000 0.779109 0.474697
0.000000 0.778007 0.471420
0.000000 0.779699 0.472823
0.000000 0.781571 0.467624
0.437554 0.787876 0.400784
0.788451 0.762173 0.366099
0.945066 0.720750 0.404613
1.023749 0.691333 0.388603
1.052208 0.663370 0.360104
0.000000 0.904251 0.411219
0.000000 0.900853 0.402567
0.000000 0.899584 0.400825
0.000000 0.896231 0.397584
0.382563 0.888168 0.387724
0.682161 0.877793 0.340148
0.879087 0.856111 0.338220
0.980941 0.822990 0.304377
1.028312 0.794776 0.267966
0.000000 0.962585 0.312474
0.000000 0.959131 0.298908
0.000000 0.957275 0.294668
0.000000 0.954347 0.289477
0.065761 0.948320 0.277307
0.575818 0.937989 0.256168
0.791391 0.925295 0.226023
0.928873 0.910243 0.187240
0.997954 0.888619 0.131179
0.000000 0.990887 0.178179
0.000000 0.989500 0.160600
0.000000 0.988808 0.156066
0.000000 0.987601 0.152082
0.000000 0.984693 0.137208
0.468639 0.979582 0.098292
0.717037 0.973109 0.000000
0.877386 0.965778 0.000000
0.971261 0.958205 0.000000
0.000000 0.000000 0.690733
0.000000 0.000000 0.687635
0.042897 0.000000 0.692976
0.250718 0.000000 0.695768
0.533447 0.000000 0.696091
0.790928 0.000000 0.687413
0.960160 0.000000 0.666804
1.058018 0.000000 0.658383
1.087816 0.000000 0.662603
0.000000 0.000000 0.703519
0.000000 0.000000 0.704505
0.078812 0.000000 0.705736
0.292626 0.000000 0.707531
0.565987 0.000000 0.707685
0.809829 0.000000 0.699581
0.974360 0.000000 0.680455
1.065000 0.000000 0.673115
1.086963 0.000000 0.674758
0.000000 0.075853 0.714448
0.000000 0.085797 0.715031
0.094792 0.090186 0.716762
0.315894 0.063073 0.719489
0.585088 0.000000 0.720331
0.824384 0.000000 0.711596
0.983488 0.000000 0.692227
1.069298 0.000000 0.684209
1.086375 0.000000 0.679095
0.000000 0.291014 0.726365
0.000000 0.293892 0.726594
0.000000 0.297327 0.729432
0.312671 0.295509 0.735498
0.605020 0.273437 0.748206
0.835188 0.243891 0.724289
0.991030 0.183030 0.705834
1.068671 0.131830 0.695211
1.082771 0.084756 0.679928
0.000000 0.552133 0.731629
0.000000 0.552230 0.731564
0.000000 0.556050 0.733808
0.202079 0.559446 0.749270
0.571201 0.542838 0.787800
0.869179 0.508106 0.762446
0.982458 0.503525 0.704852
1.053295 0.479983 0.682609
1.070667 0.454714 0.659086
0.000000 0.780314 0.722897
0.000000 0.778731 0.719232
0.000000 0.780074 0.719532
0.000000 0.779018 0.718847
0.422839 0.784510 0.722168
0.783930 0.756543 0.697388
0.968608 0.704037 0.649386
1.023089 0.689428 0.640730
1.052451 0.661149 0.612485
0.000000 0.903099 0.667256
0.000000 0.899429 0.659256
0.000000 0.898023 0.656834
0.000000 0.894541 0.653058
0.343270 0.890021 0.637793
0.631080 0.885944 0.574723
0.880886 0.857178 0.535516
0.985351 0.818532 0.553434
1.027926 0.792930 0.545410
0.000000 0.961351 0.586387
0.000000 0.957799 0.574562
0.000000 0.955959 0.570033
0.000000 0.953063 0.565007
0.060124 0.946783 0.556267
0.566827 0.937648 0.536626
0.778063 0.927773 0.484476
0.928729 0.909992 0.485849
0.997690 0.888015 0.480005
0.000000 0.990357 0.498500
0.000000 0.989035 0.489063
0.000000 0.988376 0.485700
0.000000 0.987215 0.483145
0.000000 0.984368 0.478294
0.469190 0.979349 0.469914
0.717250 0.972973 0.458468
0.877557 0.965763 0.446088
0.971373 0.958332 0.433632
0.000000 0.000000 0.860261
0.000000 0.000000 0.861850
0.029713 0.000000 0.864365
0.237512 0.000000 0.866309
0.518368 0.000000 0.866610
0.780136 0.000000 0.865482
0.961860 0.000000 0.858917
1.058673 0.000000 0.849349
1.087846 0.000000 0.850877
0.000000 0.000000 0.872967
0.000000 0.000000 0.874064
0.065022 0.000000 0.875039
0.277404 0.000000 0.876386
0.548403 0.000000 0.876833
0.798629 0.000000 0.876381
0.975793 0.000000 0.869824
1.065567 0.000000 0.861113
1.086979 0.000000 0.859381
0.000000 0.063233 0.881197
0.000000 0.071770 0.882454
0.079776 0.075054 0.884315
0.298900 0.036317 0.886580
0.567326 0.000000 0.887191
0.813594 0.000000 0.886159
0.984912 0.000000 0.879127
1.069875 0.000000 0.870079
1.086382 0.000000 0.862442
0.000000 0.275751 0.890458
0.000000 0.277823 0.891197
0.000000 0.281435 0.893073
0.297913 0.280652 0.894908
0.580736 0.265818 0.895322
0.825221 0.234526 0.894475
0.992205 0.187372 0.887586
1.068424 0.134093 0.874591
1.082793 0.081689 0.860578
0.000000 0.536273 0.893498
0.000000 0.536231 0.893793
0.000000 0.540152 0.895913
0.217050 0.542887 0.897912
0.566028 0.539427 0.900043
0.822781 0.522299 0.906561
0.977904 0.506650 0.882276
1.052622 0.478037 0.861768
1.070862 0.451724 0.840781
0.000000 0.767281 0.888027
0.000000 0.765054 0.886270
0.000000 0.766078 0.886471
0.000000 0.764795 0.885329
0.480420 0.758579 0.891106
0.762237 0.733798 0.908771
0.965871 0.695307 0.880621
1.025841 0.681259 0.829061
1.052900 0.657114 0.801183
0.000000 0.900879 0.850847
0.000000 0.896866 0.845439
0.000000 0.895288 0.843256
0.000000 0.891669 0.839639
0.370808 0.884049 0.832906
0.616392 0.880339 0.827761
0.874413 0.851144 0.800243
0.998396 0.804585 0.755285
1.028427 0.788901 0.743091
0.000000 0.959447 0.779946
0.000000 0.955816 0.770964
0.000000 0.953980 0.767070
0.000000 0.950891 0.762659
0.019617 0.944476 0.755412
0.528998 0.939383 0.735798
0.740279 0.932196 0.683076
0.929548 0.910656 0.652227
1.002679 0.884521 0.664078
0.000000 0.989542 0.704892
0.000000 0.988274 0.697562
0.000000 0.987658 0.694730
0.000000 0.986557 0.692361
0.000000 0.983793 0.688304
0.468743 0.978896 0.681738
0.704645 0.974070 0.662297
0.865914 0.968860 0.621830
0.971869 0.958935 0.631153
0.000000 0.000000 0.977015
0.000000 0.000000 0.980193
0.023087 0.000000 0.980458
0.231080 0.000000 0.981176
0.510616 0.000000 0.980784
0.769598 0.000000 0.979253
0.955371 0.000000 0.977836
1.059372 0.000000 0.974373
1.087887 0.000000 0.972355
0.000000 0.000000 0.985950
0.000000 0.000000 0.986887
0.057304 0.000000 0.987536
0.268879 0.000000 0.988208
0.538321 0.000000 0.988107
0.787429 0.000000 0.986901
0.969771 0.000000 0.985567
1.066160 0.000000 0.982252
1.087007 0.000000 0.977647
0.000000 0.056262 0.990665
0.000000 0.063449 0.992029
0.070503 0.065685 0.993065
0.289243 0.000000 0.993934
0.557363 0.000000 0.993630
0.802749 0.000000 0.992182
0.979283 0.000000 0.990628
1.070087 0.000000 0.986580
1.086401 0.000000 0.979354
0.000000 0.266859 0.994869
0.000000 0.268767 0.995847
0.000000 0.272412 0.997122
0.289311 0.271886 0.998061
0.571617 0.256906 0.997827
0.814981 0.224788 0.996525
0.986525 0.182638 0.994685
1.067780 0.133680 0.987004
1.082864 0.070929 0.976311
0.000000 0.527729 0.994197
0.000000 0.527518 0.995417
0.000000 0.531520 0.996894
0.207557 0.534501 0.997612
0.557130 0.530491 0.996622
0.804448 0.517827 0.993368
0.970258 0.499069 0.987501
1.051334 0.474351 0.976158
1.071184 0.446805 0.960986
0.000000 0.754882 0.985988
0.000000 0.751711 0.985727
0.000000 0.752193 0.985770
0.000000 0.750383 0.984612
0.488837 0.742419 0.981073
0.754388 0.726973 0.976655
0.933195 0.701002 0.974611
1.020086 0.680676 0.951292
1.053592 0.650893 0.930362
0.000000 0.889134 0.961413
0.000000 0.884527 0.958856
0.000000 0.882698 0.957506
0.000000 0.878933 0.954984
0.363298 0.870507 0.950011
0.648879 0.858294 0.951034
0.856428 0.831875 0.955179
0.996127 0.795649 0.931313
1.031621 0.778962 0.891441
0.000000 0.956524 0.914919
0.000000 0.952742 0.909605
0.000000 0.950756 0.906945
0.000000 0.947595 0.903559
0.000000 0.941395 0.897870
0.548302 0.933504 0.891030
0.729631 0.927847 0.884951
0.925448 0.905512 0.862199
1.009620 0.875972 0.833230
0.000000 0.988409 0.855252
0.000000 0.987213 0.850652
0.000000 0.986648 0.848646
0.000000 0.985615 0.846767
0.000000 0.982974 0.843604
0.467276 0.978211 0.838546
0.677369 0.975910 0.822456
0.842146 0.971557 0.787615
0.972622 0.959813 0.768347
0.000000 0.000000 1.032045
0.000000 0.000000 1.033153
0.023122 0.000000 1.033224
0.232824 0.000000 1.033216
0.511577 0.000000 1.032289
0.767793 0.000000 1.030369
0.951380 0.000000 1.028354
1.057459 0.000000 1.027139
1.087960 0.000000 1.025701
0.000000 0.000000 1.035353
0.000000 0.000000 1.035843
0.056458 0.000000 1.036028
0.268451 0.000000 1.036007
0.537471 0.000000 1.035113
0.785430 0.000000 1.033220
0.966088 0.000000 1.031162
1.064353 0.000000 1.029862
1.087067 0.000000 1.027849
0.000000 0.055627 1.036709
0.000000 0.061505 1.037203
0.067984 0.063026 1.037611
0.287810 0.000000 1.037618
0.556234 0.000000 1.036398
0.800713 0.000000 1.034252
0.975912 0.000000 1.032026
1.067595 0.000000 1.030671
1.086447 0.000000 1.028222
0.000000 0.265690 1.037044
0.000000 0.267477 1.036781
0.000000 0.271157 1.036614
0.288354 0.270718 1.036169
0.570856 0.255855 1.034779
0.813253 0.223959 1.032520
0.981629 0.178786 1.030319
1.064781 0.127048 1.029127
1.082981 0.047382 1.026008
0.000000 0.527201 1.031952
0.000000 0.526952 1.031604
0.000000 0.530867 1.031337
0.206207 0.532827 1.030744
0.553617 0.526942 1.029268
0.798188 0.512154 1.027165
0.962451 0.491067 1.025311
1.047260 0.467056 1.022655
1.071634 0.439980 1.017365
0.000000 0.748191 1.023430
0.000000 0.744058 1.023239
0.000000 0.743916 1.023079
0.000000 0.741413 1.022657
0.480083 0.732620 1.021489
0.745048 0.716905 1.018215
0.916469 0.696043 1.014011
1.014514 0.672051 1.008840
1.053548 0.642693 1.000327
0.000000 0.878408 1.010245
0.000000 0.873068 1.009692
0.000000 0.870877 1.009186
0.000000 0.866835 1.007958
0.347562 0.858174 1.005332
0.658541 0.844390 1.000610
0.848198 0.823627 0.997456
0.975777 0.796320 0.995108
1.027531 0.777897 0.977600
0.000000 0.947297 0.987468
0.000000 0.943217 0.985493
0.000000 0.941175 0.984278
0.000000 0.938091 0.982422
0.000000 0.932028 0.979092
0.555159 0.922692 0.974144
0.749141 0.912981 0.976326
0.914152 0.893068 0.977608
1.008588 0.870668 0.964220
0.000000 0.986998 0.954419
0.000000 0.985909 0.952540
0.000000 0.985383 0.951619
0.000000 0.984446 0.950480
0.000000 0.981934 0.948246
0.464821 0.977348 0.944555
0.693168 0.973169 0.941726
0.835734 0.969924 0.939079
0.970988 0.957637 0.927789
