transforms/sv2_look_1_r709_g24.cube
# sv2_look_1_r709_g24.cube
LUT_3D_SIZE 33
0.000000 0.000000 0.000000
0.000000 0.000000 0.000000
0.002457 0.000000 0.000000
0.015956 0.000000 0.000000
0.036636 0.000000 0.000000
0.057873 0.000000 0.000000
0.076608 0.000000 0.000000
0.091051 0.000000 0.000000
0.105765 0.000000 0.000000
0.130029 0.000000 0.000000
0.160126 0.000000 0.000000
0.192434 0.000000 0.000000
0.227206 0.000000 0.000000
0.267305 0.000000 0.000000
0.310691 0.000000 0.000000
0.356586 0.000000 0.000000
0.405494 0.000000 0.000000
0.455894 0.000000 0.000000
0.506882 0.000000 0.000000
0.558565 0.000000 0.000000
0.609560 0.000000 0.000000
0.660322 0.000000 0.000000
0.708073 0.000000 0.000000
0.754253 0.000000 0.000000
0.798597 0.000000 0.000000
0.838373 0.000000 0.000000
0.876170 0.000000 0.000000
0.911651 0.000000 0.000000
0.943596 0.000000 0.000000
0.972292 0.000000 0.000000
0.997988 0.000000 0.000000
1.020404 0.000000 0.000000
1.039249 0.000000 0.000000
0.000000 0.000000 0.000000
0.000000 0.000000 0.000000
0.002308 0.000000 0.000000
0.014741 0.000000 0.000000
0.034388 0.000000 0.000000
0.056833 0.000000 0.000000
0.078469 0.000000 0.000000
0.097122 0.000000 0.000000
0.113773 0.000000 0.000000
0.135985 0.000000 0.000000
0.167143 0.000000 0.000000
0.200870 0.000000 0.000000
0.237447 0.000000 0.000000
0.277741 0.000000 0.000000
0.323083 0.000000 0.000000
0.370474 0.000000 0.000000
0.419558 0.000000 0.000000
0.470989 0.000000 0.000000
0.522536 0.000000 0.000000
0.574501 0.000000 0.000000
0.625420 0.000000 0.000000
0.675412 0.000000 0.000000
0.723274 0.000000 0.000000
0.767772 0.000000 0.000000
0.810699 0.000000 0.000000
0.850340 0.000000 0.000000
0.886513 0.000000 0.000000
0.920592 0.000000 0.000000
0.952024 0.000000 0.000000
0.980413 0.000000 0.000000
1.004924 0.000000 0.000000
1.026325 0.000000 0.000000
1.044178 0.000000 0.000000
0.000000 0.001945 0.000000
0.000000 0.001654 0.000000
0.002004 0.001591 0.000000
0.014197 0.000000 0.000000
0.034930 0.000000 0.000000
0.059680 0.000000 0.000000
0.084129 0.000000 0.000000
0.105387 0.000000 0.000000
0.124049 0.000000 0.000000
0.144512 0.000000 0.000000
0.174812 0.000000 0.000000
0.209227 0.000000 0.000000
0.246888 0.000000 0.000000
0.287661 0.000000 0.000000
0.332232 0.000000 0.000000
0.380294 0.000000 0.000000
0.429487 0.000000 0.000000
0.480001 0.000000 0.000000
0.531403 0.000000 0.000000
0.582683 0.000000 0.000000
0.633598 0.000000 0.000000
0.682585 0.000000 0.000000
0.730521 0.000000 0.000000
0.775460 0.000000 0.000000
0.817400 0.000000 0.000000
0.857394 0.000000 0.000000
0.894328 0.000000 0.000000
0.927564 0.000000 0.000000
0.958461 0.000000 0.000000
0.986333 0.000000 0.000000
1.010760 0.000000 0.000000
1.031574 0.000000 0.000000
1.048655 0.000000 0.000000
0.000000 0.011185 0.000000
0.000000 0.011132 0.000000
0.000000 0.011588 0.000000
0.013070 0.011095 0.000000
0.034442 0.003627 0.000000
0.060000 0.000000 0.000000
0.086662 0.000000 0.000000
0.110944 0.000000 0.000000
0.132395 0.000000 0.000000
0.154073 0.000000 0.000000
0.183246 0.000000 0.000000
0.217537 0.000000 0.000000
0.256376 0.000000 0.000000
0.298679 0.000000 0.000000
0.343623 0.000000 0.000000
0.391774 0.000000 0.000000
0.441651 0.000000 0.000000
0.492155 0.000000 0.000000
0.543732 0.000000 0.000000
0.594873 0.000000 0.000000
0.645817 0.000000 0.000000
0.694599 0.000000 0.000000
0.741461 0.000000 0.000000
0.786891 0.000000 0.000000
0.827977 0.000000 0.000000
0.866758 0.000000 0.000000
0.903220 0.000000 0.000000
0.936936 0.000000 0.000000
0.966826 0.000000 0.000000
0.993594 0.000000 0.000000
1.017149 0.000000 0.000000
1.036991 0.000000 0.000000
1.053435 0.000000 0.000000
0.000000 0.029084 0.000000
0.000000 0.029568 0.000000
0.000000 0.030313 0.000000
0.000000 0.030298 0.000000
0.031981 0.029427 0.000000
0.059386 0.024109 0.000000
0.088069 0.012578 0.000000
0.115337 0.000000 0.000000
0.139404 0.000000 0.000000
0.163109 0.000000 0.000000
0.192070 0.000000 0.000000
0.227351 0.000000 0.000000
0.266172 0.000000 0.000000
0.309941 0.000000 0.000000
0.356027 0.000000 0.000000
0.403945 0.000000 0.000000
0.454295 0.000000 0.000000
0.505120 0.000000 0.000000
0.556561 0.000000 0.000000
0.607515 0.000000 0.000000
0.657677 0.000000 0.000000
0.706822 0.000000 0.000000
0.752659 0.000000 0.000000
0.796840 0.000000 0.000000
0.838733 0.000000 0.000000
0.876275 0.000000 0.000000
0.911650 0.000000 0.000000
0.944532 0.000000 0.000000
0.974519 0.000000 0.000000
1.000779 0.000000 0.000000
1.023473 0.000000 0.000000
1.042050 0.000000 0.000000
1.057204 0.000000 0.000000
0.000000 0.050843 0.000000
0.000000 0.052293 0.000000
0.000000 0.053668 0.000000
0.000000 0.054009 0.000000
0.016369 0.053902 0.000000
0.055996 0.052691 0.000000
0.087429 0.047396 0.000000
0.117504 0.040850 0.000000
0.144900 0.033025 0.000000
0.170675 0.021233 0.000000
0.200483 0.000000 0.000000
0.237062 0.000000 0.000000
0.276703 0.000000 0.000000
0.320643 0.000000 0.000000
0.367815 0.000000 0.000000
0.416433 0.000000 0.000000
0.466618 0.000000 0.000000
0.517824 0.000000 0.000000
0.569117 0.000000 0.000000
0.620210 0.000000 0.000000
0.669795 0.000000 0.000000
0.718570 0.000000 0.000000
0.764340 0.000000 0.000000
0.807405 0.000000 0.000000
0.848517 0.000000 0.000000
0.886448 0.000000 0.000000
0.920768 0.000000 0.000000
0.952685 0.000000 0.000000
0.981543 0.000000 0.000000
1.006929 0.000000 0.000000
1.028645 0.000000 0.000000
1.046542 0.000000 0.000000
1.061000 0.000000 0.000000
0.000000 0.074904 0.000000
0.000000 0.077954 0.000000
0.000000 0.080247 0.000000
0.000000 0.081514 0.000000
0.000000 0.082055 0.000000
0.043657 0.081884 0.000000
0.084128 0.080705 0.000000
0.117431 0.075862 0.000000
0.148099 0.070973 0.000000
0.176729 0.066081 0.000000
0.207954 0.059161 0.000000
0.245982 0.045637 0.000000
0.287250 0.000000 0.000000
0.331312 0.000000 0.000000
0.379452 0.000000 0.000000
0.428862 0.000000 0.000000
0.479138 0.000000 0.000000
0.530677 0.000000 0.000000
0.581960 0.000000 0.000000
0.633338 0.000000 0.000000
0.682428 0.000000 0.000000
0.730185 0.000000 0.000000
0.776511 0.000000 0.000000
0.818381 0.000000 0.000000
0.858248 0.000000 0.000000
0.895793 0.000000 0.000000
0.930123 0.000000 0.000000
0.961025 0.000000 0.000000
0.988793 0.000000 0.000000
1.013258 0.000000 0.000000
1.034001 0.000000 0.000000
1.051187 0.000000 0.000000
1.064454 0.000000 0.000000
0.000000 0.100876 0.000000
0.000000 0.104660 0.000000
0.000000 0.108061 0.000000
0.000000 0.110544 0.000000
0.000000 0.112110 0.000000
0.000000 0.112826 0.000000
0.074419 0.112807 0.000000
0.115350 0.111993 0.000000
0.149271 0.107845 0.000000
0.181182 0.103583 0.000000
0.214518 0.098909 0.000000
0.254134 0.091653 0.000000
0.297185 0.080886 0.000000
0.342713 0.063955 0.000000
0.390845 0.021826 0.000000
0.441082 0.000000 0.000000
0.491871 0.000000 0.000000
0.543473 0.000000 0.000000
0.594774 0.000000 0.000000
0.645591 0.000000 0.000000
0.695031 0.000000 0.000000
0.741864 0.000000 0.000000
0.787208 0.000000 0.000000
0.829459 0.000000 0.000000
0.868126 0.000000 0.000000
0.904572 0.000000 0.000000
0.938392 0.000000 0.000000
0.969312 0.000000 0.000000
0.996165 0.000000 0.000000
1.019723 0.000000 0.000000
1.039231 0.000000 0.000000
1.054990 0.000000 0.000000
1.067445 0.000000 0.000000
0.000000 0.128999 0.000000
0.000000 0.131904 0.000000
0.000000 0.136509 0.000000
0.000000 0.140130 0.000000
0.000000 0.142859 0.000000
0.000000 0.144679 0.000000
0.059605 0.145700 0.000000
0.108246 0.145898 0.000000
0.148717 0.145498 0.000000
0.184247 0.141932 0.000000
0.221308 0.138037 0.000000
0.261283 0.132876 0.000000
0.306329 0.125365 0.000000
0.353455 0.115359 0.000000
0.402134 0.101763 0.000000
0.452861 0.081419 0.000000
0.504209 0.042064 0.000000
0.555958 0.000000 0.000000
0.607395 0.000000 0.000000
0.657738 0.000000 0.000000
0.707513 0.000000 0.000000
0.753535 0.000000 0.000000
0.797689 0.000000 0.000000
0.839909 0.000000 0.000000
0.878039 0.000000 0.000000
0.913336 0.000000 0.000000
0.946174 0.000000 0.000000
0.976002 0.000000 0.000000
1.002224 0.000000 0.000000
1.024788 0.000000 0.000000
1.043367 0.000000 0.000000
1.058436 0.000000 0.000000
1.070287 0.000000 0.000000
0.000000 0.160825 0.000000
0.000000 0.162890 0.000000
0.000000 0.167146 0.000000
0.000000 0.171101 0.000000
0.000000 0.174587 0.000000
0.000000 0.177393 0.000000
0.023839 0.179442 0.000000
0.098091 0.180893 0.000000
0.143543 0.181982 0.000000
0.186007 0.182680 0.000000
0.226355 0.179495 0.000000
0.268738 0.175239 0.000000
0.314359 0.169529 0.000000
0.363283 0.161973 0.000000
0.413120 0.152619 0.000000
0.464047 0.140772 0.000000
0.516097 0.125367 0.000000
0.567944 0.105233 0.000000
0.619657 0.074075 0.000000
0.669575 0.000000 0.000000
0.718438 0.000000 0.000000
0.764969 0.000000 0.000000
0.807989 0.000000 0.000000
0.849037 0.000000 0.000000
0.887651 0.000000 0.000000
0.922033 0.000000 0.000000
0.953888 0.000000 0.000000
0.982628 0.000000 0.000000
1.007944 0.000000 0.000000
1.029530 0.000000 0.000000
1.047370 0.000000 0.000000
1.061667 0.000000 0.000000
1.072231 0.000000 0.000000
0.000000 0.197473 0.000000
0.000000 0.200011 0.000000
0.000000 0.203929 0.000000
0.000000 0.207721 0.000000
0.000000 0.211155 0.000000
0.000000 0.214316 0.000000
0.000000 0.217224 0.000000
0.079978 0.219833 0.000000
0.134016 0.222159 0.000000
0.181238 0.224101 0.000000
0.228898 0.225213 0.000000
0.274360 0.221692 0.000000
0.321490 0.217157 0.000000
0.371756 0.211235 0.000000
0.422967 0.204069 0.000000
0.474575 0.195533 0.000000
0.527127 0.185197 0.000000
0.579225 0.173032 0.000000
0.631111 0.158382 0.000000
0.680939 0.141613 0.000000
0.728972 0.120725 0.000000
0.775619 0.091542 0.000000
0.817984 0.035887 0.000000
0.857880 0.000000 0.000000
0.895418 0.000000 0.000000
0.930223 0.000000 0.000000
0.961366 0.000000 0.000000
0.989002 0.000000 0.000000
1.013423 0.000000 0.000000
1.034017 0.000000 0.000000
1.050826 0.000000 0.000000
1.063727 0.000000 0.000000
1.073873 0.000000 0.000000
0.000000 0.238689 0.000000
0.000000 0.241782 0.000000
0.000000 0.246401 0.000000
0.000000 0.250057 0.000000
0.000000 0.253831 0.000000
0.000000 0.257536 0.000000
0.000000 0.260998 0.000000
0.000000 0.264198 0.000000
0.115926 0.267103 0.000000
0.171062 0.269706 0.000000
0.223744 0.271878 0.000000
0.277279 0.273159 0.000000
0.327257 0.269471 0.000000
0.378459 0.264833 0.000000
0.431279 0.259139 0.000000
0.483970 0.252570 0.000000
0.537046 0.244932 0.000000
0.589518 0.236301 0.000000
0.641176 0.226573 0.000000
0.691573 0.215703 0.000000
0.738869 0.204207 0.000000
0.784449 0.191715 0.000000
0.827472 0.178440 0.000000
0.866231 0.164992 0.000000
0.902719 0.150273 0.000000
0.936601 0.134276 0.000000
0.967483 0.116890 0.000000
0.994585 0.098671 0.000000
1.018030 0.079431 0.000000
1.037290 0.060942 0.000000
1.052962 0.044691 0.000000
1.065348 0.036989 0.000000
1.074456 0.046789 0.000000
0.000000 0.284663 0.000000
0.000000 0.288388 0.000000
0.000000 0.293741 0.000000
0.000000 0.298014 0.000000
0.000000 0.301901 0.000000
0.000000 0.305554 0.000000
0.000000 0.309288 0.000000
0.000000 0.312931 0.000000
0.073818 0.316362 0.000000
0.153740 0.319460 0.000000
0.213030 0.322251 0.000000
0.272218 0.324559 0.000000
0.330371 0.325972 0.000000
0.383683 0.322187 0.000000
0.437780 0.317586 0.000000
0.491781 0.312307 0.000000
0.545548 0.306315 0.000000
0.598633 0.299652 0.000000
0.650186 0.292481 0.000000
0.700804 0.284637 0.000000
0.747862 0.276786 0.000000
0.792488 0.268739 0.000000
0.835026 0.260380 0.000000
0.873975 0.252314 0.000000
0.909467 0.244658 0.000000
0.942422 0.237502 0.000000
0.972275 0.231002 0.000000
0.998520 0.225551 0.000000
1.021014 0.221494 0.000000
1.039559 0.219102 0.000000
1.054560 0.218475 0.000000
1.065955 0.219765 0.000000
1.074367 0.222841 0.000000
0.000000 0.334523 0.000000
0.000000 0.338818 0.000000
0.000000 0.344804 0.000000
0.000000 0.349604 0.000000
0.000000 0.353978 0.000000
0.000000 0.358081 0.000000
0.000000 0.361971 0.000000
0.000000 0.365666 0.000000
0.000000 0.369124 0.000000
0.120909 0.372496 0.000000
0.197391 0.375638 0.000000
0.262146 0.378441 0.000000
0.325651 0.380749 0.000000
0.386679 0.382216 0.000000
0.442238 0.378360 0.000000
0.497953 0.373869 0.000000
0.552525 0.368905 0.000000
0.606500 0.363429 0.000000
0.658059 0.357746 0.000000
0.708158 0.351767 0.000000
0.756010 0.345665 0.000000
0.799699 0.339895 0.000000
0.841256 0.334163 0.000000
0.880283 0.328598 0.000000
0.915494 0.323577 0.000000
0.947569 0.319073 0.000000
0.976407 0.315293 0.000000
1.001811 0.312376 0.000000
1.023390 0.310515 0.000000
1.041228 0.309891 0.000000
1.055080 0.310811 0.000000
1.065568 0.312970 0.000000
1.073230 0.316314 0.000000
0.000000 0.387217 0.000000
0.000000 0.391883 0.000000
0.000000 0.398252 0.000000
0.000000 0.403399 0.000000
0.000000 0.408092 0.000000
0.000000 0.412503 0.000000
0.000000 0.416729 0.000000
0.000000 0.420732 0.000000
0.000000 0.424518 0.000000
0.000000 0.428067 0.000000
0.171246 0.431306 0.000000
0.247799 0.434223 0.000000
0.316781 0.436777 0.000000
0.382154 0.439056 0.000000
0.445007 0.440554 0.000000
0.502303 0.436620 0.000000
0.558001 0.432349 0.000000
0.612588 0.427674 0.000000
0.664791 0.422908 0.000000
0.714420 0.418141 0.000000
0.762295 0.413223 0.000000
0.806034 0.408693 0.000000
0.846644 0.404454 0.000000
0.884762 0.400452 0.000000
0.920046 0.396801 0.000000
0.952021 0.393716 0.000000
0.979881 0.391471 0.000000
1.004444 0.389931 0.000000
1.025081 0.389380 0.000000
1.041473 0.389948 0.000000
1.054365 0.391512 0.000000
1.064284 0.394035 0.000000
1.071202 0.397578 0.000000
0.000000 0.441991 0.000000
0.000000 0.446710 0.000000
0.000000 0.453322 0.000000
0.000000 0.458664 0.000000
0.000000 0.463538 0.000000
0.000000 0.468172 0.000000
0.000000 0.472584 0.000000
0.000000 0.476788 0.000000
0.000000 0.480800 0.000000
0.000000 0.484583 0.000000
0.124855 0.488084 0.000000
0.226946 0.491308 0.000000
0.303451 0.494199 0.000000
0.374075 0.496741 0.000000
0.440446 0.498946 0.000000
0.504683 0.500382 0.000000
0.561789 0.496523 0.000000
0.616911 0.492421 0.000000
0.670262 0.488116 0.000000
0.719603 0.484055 0.000000
0.766784 0.480010 0.000000
0.811488 0.476020 0.000000
0.851221 0.472722 0.000000
0.888473 0.469671 0.000000
0.922970 0.466972 0.000000
0.954307 0.464782 0.000000
0.981779 0.463271 0.000000
1.005419 0.462573 0.000000
1.024834 0.462783 0.000000
1.040566 0.463866 0.000000
1.052952 0.465804 0.000000
1.061753 0.468709 0.000000
1.068056 0.472394 0.000000
0.000000 0.497977 0.000000
0.000000 0.502968 0.000000
0.000000 0.509649 0.000000
0.000000 0.515050 0.000000
0.000000 0.519998 0.000000
0.000000 0.524622 0.000000
0.000000 0.529067 0.000000
0.000000 0.533310 0.000000
0.000000 0.537367 0.000000
0.000000 0.541216 0.000000
0.000000 0.544826 0.000000
0.196647 0.548167 0.000000
0.286860 0.551208 0.000000
0.363130 0.553955 0.000000
0.433452 0.556387 0.000000
0.500219 0.558516 0.000000
0.564139 0.560012 0.000000
0.619946 0.556352 0.000000
0.673837 0.552565 0.000000
0.723745 0.548983 0.000000
0.770294 0.545652 0.000000
0.814348 0.542469 0.000000
0.854950 0.539408 0.000000
0.891395 0.536859 0.000000
0.925159 0.534679 0.000000
0.955608 0.533004 0.000000
0.982338 0.531943 0.000000
1.005133 0.531638 0.000000
1.023901 0.532130 0.000000
1.039010 0.533454 0.000000
1.050173 0.535615 0.000000
1.058526 0.538559 0.000000
1.064130 0.542221 0.000000
0.000000 0.553789 0.000000
0.000000 0.558894 0.000000
0.000000 0.565631 0.000000
0.000000 0.571115 0.000000
0.000000 0.576134 0.000000
0.000000 0.580881 0.000000
0.000000 0.585470 0.000000
0.000000 0.589842 0.000000
0.000000 0.593771 0.000000
0.000000 0.597521 0.000000
0.000000 0.601039 0.000000
0.149099 0.604306 0.000000
0.265127 0.607330 0.000000
0.349295 0.610098 0.000000
0.424629 0.612569 0.000000
0.494088 0.614776 0.000000
0.560466 0.616719 0.000000
0.621964 0.618148 0.000000
0.675938 0.614656 0.000000
0.727148 0.611183 0.000000
0.773126 0.608198 0.000000
0.816490 0.605414 0.000000
0.856984 0.602877 0.000000
0.893776 0.600796 0.000000
0.926792 0.599195 0.000000
0.956323 0.598128 0.000000
0.982305 0.597499 0.000000
1.004281 0.597336 0.000000
1.022407 0.597877 0.000000
1.036135 0.599331 0.000000
1.046730 0.601445 0.000000
1.054234 0.604284 0.000000
1.058193 0.607693 0.000000
0.000000 0.609028 0.000000
0.000000 0.613985 0.000000
0.000000 0.620473 0.000000
0.000000 0.625821 0.000000
0.000000 0.630720 0.000000
0.000000 0.635361 0.000000
0.000000 0.639802 0.000000
0.000000 0.644085 0.000000
0.000000 0.648187 0.000000
0.000000 0.652116 0.000000
0.000000 0.655847 0.000000
0.000000 0.659184 0.000000
0.236903 0.662023 0.000000
0.333353 0.664625 0.000000
0.414187 0.666979 0.000000
0.486910 0.669094 0.000000
0.555025 0.670969 0.000000
0.618591 0.672669 0.000000
0.677364 0.673962 0.000000
0.728728 0.670572 0.000000
0.775504 0.667563 0.000000
0.818210 0.664923 0.000000
0.858040 0.662546 0.000000
0.894705 0.660544 0.000000
0.928063 0.658930 0.000000
0.956869 0.657976 0.000000
0.982080 0.657601 0.000000
1.002859 0.657984 0.000000
1.019527 0.659077 0.000000
1.032623 0.660845 0.000000
1.042485 0.663064 0.000000
1.049472 0.665657 0.000000
1.051653 0.668758 0.000000
0.000000 0.662800 0.000000
0.000000 0.667722 0.000000
0.000000 0.673783 0.000000
0.000000 0.678777 0.000000
0.000000 0.683356 0.000000
0.000000 0.687703 0.000000
0.000000 0.691884 0.000000
0.000000 0.695906 0.000000
0.000000 0.699773 0.000000
0.000000 0.703459 0.000000
0.000000 0.706948 0.000000
0.000000 0.710235 0.000000
0.201831 0.713308 0.000000
0.315553 0.716163 0.000000
0.402703 0.718792 0.000000
0.479207 0.720750 0.000000
0.549094 0.722475 0.000000
0.614836 0.724025 0.000000
0.674024 0.725480 0.000000
0.729544 0.726586 0.000000
0.777449 0.723350 0.000000
0.819760 0.720714 0.000000
0.858885 0.718369 0.000000
0.894946 0.716345 0.000000
0.927518 0.714745 0.000000
0.955971 0.713732 0.000000
0.980340 0.713334 0.000000
1.000323 0.713647 0.000000
1.016438 0.714608 0.000000
1.028969 0.716215 0.000000
1.037846 0.718512 0.000000
1.044097 0.721370 0.000000
1.044829 0.724639 0.000000
0.000000 0.712845 0.000000
0.000000 0.717901 0.000000
0.000000 0.724311 0.000000
0.000000 0.729278 0.000000
0.000000 0.733453 0.000000
0.000000 0.737423 0.000000
0.000000 0.741247 0.000000
0.000000 0.744928 0.000000
0.000000 0.748448 0.000000
0.000000 0.751802 0.000000
0.000000 0.754973 0.000000
0.000000 0.757973 0.000000
0.156352 0.760760 0.000000
0.297525 0.763357 0.000000
0.392046 0.765749 0.000000
0.472387 0.767966 0.000000
0.543853 0.770002 0.000000
0.610285 0.771843 0.000000
0.670936 0.773102 0.000000
0.726245 0.774325 0.000000
0.777782 0.775264 0.000000
0.821387 0.772316 0.000000
0.859820 0.769933 0.000000
0.895248 0.767845 0.000000
0.927009 0.766230 0.000000
0.954815 0.765127 0.000000
0.978407 0.764647 0.000000
0.997791 0.764832 0.000000
1.013323 0.765642 0.000000
1.024580 0.767172 0.000000
1.033006 0.769213 0.000000
1.038409 0.771816 0.000000
1.037977 0.774827 0.000000
0.000000 0.759942 0.000000
0.000000 0.764605 0.000000
0.000000 0.770473 0.000000
0.000000 0.775353 0.000000
0.000000 0.779874 0.000000
0.000000 0.783866 0.000000
0.000000 0.787290 0.000000
0.000000 0.790601 0.000000
0.000000 0.793775 0.000000
0.000000 0.796775 0.000000
0.000000 0.799624 0.000000
0.000000 0.802328 0.000000
0.078992 0.804837 0.000000
0.279003 0.807144 0.000000
0.381901 0.809284 0.000000
0.466617 0.811224 0.000000
0.539806 0.813049 0.000000
0.606683 0.814733 0.000000
0.668947 0.816296 0.000000
0.723573 0.817768 0.000000
0.774650 0.818791 0.000000
0.821759 0.819622 0.000000
0.861096 0.816961 0.000000
0.895866 0.814803 0.000000
0.926802 0.813133 0.000000
0.953881 0.811967 0.000000
0.976683 0.811405 0.000000
0.995313 0.811464 0.000000
1.009357 0.812236 0.000000
1.020309 0.813526 0.000000
1.027903 0.815371 0.000000
1.031533 0.817824 0.000000
1.031106 0.820548 0.000000
0.000000 0.803717 0.000000
0.000000 0.807969 0.000000
0.000000 0.813337 0.000000
0.000000 0.817804 0.000000
0.000000 0.821910 0.000000
0.000000 0.825823 0.000000
0.000000 0.829567 0.000000
0.000000 0.832586 0.000000
0.000000 0.835422 0.000000
0.000000 0.838126 0.000000
0.000000 0.840648 0.000000
0.000000 0.843039 0.000000
0.000000 0.845251 0.000000
0.261241 0.847294 0.000000
0.373100 0.849164 0.000000
0.461058 0.850879 0.000000
0.537081 0.852456 0.000000
0.604242 0.853968 0.000000
0.666343 0.855361 0.000000
0.722325 0.856703 0.000000
0.772476 0.857889 0.000000
0.818961 0.858776 0.000000
0.861332 0.859514 0.000000
0.896470 0.857170 0.000000
0.927016 0.855397 0.000000
0.953267 0.854171 0.000000
0.974713 0.853615 0.000000
0.992056 0.853646 0.000000
1.005680 0.854259 0.000000
1.015741 0.855425 0.000000
1.022868 0.857088 0.000000
1.024775 0.859403 0.000000
1.024350 0.861911 0.000000
0.000000 0.844016 0.000000
0.000000 0.847898 0.000000
0.000000 0.852728 0.000000
0.000000 0.856767 0.000000
0.000000 0.860511 0.000000
0.000000 0.864041 0.000000
0.000000 0.867446 0.000000
0.000000 0.870623 0.000000
0.000000 0.873167 0.000000
0.000000 0.875569 0.000000
0.000000 0.877839 0.000000
0.000000 0.879956 0.000000
0.000000 0.881917 0.000000
0.245472 0.883714 0.000000
0.366492 0.885361 0.000000
0.457272 0.886882 0.000000
0.535975 0.888245 0.000000
0.603276 0.889559 0.000000
0.664848 0.890794 0.000000
0.721557 0.891974 0.000000
0.771690 0.892832 0.000000
0.817298 0.893540 0.000000
0.859055 0.894263 0.000000
0.896414 0.894909 0.000000
0.926262 0.893019 0.000000
0.951717 0.891687 0.000000
0.972569 0.890978 0.000000
0.989345 0.890854 0.000000
1.002205 0.891292 0.000000
1.011491 0.892269 0.000000
1.017941 0.893713 0.000000
1.018401 0.895868 0.000000
1.017998 0.898089 0.000000
0.000000 0.880581 0.000000
0.000000 0.884137 0.000000
0.000000 0.888508 0.000000
0.000000 0.892168 0.000000
0.000000 0.895593 0.000000
0.000000 0.898823 0.000000
0.000000 0.901935 0.000000
0.000000 0.904735 0.000000
0.000000 0.906946 0.000000
0.000000 0.909029 0.000000
0.000000 0.910977 0.000000
0.000000 0.912777 0.000000
0.000000 0.914439 0.000000
0.234012 0.915951 0.000000
0.363332 0.917332 0.000000
0.456220 0.918584 0.000000
0.535321 0.919714 0.000000
0.604450 0.920780 0.000000
0.665292 0.921803 0.000000
0.721355 0.922309 0.000000
0.772722 0.922806 0.000000
0.817464 0.923364 0.000000
0.858344 0.923946 0.000000
0.894769 0.924601 0.000000
0.926468 0.925227 0.000000
0.951061 0.923827 0.000000
0.971245 0.923005 0.000000
0.987170 0.922781 0.000000
0.998927 0.923143 0.000000
1.007613 0.923969 0.000000
1.012942 0.925294 0.000000
1.012619 0.926980 0.000000
1.012324 0.928520 0.000000
0.000000 0.913165 0.000000
0.000000 0.916320 0.000000
0.000000 0.920208 0.000000
0.000000 0.923462 0.000000
0.000000 0.926489 0.000000
0.000000 0.929365 0.000000
0.000000 0.932003 0.000000
0.000000 0.934041 0.000000
0.000000 0.935975 0.000000
0.000000 0.937791 0.000000
0.000000 0.939490 0.000000
0.000000 0.941045 0.000000
0.000000 0.942458 0.000000
0.229747 0.943731 0.000000
0.364257 0.944871 0.000000
0.458475 0.945908 0.000000
0.537417 0.946728 0.000000
0.608000 0.947088 0.000000
0.668394 0.947447 0.000000
0.723374 0.947773 0.000000
0.773699 0.948088 0.000000
0.819381 0.948417 0.000000
0.859504 0.948817 0.000000
0.894816 0.949293 0.000000
0.925683 0.949868 0.000000
0.951465 0.950471 0.000000
0.970533 0.949574 0.000000
0.985182 0.949115 0.000000
0.996686 0.948866 0.000000
1.004581 0.949133 0.000000
1.008130 0.950014 0.000000
1.007859 0.951371 0.000000
1.007589 0.952723 0.000000
0.000000 0.941228 0.000000
0.000000 0.944060 0.000000
0.000000 0.947531 0.000000
0.000000 0.950470 0.000000
0.000000 0.953171 0.000000
0.000000 0.955251 0.000000
0.000000 0.957072 0.000000
0.000000 0.958811 0.000000
0.000000 0.960448 0.000000
0.000000 0.961957 0.000000
0.000000 0.963361 0.000000
0.000000 0.964624 0.000000
0.000000 0.965758 0.000000
0.235110 0.966666 0.000000
0.369603 0.967130 0.000000
0.465446 0.967481 0.000000
0.543528 0.967771 0.000000
0.612731 0.967986 0.000000
0.674220 0.968157 0.000000
0.727841 0.968358 0.000000
0.776928 0.968543 0.000000
0.821543 0.968735 0.000000
0.861573 0.968979 0.000000
0.896403 0.969015 0.000000
0.926257 0.969120 0.000000
0.950640 0.969365 0.000000
0.970297 0.969694 0.000000
0.984497 0.968900 0.000000
0.994858 0.968633 0.000000
