transforms/sv2_look_2_r709_g24.cube
# sv2_look_2_r709_g24.cube
LUT_3D_SIZE 33
0.000000 0.000000 0.000000
0.000000 0.000000 0.000000
0.000000 0.000000 0.000000
0.000000 0.000000 0.000000
0.005819 0.000000 0.000000
0.026240 0.000000 0.000000
0.047965 0.000000 0.000000
0.066793 0.000000 0.000000
0.088801 0.000000 0.000000
0.124427 0.000000 0.000000
0.166213 0.000000 0.000000
0.211685 0.000000 0.000000
0.264436 0.000000 0.000000
0.326238 0.000000 0.000000
0.390670 0.000000 0.000000
0.454999 0.000000 0.000000
0.520936 0.000000 0.000000
0.586833 0.000000 0.000000
0.651062 0.000000 0.000000
0.711560 0.000000 0.000000
0.768045 0.000000 0.000000
0.820230 0.000000 0.000000
0.867844 0.000000 0.000000
0.910717 0.000000 0.000000
0.949098 0.000000 0.000000
0.982556 0.000000 0.000000
1.010896 0.000000 0.000000
1.034229 0.000000 0.000000
1.052852 0.000000 0.000000
1.067316 0.000000 0.000000
1.077568 0.000000 0.000000
1.084755 0.000000 0.000000
1.087858 0.000000 0.000000
0.000000 0.000000 0.000000
0.000000 0.000000 0.000000
0.000000 0.000000 0.000000
0.000000 0.000000 0.000000
0.003892 0.000000 0.000000
0.026051 0.000000 0.000000
0.052185 0.000000 0.000000
0.076024 0.000000 0.000000
0.100097 0.000000 0.000000
0.132068 0.000000 0.000000
0.177831 0.000000 0.000000
0.226644 0.000000 0.000000
0.280027 0.000000 0.000000
0.340340 0.000000 0.000000
0.404505 0.000000 0.000000
0.470451 0.000000 0.000000
0.536754 0.000000 0.000000
0.602284 0.000000 0.000000
0.666136 0.000000 0.000000
0.726233 0.000000 0.000000
0.781372 0.000000 0.000000
0.832114 0.000000 0.000000
0.878361 0.000000 0.000000
0.920081 0.000000 0.000000
0.957351 0.000000 0.000000
0.989777 0.000000 0.000000
1.017271 0.000000 0.000000
1.039725 0.000000 0.000000
1.057650 0.000000 0.000000
1.070461 0.000000 0.000000
1.079941 0.000000 0.000000
1.086373 0.000000 0.000000
1.087858 0.000000 0.000000
0.000000 0.000000 0.000000
0.000000 0.000000 0.000000
0.000000 0.000000 0.000000
0.000000 0.000000 0.000000
0.004554 0.000000 0.000000
0.030676 0.000000 0.000000
0.062576 0.000000 0.000000
0.093867 0.000000 0.000000
0.121497 0.000000 0.000000
0.150975 0.000000 0.000000
0.194238 0.000000 0.000000
0.244492 0.000000 0.000000
0.300842 0.000000 0.000000
0.362464 0.000000 0.000000
0.427267 0.000000 0.000000
0.493848 0.000000 0.000000
0.560828 0.000000 0.000000
0.626232 0.000000 0.000000
0.688489 0.000000 0.000000
0.747192 0.000000 0.000000
0.801663 0.000000 0.000000
0.849996 0.000000 0.000000
0.893831 0.000000 0.000000
0.933511 0.000000 0.000000
0.968783 0.000000 0.000000
0.999373 0.000000 0.000000
1.025203 0.000000 0.000000
1.046109 0.000000 0.000000
1.061811 0.000000 0.000000
1.073991 0.000000 0.000000
1.082295 0.000000 0.000000
1.087858 0.000000 0.000000
1.087858 0.000000 0.000000
0.000000 0.000000 0.000000
0.000000 0.000000 0.000000
0.000000 0.000000 0.000000
0.000000 0.000000 0.000000
0.005121 0.000000 0.000000
0.032704 0.000000 0.000000
0.067807 0.000000 0.000000
0.102117 0.000000 0.000000
0.133326 0.000000 0.000000
0.164204 0.000000 0.000000
0.204592 0.000000 0.000000
0.255908 0.000000 0.000000
0.312317 0.000000 0.000000
0.372838 0.000000 0.000000
0.435855 0.000000 0.000000
0.499989 0.000000 0.000000
0.564228 0.000000 0.000000
0.626866 0.000000 0.000000
0.686848 0.000000 0.000000
0.743740 0.000000 0.000000
0.797261 0.000000 0.000000
0.845972 0.000000 0.000000
0.889798 0.000000 0.000000
0.929687 0.000000 0.000000
0.965489 0.000000 0.000000
0.996692 0.000000 0.000000
1.023329 0.000000 0.000000
1.044677 0.000000 0.000000
1.061090 0.000000 0.000000
1.073592 0.000000 0.000000
1.082273 0.000000 0.000000
1.087434 0.000000 0.000000
1.087440 0.000000 0.000000
0.000000 0.002902 0.000000
0.000000 0.004190 0.000000
0.000000 0.005193 0.000000
0.000000 0.004899 0.000000
0.002982 0.004747 0.000000
0.029427 0.000000 0.000000
0.065164 0.000000 0.000000
0.102370 0.000000 0.000000
0.136434 0.000000 0.000000
0.168507 0.000000 0.000000
0.206061 0.000000 0.000000
0.255775 0.000000 0.000000
0.311546 0.000000 0.000000
0.371762 0.000000 0.000000
0.434443 0.000000 0.000000
0.498324 0.000000 0.000000
0.562533 0.000000 0.000000
0.625413 0.000000 0.000000
0.685606 0.000000 0.000000
0.742679 0.000000 0.000000
0.796155 0.000000 0.000000
0.845538 0.000000 0.000000
0.889401 0.000000 0.000000
0.929304 0.000000 0.000000
0.965260 0.000000 0.000000
0.996629 0.000000 0.000000
1.023504 0.000000 0.000000
1.044538 0.000000 0.000000
1.061118 0.000000 0.000000
1.073547 0.000000 0.000000
1.082252 0.000000 0.000000
1.087110 0.000000 0.000000
1.087112 0.000000 0.000000
0.000000 0.023158 0.000000
0.000000 0.025362 0.000000
0.000000 0.027585 0.000000
0.000000 0.027672 0.000000
0.000000 0.027525 0.000000
0.025758 0.027062 0.000000
0.063250 0.019814 0.000000
0.102064 0.000000 0.000000
0.139059 0.000000 0.000000
0.174155 0.000000 0.000000
0.212949 0.000000 0.000000
0.262686 0.000000 0.000000
0.318790 0.000000 0.000000
0.379068 0.000000 0.000000
0.441483 0.000000 0.000000
0.504844 0.000000 0.000000
0.568330 0.000000 0.000000
0.630833 0.000000 0.000000
0.690359 0.000000 0.000000
0.746670 0.000000 0.000000
0.799392 0.000000 0.000000
0.848128 0.000000 0.000000
0.892412 0.000000 0.000000
0.931880 0.000000 0.000000
0.967530 0.000000 0.000000
0.998624 0.000000 0.000000
1.024866 0.000000 0.000000
1.045641 0.000000 0.000000
1.062161 0.000000 0.000000
1.074213 0.000000 0.000000
1.082714 0.000000 0.000000
1.086940 0.000000 0.000000
1.086941 0.000000 0.000000
0.000000 0.049793 0.000000
0.000000 0.053601 0.000000
0.000000 0.057743 0.000000
0.000000 0.059086 0.000000
0.000000 0.059227 0.000000
0.000000 0.058961 0.000000
0.058276 0.058163 0.000000
0.100288 0.051732 0.000000
0.140302 0.043307 0.000000
0.178764 0.030140 0.000000
0.219985 0.000000 0.000000
0.270355 0.000000 0.000000
0.326802 0.000000 0.000000
0.387332 0.000000 0.000000
0.449625 0.000000 0.000000
0.512591 0.000000 0.000000
0.575381 0.000000 0.000000
0.637380 0.000000 0.000000
0.696284 0.000000 0.000000
0.751702 0.000000 0.000000
0.803604 0.000000 0.000000
0.851596 0.000000 0.000000
0.895463 0.000000 0.000000
0.935135 0.000000 0.000000
0.970483 0.000000 0.000000
1.000906 0.000000 0.000000
1.026510 0.000000 0.000000
1.047137 0.000000 0.000000
1.063496 0.000000 0.000000
1.075090 0.000000 0.000000
1.083310 0.000000 0.000000
1.086826 0.000000 0.000000
1.086827 0.000000 0.000000
0.000000 0.080119 0.000000
0.000000 0.085895 0.000000
0.000000 0.091415 0.000000
0.000000 0.094528 0.000000
0.000000 0.094960 0.000000
0.000000 0.095134 0.000000
0.039636 0.095025 0.000000
0.095892 0.094199 0.000000
0.139812 0.088497 0.000000
0.181836 0.082155 0.000000
0.226729 0.073444 0.000000
0.278385 0.057323 0.000000
0.334914 0.000000 0.000000
0.395236 0.000000 0.000000
0.457485 0.000000 0.000000
0.520110 0.000000 0.000000
0.582283 0.000000 0.000000
0.643465 0.000000 0.000000
0.702104 0.000000 0.000000
0.756711 0.000000 0.000000
0.807845 0.000000 0.000000
0.855259 0.000000 0.000000
0.898669 0.000000 0.000000
0.937969 0.000000 0.000000
0.973031 0.000000 0.000000
1.003097 0.000000 0.000000
1.028402 0.000000 0.000000
1.048828 0.000000 0.000000
1.064578 0.000000 0.000000
1.076068 0.000000 0.000000
1.083981 0.000000 0.000000
1.086737 0.000000 0.000000
1.086739 0.000000 0.000000
0.000000 0.115136 0.000000
0.000000 0.120797 0.000000
0.000000 0.126960 0.000000
0.000000 0.131041 0.000000
0.000000 0.131770 0.000000
0.000000 0.133070 0.000000
0.000000 0.133855 0.000000
0.083387 0.134129 0.000000
0.137555 0.133747 0.000000
0.183387 0.128882 0.000000
0.231752 0.122613 0.000000
0.284777 0.113308 0.000000
0.342005 0.099321 0.000000
0.402144 0.076806 0.000000
0.464182 0.000000 0.000000
0.526607 0.000000 0.000000
0.588337 0.000000 0.000000
0.648794 0.000000 0.000000
0.707224 0.000000 0.000000
0.761294 0.000000 0.000000
0.811938 0.000000 0.000000
0.858925 0.000000 0.000000
0.901925 0.000000 0.000000
0.940871 0.000000 0.000000
0.975530 0.000000 0.000000
1.005314 0.000000 0.000000
1.030290 0.000000 0.000000
1.050504 0.000000 0.000000
1.065647 0.000000 0.000000
1.076891 0.000000 0.000000
1.084485 0.000000 0.000000
1.086586 0.000000 0.000000
1.086588 0.000000 0.000000
0.000000 0.156360 0.000000
0.000000 0.160616 0.000000
0.000000 0.166219 0.000000
0.000000 0.168405 0.000000
0.000000 0.170427 0.000000
0.000000 0.172625 0.000000
0.000000 0.174356 0.000000
0.061506 0.175639 0.000000
0.128280 0.176553 0.000000
0.182723 0.176575 0.000000
0.233979 0.171136 0.000000
0.288777 0.163622 0.000000
0.347018 0.153427 0.000000
0.407547 0.139759 0.000000
0.469293 0.121090 0.000000
0.531639 0.093189 0.000000
0.593038 0.024240 0.000000
0.653163 0.000000 0.000000
0.711482 0.000000 0.000000
0.765585 0.000000 0.000000
0.815815 0.000000 0.000000
0.862368 0.000000 0.000000
0.904989 0.000000 0.000000
0.943626 0.000000 0.000000
0.977935 0.000000 0.000000
1.007415 0.000000 0.000000
1.032064 0.000000 0.000000
1.052073 0.000000 0.000000
1.066571 0.000000 0.000000
1.077416 0.000000 0.000000
1.084748 0.000000 0.000000
1.086276 0.000000 0.000000
1.086284 0.000000 0.000000
0.000000 0.202166 0.000000
0.000000 0.206828 0.000000
0.000000 0.212870 0.000000
0.000000 0.213048 0.000000
0.000000 0.214614 0.000000
0.000000 0.216897 0.000000
0.000000 0.219183 0.000000
0.000000 0.221204 0.000000
0.109165 0.222783 0.000000
0.172560 0.223732 0.000000
0.232210 0.223013 0.000000
0.289578 0.216206 0.000000
0.349286 0.207469 0.000000
0.410529 0.196546 0.000000
0.472433 0.182991 0.000000
0.535012 0.166123 0.000000
0.596633 0.145049 0.000000
0.656788 0.116924 0.000000
0.714907 0.070570 0.000000
0.769378 0.000000 0.000000
0.819272 0.000000 0.000000
0.865438 0.000000 0.000000
0.907740 0.000000 0.000000
0.946083 0.000000 0.000000
0.980034 0.000000 0.000000
1.009248 0.000000 0.000000
1.033589 0.000000 0.000000
1.052915 0.000000 0.000000
1.067235 0.000000 0.000000
1.077669 0.000000 0.000000
1.084666 0.000000 0.000000
1.085693 0.000000 0.000000
1.085711 0.000000 0.000000
0.000000 0.253603 0.000000
0.000000 0.259005 0.000000
0.000000 0.265398 0.000000
0.000000 0.264359 0.000000
0.000000 0.265849 0.000000
0.000000 0.268016 0.000000
0.000000 0.270188 0.000000
0.000000 0.272172 0.000000
0.058450 0.273729 0.000000
0.151827 0.274740 0.000000
0.219867 0.275010 0.000000
0.285870 0.273154 0.000000
0.347866 0.264962 0.000000
0.410493 0.255326 0.000000
0.473512 0.244233 0.000000
0.536887 0.231340 0.000000
0.599104 0.216602 0.000000
0.659408 0.199764 0.000000
0.717468 0.180155 0.000000
0.772374 0.157007 0.000000
0.822022 0.129481 0.000000
0.867901 0.091279 0.000000
0.909942 0.000000 0.000000
0.948000 0.000000 0.000000
0.981649 0.000000 0.000000
1.010611 0.000000 0.000000
1.034659 0.000000 0.000000
1.053275 0.000000 0.000000
1.067462 0.000000 0.000000
1.077403 0.000000 0.000000
1.084035 0.000000 0.000000
1.084689 0.000000 0.000000
1.084732 0.000000 0.000000
0.000000 0.311033 0.000000
0.000000 0.316757 0.000000
0.000000 0.322791 0.000000
0.000000 0.320352 0.000000
0.000000 0.321649 0.000000
0.000000 0.323534 0.000000
0.000000 0.325450 0.000000
0.000000 0.327161 0.000000
0.000000 0.328508 0.000000
0.110441 0.329332 0.000000
0.197431 0.329457 0.000000
0.271586 0.328914 0.000000
0.342502 0.326210 0.000000
0.407731 0.317543 0.000000
0.472480 0.307877 0.000000
0.536954 0.297033 0.000000
0.600018 0.285138 0.000000
0.660740 0.272230 0.000000
0.718908 0.258307 0.000000
0.773971 0.243312 0.000000
0.823887 0.227947 0.000000
0.869537 0.211818 0.000000
0.911340 0.194841 0.000000
0.949218 0.177085 0.000000
0.982597 0.158676 0.000000
1.011345 0.139917 0.000000
1.035043 0.121587 0.000000
1.053027 0.105477 0.000000
1.066960 0.090864 0.000000
1.076354 0.077617 0.000000
1.082692 0.064256 0.000000
1.083139 0.045863 0.000000
1.083222 0.000000 0.000000
0.000000 0.372203 0.000000
0.000000 0.377732 0.000000
0.000000 0.382304 0.000000
0.000000 0.379312 0.000000
0.000000 0.380181 0.000000
0.000000 0.381660 0.000000
0.000000 0.383157 0.000000
0.000000 0.384430 0.000000
0.000000 0.385392 0.000000
0.000000 0.385975 0.000000
0.160296 0.386306 0.000000
0.249148 0.386130 0.000000
0.327949 0.385396 0.000000
0.401757 0.382306 0.000000
0.468885 0.373487 0.000000
0.534955 0.363824 0.000000
0.599161 0.353484 0.000000
0.660563 0.342608 0.000000
0.719018 0.331285 0.000000
0.774107 0.319602 0.000000
0.824664 0.307972 0.000000
0.870208 0.296585 0.000000
0.911872 0.285339 0.000000
0.949590 0.274411 0.000000
0.982747 0.264192 0.000000
1.011303 0.254964 0.000000
1.034223 0.247535 0.000000
1.051896 0.241533 0.000000
1.065202 0.236301 0.000000
1.074374 0.231801 0.000000
1.080535 0.227813 0.000000
1.080967 0.223174 0.000000
1.081106 0.217202 0.000000
0.000000 0.434567 0.000000
0.000000 0.439576 0.000000
0.000000 0.442589 0.000000
0.000000 0.439687 0.000000
0.000000 0.440039 0.000000
0.000000 0.440926 0.000000
0.000000 0.441826 0.000000
0.000000 0.442695 0.000000
0.000000 0.443551 0.000000
0.000000 0.444276 0.000000
0.081073 0.444772 0.000000
0.216627 0.444866 0.000000
0.306386 0.444499 0.000000
0.387251 0.443628 0.000000
0.462469 0.440239 0.000000
0.530607 0.431315 0.000000
0.596372 0.421928 0.000000
0.658713 0.412300 0.000000
0.717665 0.402484 0.000000
0.773007 0.392577 0.000000
0.824165 0.382832 0.000000
0.869792 0.373632 0.000000
0.911381 0.364800 0.000000
0.949022 0.356473 0.000000
0.981992 0.348915 0.000000
1.010344 0.342323 0.000000
1.032275 0.336740 0.000000
1.049463 0.331624 0.000000
1.062362 0.326959 0.000000
1.071393 0.322758 0.000000
1.077510 0.318826 0.000000
1.078140 0.314140 0.000000
1.078356 0.308492 0.000000
0.000000 0.496488 0.000000
0.000000 0.501018 0.000000
0.000000 0.502642 0.000000
0.000000 0.499733 0.000000
0.000000 0.499677 0.000000
0.000000 0.500224 0.000000
0.000000 0.501072 0.000000
0.000000 0.502017 0.000000
0.000000 0.502911 0.000000
0.000000 0.503745 0.000000
0.000000 0.504357 0.000000
0.164947 0.504657 0.000000
0.277330 0.504547 0.000000
0.366421 0.504039 0.000000
0.448026 0.503064 0.000000
0.523673 0.499415 0.000000
0.591482 0.490646 0.000000
0.655035 0.481801 0.000000
0.714714 0.472940 0.000000
0.770440 0.464147 0.000000
0.821838 0.455596 0.000000
0.868168 0.447592 0.000000
0.909787 0.440094 0.000000
0.947397 0.433191 0.000000
0.979989 0.426695 0.000000
1.007364 0.420553 0.000000
1.028743 0.415017 0.000000
1.045632 0.409823 0.000000
1.058383 0.404978 0.000000
1.067363 0.400465 0.000000
1.073584 0.396039 0.000000
1.074645 0.390999 0.000000
1.074951 0.385114 0.000000
0.000000 0.557061 0.000000
0.000000 0.561013 0.000000
0.000000 0.561679 0.000000
0.000000 0.558680 0.000000
0.000000 0.558479 0.000000
0.000000 0.559001 0.000000
0.000000 0.559821 0.000000
0.000000 0.560772 0.000000
0.000000 0.561709 0.000000
0.000000 0.562588 0.000000
0.000000 0.563307 0.000000
0.000000 0.563758 0.000000
0.237765 0.563864 0.000000
0.340579 0.563602 0.000000
0.428425 0.562953 0.000000
0.509769 0.561889 0.000000
0.584594 0.558063 0.000000
0.649671 0.549735 0.000000
0.710282 0.541515 0.000000
0.766556 0.533508 0.000000
0.818272 0.525794 0.000000
0.865241 0.518504 0.000000
0.906866 0.511534 0.000000
0.943909 0.504652 0.000000
0.975806 0.498021 0.000000
1.002566 0.491667 0.000000
1.023722 0.485776 0.000000
1.040486 0.480149 0.000000
1.053375 0.474786 0.000000
1.062403 0.469686 0.000000
1.068884 0.464713 0.000000
1.070601 0.459202 0.000000
1.071012 0.452929 0.000000
0.000000 0.615622 0.000000
0.000000 0.619116 0.000000
0.000000 0.619280 0.000000
0.000000 0.616421 0.000000
0.000000 0.616178 0.000000
0.000000 0.616635 0.000000
0.000000 0.617395 0.000000
0.000000 0.618305 0.000000
0.000000 0.619239 0.000000
0.000000 0.620092 0.000000
0.000000 0.620852 0.000000
0.000000 0.621348 0.000000
0.179337 0.621573 0.000000
0.308614 0.621465 0.000000
0.405497 0.621022 0.000000
0.491502 0.620260 0.000000
0.571597 0.619104 0.000000
0.642791 0.615276 0.000000
0.704497 0.607460 0.000000
0.761349 0.599790 0.000000
0.813146 0.592204 0.000000
0.859836 0.584655 0.000000
0.901342 0.577238 0.000000
0.937904 0.570019 0.000000
0.969455 0.563018 0.000000
0.996180 0.556244 0.000000
1.017324 0.549947 0.000000
1.034150 0.543905 0.000000
1.047211 0.538087 0.000000
1.056625 0.532477 0.000000
1.063502 0.526987 0.000000
1.066086 0.521277 0.000000
1.066595 0.514814 0.000000
0.000000 0.671298 0.000000
0.000000 0.674888 0.000000
0.000000 0.675019 0.000000
0.000000 0.672307 0.000000
0.000000 0.672055 0.000000
0.000000 0.672446 0.000000
0.000000 0.673127 0.000000
0.000000 0.673957 0.000000
0.000000 0.674806 0.000000
0.000000 0.675633 0.000000
0.000000 0.676308 0.000000
0.000000 0.676823 0.000000
0.000000 0.677068 0.000000
0.268380 0.677069 0.000000
0.379039 0.676732 0.000000
0.471132 0.676093 0.000000
0.554422 0.674979 0.000000
0.630094 0.673429 0.000000
0.696344 0.669089 0.000000
0.753341 0.660942 0.000000
0.805149 0.652889 0.000000
0.851794 0.644929 0.000000
0.893142 0.637203 0.000000
0.929568 0.629637 0.000000
0.961054 0.622333 0.000000
0.988007 0.615253 0.000000
1.009667 0.608558 0.000000
1.026733 0.602231 0.000000
1.040009 0.596155 0.000000
1.050111 0.590117 0.000000
1.057356 0.583795 0.000000
1.061277 0.577355 0.000000
1.061920 0.570314 0.000000
0.000000 0.722967 0.000000
0.000000 0.726272 0.000000
0.000000 0.726392 0.000000
0.000000 0.724025 0.000000
0.000000 0.724025 0.000000
0.000000 0.724521 0.000000
0.000000 0.725388 0.000000
0.000000 0.726351 0.000000
0.000000 0.727305 0.000000
0.000000 0.728237 0.000000
0.000000 0.728834 0.000000
0.000000 0.729173 0.000000
0.000000 0.729222 0.000000
0.214051 0.728902 0.000000
0.347394 0.728198 0.000000
0.446999 0.727077 0.000000
0.533843 0.725504 0.000000
0.611498 0.723527 0.000000
0.681077 0.721209 0.000000
0.742168 0.716237 0.000000
0.794395 0.707821 0.000000
0.841369 0.699604 0.000000
0.882464 0.691672 0.000000
0.919082 0.683666 0.000000
0.950902 0.675785 0.000000
0.978185 0.668061 0.000000
1.000628 0.660656 0.000000
1.018624 0.653542 0.000000
1.032293 0.646693 0.000000
1.042973 0.640009 0.000000
1.050808 0.633438 0.000000
1.056412 0.626940 0.000000
1.057131 0.619979 0.000000
0.000000 0.771014 0.000000
0.000000 0.773931 0.000000
0.000000 0.773796 0.000000
0.000000 0.771532 0.000000
0.000000 0.771347 0.000000
0.000000 0.771633 0.000000
0.000000 0.772212 0.000000
0.000000 0.772836 0.000000
0.000000 0.773423 0.000000
0.000000 0.773888 0.000000
0.000000 0.774183 0.000000
0.000000 0.774207 0.000000
0.000000 0.773923 0.000000
0.122452 0.773268 0.000000
0.308917 0.772206 0.000000
0.418881 0.770744 0.000000
0.510248 0.768827 0.000000
0.590177 0.766510 0.000000
0.661133 0.763802 0.000000
0.725554 0.760745 0.000000
0.781655 0.754983 0.000000
0.828793 0.746318 0.000000
0.870104 0.737961 0.000000
0.907159 0.729718 0.000000
0.939526 0.721628 0.000000
0.967293 0.713822 0.000000
0.990391 0.706289 0.000000
1.009191 0.699052 0.000000
1.024079 0.692070 0.000000
1.035162 0.685374 0.000000
1.043727 0.678805 0.000000
1.049981 0.672351 0.000000
1.052192 0.665680 0.000000
0.000000 0.813175 0.000000
0.000000 0.815461 0.000000
0.000000 0.814889 0.000000
0.000000 0.812599 0.000000
0.000000 0.812156 0.000000
0.000000 0.812150 0.000000
0.000000 0.812412 0.000000
0.000000 0.812704 0.000000
0.000000 0.812947 0.000000
0.000000 0.813068 0.000000
0.000000 0.813017 0.000000
0.000000 0.812704 0.000000
0.000000 0.812086 0.000000
0.000000 0.811144 0.000000
0.260603 0.809777 0.000000
0.386293 0.808055 0.000000
0.483666 0.805921 0.000000
0.566179 0.803424 0.000000
0.638993 0.800541 0.000000
0.704759 0.797350 0.000000
0.764330 0.793835 0.000000
0.813853 0.787814 0.000000
0.855910 0.779361 0.000000
0.893645 0.771046 0.000000
0.926817 0.762959 0.000000
0.955311 0.755142 0.000000
0.979278 0.747641 0.000000
0.998761 0.740487 0.000000
1.014440 0.733350 0.000000
1.026898 0.725796 0.000000
1.036245 0.718463 0.000000
1.043341 0.711224 0.000000
1.047634 0.704026 0.000000
0.000000 0.849008 0.000000
0.000000 0.850771 0.000000
0.000000 0.849857 0.000000
0.000000 0.847653 0.000000
0.000000 0.847003 0.000000
0.000000 0.846818 0.000000
0.000000 0.846838 0.000000
0.000000 0.846861 0.000000
0.000000 0.846862 0.000000
0.000000 0.846738 0.000000
0.000000 0.846434 0.000000
0.000000 0.845917 0.000000
0.000000 0.845089 0.000000
0.000000 0.843932 0.000000
0.192343 0.842443 0.000000
0.347670 0.840579 0.000000
0.453103 0.838337 0.000000
0.539132 0.835777 0.000000
0.614408 0.832875 0.000000
0.682045 0.829641 0.000000
0.741915 0.826168 0.000000
0.794516 0.822508 0.000000
0.840065 0.816522 0.000000
0.878767 0.808091 0.000000
0.913137 0.799432 0.000000
0.942656 0.791032 0.000000
0.967783 0.782938 0.000000
0.988210 0.775160 0.000000
1.004827 0.767649 0.000000
1.017932 0.760365 0.000000
1.028288 0.753264 0.000000
1.036255 0.746279 0.000000
1.042084 0.739478 0.000000
0.000000 0.879024 0.000000
0.000000 0.880635 0.000000
0.000000 0.879608 0.000000
0.000000 0.877535 0.000000
0.000000 0.876768 0.000000
0.000000 0.876430 0.000000
0.000000 0.876275 0.000000
0.000000 0.876136 0.000000
0.000000 0.875952 0.000000
0.000000 0.875667 0.000000
0.000000 0.875211 0.000000
0.000000 0.874552 0.000000
0.000000 0.873613 0.000000
0.000000 0.872363 0.000000
0.000000 0.870804 0.000000
0.300825 0.868920 0.000000
0.417996 0.866544 0.000000
0.509193 0.863760 0.000000
0.587801 0.860608 0.000000
0.657965 0.857138 0.000000
0.717899 0.853431 0.000000
0.772130 0.849467 0.000000
0.821260 0.845248 0.000000
0.863303 0.838617 0.000000
0.898072 0.830222 0.000000
0.928088 0.822078 0.000000
0.954124 0.814189 0.000000
0.975903 0.806606 0.000000
0.993870 0.799301 0.000000
1.008322 0.792275 0.000000
1.019846 0.784794 0.000000
1.028617 0.777155 0.000000
1.035524 0.769693 0.000000
0.000000 0.903242 0.000000
0.000000 0.904411 0.000000
0.000000 0.903413 0.000000
0.000000 0.901416 0.000000
0.000000 0.900676 0.000000
0.000000 0.900305 0.000000
0.000000 0.900069 0.000000
0.000000 0.899862 0.000000
0.000000 0.899596 0.000000
0.000000 0.899184 0.000000
0.000000 0.898606 0.000000
0.000000 0.897818 0.000000
0.000000 0.896738 0.000000
0.000000 0.895358 0.000000
0.000000 0.893656 0.000000
0.243482 0.891605 0.000000
0.379341 0.889229 0.000000
0.477225 0.886509 0.000000
0.559721 0.883482 0.000000
0.630560 0.880182 0.000000
0.692603 0.876642 0.000000
0.748735 0.872846 0.000000
0.799453 0.868839 0.000000
0.843151 0.864711 0.000000
0.880678 0.858434 0.000000
0.912199 0.850516 0.000000
0.939637 0.842240 0.000000
0.963050 0.834072 0.000000
0.982293 0.826178 0.000000
0.998029 0.818567 0.000000
1.010613 0.811309 0.000000
1.020664 0.804452 0.000000
1.028568 0.797888 0.000000
0.000000 0.923494 0.000000
0.000000 0.924252 0.000000
0.000000 0.923178 0.000000
0.000000 0.921373 0.000000
0.000000 0.920567 0.000000
0.000000 0.920128 0.000000
0.000000 0.919781 0.000000
0.000000 0.919466 0.000000
0.000000 0.919106 0.000000
0.000000 0.918617 0.000000
0.000000 0.918000 0.000000
0.000000 0.917172 0.000000
0.000000 0.916103 0.000000
0.000000 0.914763 0.000000
0.000000 0.913145 0.000000
0.155562 0.911210 0.000000
0.334150 0.908980 0.000000
0.441622 0.906437 0.000000
0.528613 0.903623 0.000000
0.601099 0.900592 0.000000
0.665709 0.897318 0.000000
0.724262 0.893464 0.000000
0.774512 0.889273 0.000000
0.819999 0.884883 0.000000
0.861257 0.880290 0.000000
0.896284 0.873546 0.000000
0.924688 0.865497 0.000000
0.949101 0.857801 0.000000
0.969721 0.850517 0.000000
0.986952 0.843641 0.000000
1.000983 0.837165 0.000000
1.012460 0.830093 0.000000
1.021176 0.823425 0.000000
0.000000 0.940456 0.000000
0.000000 0.940792 0.000000
0.000000 0.939769 0.000000
0.000000 0.938182 0.000000
0.000000 0.937376 0.000000
0.000000 0.936887 0.000000
0.000000 0.936488 0.000000
0.000000 0.936118 0.000000
0.000000 0.935711 0.000000
0.000000 0.935205 0.000000
0.000000 0.934579 0.000000
0.000000 0.933770 0.000000
0.000000 0.932750 0.000000
0.000000 0.931422 0.000000
0.000000 0.929707 0.000000
0.000000 0.927680 0.000000
0.280061 0.925357 0.000000
0.402899 0.922712 0.000000
0.494220 0.919793 0.000000
0.570723 0.916638 0.000000
0.638627 0.913196 0.000000
0.697075 0.909603 0.000000
0.749122 0.905801 0.000000
0.796626 0.901846 0.000000
0.839235 0.897825 0.000000
0.876324 0.893785 0.000000
0.907741 0.887975 0.000000
0.934122 0.880157 0.000000
0.956781 0.872684 0.000000
