transforms/sv2_look_7525_r709_g24.cube
# sv2_look_7525_r709_g24.cube
LUT_3D_SIZE 9
0.000000 0.000000 0.000000
0.048731 0.000000 0.000000
0.164775 0.000000 0.000000
0.369345 0.000000 0.000000
0.659361 0.000000 0.000000
0.892427 0.000000 0.000000
1.018646 0.000000 0.000000
1.070196 0.000000 0.000000
1.087858 0.000000 0.000000
0.000000 0.044929 0.000000
0.043154 0.043154 0.000000
0.158048 0.000000 0.000000
0.353398 0.000000 0.000000
0.638081 0.000000 0.000000
0.877437 0.000000 0.000000
1.011070 0.000000 0.000000
1.067459 0.000000 0.000000
1.086957 0.000000 0.000000
0.000000 0.151756 0.000000
0.000000 0.148274 0.000000
0.145509 0.145509 0.000000
0.348989 0.102654 0.000000
0.633832 0.000000 0.000000
0.873942 0.000000 0.000000
1.008989 0.000000 0.000000
1.066569 0.000000 0.000000
1.086597 0.000000 0.000000
0.000000 0.339148 0.000000
0.000000 0.331172 0.000000
0.000000 0.328851 0.000000
0.323575 0.323575 0.000000
0.624423 0.269973 0.000000
0.868221 0.194188 0.000000
1.004768 0.106005 0.000000
1.063138 0.000000 0.000000
1.083462 0.000000 0.000000
0.000000 0.607672 0.000000
0.000000 0.597340 0.000000
0.000000 0.594177 0.000000
0.087637 0.591271 0.000000
0.583022 0.583022 0.000000
0.844514 0.542758 0.000000
0.986287 0.517342 0.000000
1.046460 0.506905 0.000000
1.067324 0.505336 0.000000
0.000000 0.827726 0.000000
0.000000 0.820641 0.000000
0.000000 0.818127 0.000000
0.000000 0.815989 0.000000
0.476127 0.810766 0.000000
0.802614 0.802614 0.000000
0.953742 0.781037 0.000000
1.017000 0.771936 0.000000
1.038911 0.769704 0.000000
0.000000 0.948736 0.000000
0.000000 0.945221 0.000000
0.000000 0.943843 0.000000
0.000000 0.942397 0.000000
0.378639 0.938288 0.000000
0.751908 0.931728 0.000000
0.926535 0.926535 0.000000
0.992361 0.917473 0.000000
1.015195 0.914580 0.000000
0.000000 0.999106 0.000000
0.000000 0.997854 0.000000
0.000000 0.997314 0.000000
0.000000 0.996370 0.000000
0.321166 0.992808 0.000000
0.727758 0.986882 0.000000
0.906209 0.982109 0.000000
0.979728 0.979728 0.000000
1.002983 0.976581 0.000000
0.000000 1.016489 0.000000
0.000000 1.016097 0.000000
0.000000 1.015912 0.000000
0.000000 1.015182 0.000000
0.302550 1.011819 0.000000
0.720455 1.006144 0.000000
0.899333 1.001564 0.000000
0.972792 0.999253 0.000000
0.998391 0.998391 0.000000
0.000000 0.000000 0.045708
0.048898 0.000000 0.046374
0.164590 0.000000 0.023148
0.368369 0.000000 0.000000
0.657834 0.000000 0.000000
0.891266 0.000000 0.000000
1.018029 0.000000 0.000000
1.069966 0.000000 0.000000
1.087776 0.000000 0.000000
0.000000 0.044611 0.044208
0.042751 0.042751 0.042751
0.157015 0.000000 0.017114
0.351195 0.000000 0.000000
0.635314 0.000000 0.000000
0.875533 0.000000 0.000000
1.010132 0.000000 0.000000
1.067123 0.000000 0.000000
1.086855 0.000000 0.000000
0.000000 0.150624 0.000000
0.000000 0.147057 0.000000
0.144231 0.144231 0.000000
0.346234 0.101530 0.000000
0.630419 0.000000 0.000000
0.871670 0.000000 0.000000
1.007886 0.000000 0.000000
1.066183 0.000000 0.000000
1.086488 0.000000 0.000000
0.000000 0.336485 0.000000
0.000000 0.328390 0.000000
0.000000 0.325962 0.000000
0.320651 0.320651 0.000000
0.620715 0.266935 0.000000
0.865797 0.189625 0.000000
1.003641 0.093928 0.000000
1.062812 0.000000 0.000000
1.083446 0.000000 0.000000
0.000000 0.604216 0.000000
0.000000 0.593761 0.000000
0.000000 0.590460 0.000000
0.078166 0.587488 0.000000
0.579172 0.579172 0.000000
0.842153 0.538502 0.000000
0.985336 0.512645 0.000000
1.046384 0.501863 0.000000
1.067586 0.500053 0.000000
0.000000 0.825359 0.000000
0.000000 0.818127 0.000000
0.000000 0.815553 0.000000
0.000000 0.813384 0.000000
0.470838 0.808160 0.000000
0.799918 0.799918 0.000000
0.952714 0.778045 0.000000
1.016953 0.768732 0.000000
1.039231 0.766374 0.000000
0.000000 0.947572 0.000000
0.000000 0.943977 0.000000
0.000000 0.942558 0.000000
0.000000 0.941105 0.000000
0.370084 0.937037 0.000000
0.748384 0.930446 0.000000
0.925176 0.925176 0.000000
0.992099 0.915945 0.000000
1.015331 0.912974 0.000000
0.000000 0.998688 0.000000
0.000000 0.997410 0.000000
0.000000 0.996859 0.000000
0.000000 0.995927 0.000000
0.308754 0.992416 0.000000
0.723535 0.986490 0.000000
0.904425 0.981669 0.000000
0.979241 0.979241 0.000000
1.002926 0.976027 0.000000
0.000000 1.016357 0.000000
0.000000 1.015962 0.000000
0.000000 1.015776 0.000000
0.000000 1.015069 0.000000
0.287829 1.011767 0.000000
0.715820 1.006098 0.000000
0.897328 1.001475 0.000000
0.972148 0.999124 0.000000
0.998245 0.998245 0.000000
0.000000 0.000000 0.154346
0.036240 0.000000 0.155425
0.165396 0.000000 0.156858
0.369458 0.000000 0.127203
0.658629 0.000000 0.000000
0.891573 0.000000 0.000000
1.018096 0.000000 0.000000
1.069969 0.000000 0.000000
1.087771 0.000000 0.000000
0.000000 0.032600 0.152352
0.031011 0.031011 0.149868
0.157131 0.000000 0.149194
0.351238 0.000000 0.119292
0.635135 0.000000 0.000000
0.875323 0.000000 0.000000
1.009983 0.000000 0.000000
1.067059 0.000000 0.000000
1.086832 0.000000 0.000000
0.000000 0.150608 0.149249
0.000000 0.146940 0.145647
0.144050 0.144050 0.144050
0.345756 0.101341 0.113726
0.629721 0.000000 0.000000
0.871126 0.000000 0.000000
1.007599 0.000000 0.000000
1.066075 0.000000 0.000000
1.086456 0.000000 0.000000
0.000000 0.336002 0.080853
0.000000 0.327787 0.077459
0.000000 0.325263 0.074667
0.319885 0.319885 0.051735
0.619680 0.266095 0.000000
0.865053 0.188270 0.000000
1.003280 0.089710 0.000000
1.062704 0.000000 0.000000
1.083437 0.000000 0.000000
0.000000 0.603298 0.000000
0.000000 0.592720 0.000000
0.000000 0.589337 0.000000
0.074899 0.586270 0.000000
0.577885 0.577885 0.000000
0.841323 0.537070 0.000000
0.984982 0.511001 0.000000
1.046352 0.500012 0.000000
1.067679 0.498101 0.000000
0.000000 0.824599 0.000000
0.000000 0.817278 0.000000
0.000000 0.814650 0.000000
0.000000 0.812439 0.000000
0.468915 0.807190 0.000000
0.798909 0.798909 0.000000
0.952318 0.776891 0.000000
1.016930 0.767471 0.000000
1.039357 0.765053 0.000000
0.000000 0.947143 0.000000
0.000000 0.943509 0.000000
0.000000 0.942067 0.000000
0.000000 0.940601 0.000000
0.366696 0.936534 0.000000
0.746957 0.929925 0.000000
0.924616 0.924616 0.000000
0.991985 0.915308 0.000000
1.015393 0.912283 0.000000
0.000000 0.998524 0.000000
0.000000 0.997232 0.000000
0.000000 0.996670 0.000000
0.000000 0.995742 0.000000
0.303512 0.992251 0.000000
0.721744 0.986321 0.000000
0.903651 0.981475 0.000000
0.979025 0.979025 0.000000
1.002903 0.975780 0.000000
0.000000 1.016302 0.000000
0.000000 1.015906 0.000000
0.000000 1.015718 0.000000
0.000000 1.015020 0.000000
0.281251 1.011744 0.000000
0.713781 1.006078 0.000000
0.896430 1.001436 0.000000
0.971854 0.999066 0.000000
0.998180 0.998180 0.000000
0.000000 0.000000 0.344594
0.016113 0.000000 0.345535
0.142421 0.000000 0.349585
0.370987 0.000000 0.351838
0.660010 0.000000 0.314075
0.892256 0.000000 0.277160
1.018342 0.000000 0.255363
1.070030 0.000000 0.249957
1.087785 0.000000 0.254217
0.000000 0.013906 0.338723
0.012841 0.012841 0.333767
0.134716 0.000000 0.334118
0.351818 0.000000 0.333665
0.635652 0.000000 0.293766
0.875548 0.000000 0.251443
1.010049 0.000000 0.222786
1.067068 0.000000 0.211795
1.086831 0.000000 0.212614
0.000000 0.128957 0.339768
0.000000 0.125657 0.332666
0.123067 0.123067 0.331378
0.345865 0.101384 0.329565
0.629733 0.000000 0.288886
0.871070 0.000000 0.244866
1.007545 0.000000 0.213576
1.066044 0.000000 0.199934
1.086443 0.000000 0.198673
0.000000 0.336086 0.333054
0.000000 0.327762 0.324807
0.000000 0.325149 0.322503
0.319693 0.319693 0.319693
0.619351 0.265836 0.278380
0.864804 0.187813 0.232748
1.003135 0.088061 0.198798
1.062656 0.000000 0.182549
1.083434 0.000000 0.179370
0.000000 0.603082 0.260051
0.000000 0.592394 0.250479
0.000000 0.588918 0.247405
0.073569 0.585787 0.243444
0.577341 0.577341 0.229806
0.840945 0.536405 0.170736
0.984814 0.510189 0.113588
1.046332 0.499084 0.068416
1.067727 0.497075 0.046981
0.000000 0.824299 0.101322
0.000000 0.816913 0.048506
0.000000 0.814228 0.000000
0.000000 0.811980 0.000000
0.467946 0.806693 0.000000
0.798377 0.798377 0.000000
0.952102 0.776272 0.000000
1.016917 0.766772 0.000000
1.039428 0.764300 0.000000
0.000000 0.946932 0.000000
0.000000 0.943270 0.000000
0.000000 0.941803 0.000000
0.000000 0.940322 0.000000
0.364829 0.936251 0.000000
0.746149 0.929630 0.000000
0.924300 0.924300 0.000000
0.991917 0.914932 0.000000
1.015427 0.911880 0.000000
0.000000 0.998434 0.000000
0.000000 0.997132 0.000000
0.000000 0.996562 0.000000
0.000000 0.995635 0.000000
0.300296 0.992151 0.000000
0.720661 0.986218 0.000000
0.903187 0.981357 0.000000
0.978893 0.978893 0.000000
1.002889 0.975628 0.000000
0.000000 1.016270 0.000000
0.000000 1.015872 0.000000
0.000000 1.015682 0.000000
0.000000 1.014990 0.000000
0.277015 1.011729 0.000000
0.712484 1.006066 0.000000
0.895852 1.001411 0.000000
0.971666 0.999029 0.000000
0.998136 0.998136 0.000000
0.000000 0.000000 0.618131
0.000105 0.000000 0.618140
0.111563 0.000000 0.622430
0.338251 0.000000 0.626335
0.661677 0.000000 0.627523
0.893139 0.000000 0.600452
1.018685 0.000000 0.587759
1.070126 0.000000 0.586392
1.087808 0.000000 0.591147
0.000000 0.000000 0.609245
0.000000 0.000000 0.603169
0.103751 0.000000 0.603613
0.318577 0.000000 0.604743
0.636541 0.000000 0.603684
0.876036 0.000000 0.573083
1.010233 0.000000 0.556819
1.067116 0.000000 0.552561
1.086841 0.000000 0.555110
0.000000 0.099746 0.610643
0.000000 0.096532 0.602200
0.094399 0.094399 0.600764
0.313318 0.066197 0.600379
0.630175 0.000000 0.598007
0.871274 0.000000 0.565906
1.007611 0.000000 0.547969
1.066056 0.000000 0.542173
1.086445 0.000000 0.543282
0.000000 0.304465 0.609960
0.000000 0.296185 0.600158
0.000000 0.293753 0.597570
0.288550 0.288550 0.596092
0.619443 0.265921 0.592755
0.864803 0.187833 0.559960
1.003120 0.087775 0.541080
1.062645 0.000000 0.534220
1.083434 0.000000 0.534205
0.000000 0.603230 0.597789
0.000000 0.592444 0.587099
0.000000 0.588892 0.583646
0.073228 0.585700 0.581389
0.577193 0.577193 0.577193
0.840796 0.536180 0.543788
0.984751 0.509838 0.524048
1.046323 0.498666 0.516322
1.067751 0.496572 0.515401
0.000000 0.824235 0.549061
0.000000 0.816810 0.536233
0.000000 0.814072 0.531641
0.000000 0.811783 0.528553
0.467470 0.806468 0.523467
0.798111 0.798111 0.516177
0.951992 0.775942 0.495218
1.016910 0.766377 0.486524
1.039473 0.763839 0.484893
0.000000 0.946844 0.517423
0.000000 0.943160 0.501867
0.000000 0.941672 0.495893
0.000000 0.940178 0.491741
0.363708 0.936099 0.485592
0.745687 0.929465 0.477072
0.924111 0.924111 0.470500
0.991874 0.914698 0.460818
1.015450 0.911622 0.458429
0.000000 0.998382 0.505405
0.000000 0.997074 0.487765
0.000000 0.996498 0.480429
0.000000 0.995568 0.475332
0.298342 0.992089 0.468204
0.719969 0.986153 0.458612
0.902887 0.981282 0.451070
0.978805 0.978805 0.447478
1.002880 0.975521 0.444320
0.000000 1.016250 0.505133
0.000000 1.015850 0.486234
0.000000 1.015660 0.477941
0.000000 1.014969 0.471912
0.274104 1.011719 0.463987
0.711624 1.006056 0.453617
0.895446 1.001395 0.445329
0.971531 0.999005 0.440934
0.998106 0.998106 0.439442
0.000000 0.000000 0.843776
0.000000 0.000000 0.843231
0.087933 0.000000 0.845630
0.313385 0.000000 0.847953
0.635534 0.000000 0.848593
0.894160 0.000000 0.848006
1.019098 0.000000 0.834171
1.070245 0.000000 0.830748
1.087841 0.000000 0.832607
0.000000 0.000000 0.836920
0.000000 0.000000 0.832854
0.078963 0.000000 0.833015
0.291935 0.000000 0.833726
0.608483 0.000000 0.833188
0.876690 0.000000 0.831437
1.010506 0.000000 0.815271
1.067195 0.000000 0.810080
1.086859 0.000000 0.810747
0.000000 0.076710 0.837424
0.000000 0.073161 0.831894
0.071326 0.071326 0.830892
0.286754 0.023540 0.830659
0.601708 0.000000 0.829314
0.871665 0.000000 0.826792
1.007763 0.000000 0.809548
1.066100 0.000000 0.803365
1.086454 0.000000 0.803149
0.000000 0.279435 0.837063
0.000000 0.270685 0.830720
0.000000 0.268206 0.828972
0.263203 0.263203 0.828075
0.591605 0.239385 0.826117
0.864996 0.188167 0.823032
1.003185 0.088598 0.805180
1.062658 0.000000 0.798326
1.083433 0.000000 0.797420
0.000000 0.576710 0.829899
0.000000 0.565368 0.823150
0.000000 0.561656 0.820919
0.000000 0.558517 0.819543
0.550127 0.550127 0.817094
0.840834 0.536248 0.813505
0.984752 0.509867 0.795292
1.046324 0.498585 0.787946
1.067758 0.496431 0.786454
0.000000 0.824353 0.816916
0.000000 0.816872 0.809503
0.000000 0.814108 0.806786
0.000000 0.811777 0.804950
0.467371 0.806429 0.802072
0.798022 0.798022 0.798022
0.951950 0.775818 0.779433
1.016905 0.766217 0.771684
1.039493 0.763631 0.769768
0.000000 0.946836 0.792413
0.000000 0.943135 0.783598
0.000000 0.941626 0.780101
0.000000 0.940115 0.777728
0.363252 0.936029 0.774390
0.745448 0.929378 0.769908
0.924005 0.924005 0.766522
0.991850 0.914571 0.758362
1.015463 0.911467 0.756065
0.000000 0.998363 0.782978
0.000000 0.997047 0.773107
0.000000 0.996466 0.768917
0.000000 0.995533 0.766024
0.297174 0.992055 0.762213
0.719563 0.986113 0.757303
0.902698 0.981234 0.753514
0.978748 0.978748 0.751706
1.002873 0.975454 0.749011
0.000000 1.016239 0.781843
0.000000 1.015837 0.771298
0.000000 1.015646 0.766606
0.000000 1.014956 0.763238
0.272235 1.011713 0.759005
0.711049 1.006049 0.753717
0.895189 1.001383 0.749516
0.971441 0.998988 0.747336
0.998086 0.998086 0.746593
0.000000 0.000000 0.968507
0.000000 0.000000 0.968025
0.075976 0.000000 0.969006
0.301199 0.000000 0.969834
0.622688 0.000000 0.969294
0.880075 0.000000 0.967728
1.019564 0.000000 0.966937
1.070384 0.000000 0.961592
1.087881 0.000000 0.961081
0.000000 0.000000 0.964791
0.000000 0.000000 0.962800
0.065856 0.000000 0.962810
0.278011 0.000000 0.962993
0.593881 0.000000 0.962025
0.861068 0.000000 0.959980
1.010847 0.000000 0.958669
1.067298 0.000000 0.952156
1.086884 0.000000 0.951018
0.000000 0.064582 0.964816
0.000000 0.060693 0.962157
0.058974 0.058974 0.961636
0.272503 0.000000 0.961382
0.586473 0.000000 0.960070
0.855537 0.000000 0.957700
1.007997 0.000000 0.956031
1.066168 0.000000 0.948947
1.086469 0.000000 0.947367
0.000000 0.266258 0.964023
0.000000 0.257025 0.961047
0.000000 0.254427 0.960196
0.249488 0.249488 0.959638
0.576477 0.224898 0.958062
0.848903 0.169357 0.955419
1.003324 0.090248 0.953477
1.062690 0.000000 0.946043
1.083436 0.000000 0.944109
0.000000 0.562634 0.957791
0.000000 0.550748 0.954782
0.000000 0.546825 0.953755
0.000000 0.543692 0.952996
0.535313 0.535313 0.951198
0.825121 0.521317 0.948328
0.984807 0.510139 0.946140
1.046324 0.498827 0.938460
1.067753 0.496548 0.936246
0.000000 0.809549 0.946813
0.000000 0.801525 0.943573
0.000000 0.798553 0.942344
0.000000 0.796171 0.941404
0.451626 0.790865 0.939418
0.782473 0.782473 0.936343
0.951967 0.775865 0.933961
1.016906 0.766212 0.926115
1.039496 0.763604 0.923698
0.000000 0.946898 0.938356
0.000000 0.943178 0.934669
0.000000 0.941660 0.933177
0.000000 0.940127 0.932004
0.363188 0.936025 0.929806
0.745406 0.929361 0.926539
0.923970 0.923970 0.923970
0.991841 0.914518 0.915967
1.015469 0.911393 0.913381
0.000000 0.998366 0.928563
0.000000 0.997043 0.924153
0.000000 0.996458 0.922276
0.000000 0.995519 0.920819
0.296689 0.992037 0.918374
0.719351 0.986094 0.914910
0.902603 0.981210 0.912169
0.978718 0.978718 0.910818
1.002869 0.975415 0.908062
0.000000 1.016233 0.926063
0.000000 1.015831 0.921289
0.000000 1.015639 0.919125
0.000000 1.014949 0.917436
0.271070 1.011709 0.914781
0.710671 1.006047 0.911123
0.895018 1.001376 0.908201
0.971383 0.998975 0.906678
0.998071 0.998071 0.906123
0.000000 0.000000 1.020738
0.000000 0.000000 1.020507
0.071986 0.000000 1.020791
0.297835 0.000000 1.020824
0.619098 0.000000 1.019537
0.875219 0.000000 1.017298
1.013888 0.000000 1.015743
1.070552 0.000000 1.015292
1.087930 0.000000 1.013527
0.000000 0.000000 1.019321
0.000000 0.000000 1.018614
0.060933 0.000000 1.018593
0.273227 0.000000 1.018461
0.588872 0.000000 1.017158
0.855174 0.000000 1.014782
1.004318 0.000000 1.012992
1.067428 0.000000 1.012330
1.086919 0.000000 1.010160
0.000000 0.060010 1.019238
0.000000 0.055877 1.018318
0.054143 0.054143 1.018124
0.267223 0.000000 1.017859
0.580846 0.000000 1.016467
0.849188 0.000000 1.013991
1.001144 0.000000 1.012069
1.066262 0.000000 1.011276
1.086493 0.000000 1.008897
0.000000 0.261494 1.018187
0.000000 0.251907 1.017225
0.000000 0.249168 1.016939
0.244186 0.244186 1.016580
0.570678 0.219210 1.015110
0.842398 0.161716 1.012552
0.996387 0.070976 1.010524
1.062741 0.000000 1.009614
1.083438 0.000000 1.007074
0.000000 0.557379 1.012061
0.000000 0.545145 1.011280
0.000000 0.541067 1.010998
0.000000 0.537857 1.010604
0.529439 0.529439 1.009074
0.818638 0.515321 1.006434
0.977944 0.504072 1.004303
1.046335 0.499310 1.003286
1.067733 0.496968 1.000621
0.000000 0.803623 1.001548
0.000000 0.795285 1.000733
0.000000 0.792153 1.000416
0.000000 0.789718 0.999976
0.445298 0.784374 0.998386
0.775973 0.775973 0.995668
0.945175 0.769319 0.993463
1.016909 0.766373 0.992385
1.039484 0.763724 0.989660
0.000000 0.940666 0.993269
0.000000 0.936614 0.992196
0.000000 0.934962 0.991751
0.000000 0.933370 0.991222
0.355514 0.929249 0.989547
0.738776 0.922584 0.986751
0.917182 0.917182 0.984478
0.991846 0.914538 0.983350
1.015469 0.911400 0.980584
0.000000 0.998388 0.989381
0.000000 0.997062 0.988067
0.000000 0.996470 0.987490
0.000000 0.995526 0.986861
0.296736 0.992040 0.985096
0.719343 0.986094 0.982224
0.902581 0.981203 0.979887
0.978705 0.978705 0.978705
1.002867 0.975397 0.975892
0.000000 1.016233 0.986070
0.000000 1.015830 0.984499
0.000000 1.015637 0.983779
0.000000 1.014947 0.983041
0.270681 1.011707 0.981179
0.710494 1.006044 0.978232
0.894930 1.001372 0.975835
0.971346 0.998968 0.974592
0.998062 0.998062 0.974127
0.000000 0.000000 1.038823
0.000000 0.000000 1.038734
0.071867 0.000000 1.038798
0.298940 0.000000 1.038563
0.620087 0.000000 1.037015
0.874796 0.000000 1.034549
1.012457 0.000000 1.032744
1.068628 0.000000 1.031983
1.087989 0.000000 1.031830
0.000000 0.000000 1.038361
0.000000 0.000000 1.038149
0.060052 0.000000 1.038132
0.273114 0.000000 1.037895
0.588821 0.000000 1.036455
0.854129 0.000000 1.033958
1.002485 0.000000 1.032000
1.065198 0.000000 1.031097
1.086963 0.000000 1.030856
0.000000 0.059127 1.038293
0.000000 0.054841 1.038028
0.053047 0.053047 1.037963
0.266552 0.000000 1.037700
0.580185 0.000000 1.036273
0.847755 0.000000 1.033758
0.999097 0.000000 1.031743
1.063902 0.000000 1.030778
1.086525 0.000000 1.030492
0.000000 0.260959 1.037163
0.000000 0.251126 1.036958
0.000000 0.248270 1.036889
0.243175 0.243175 1.036613
0.569616 0.218042 1.035179
0.840718 0.160122 1.032641
0.994214 0.066636 1.030578
1.060313 0.000000 1.029558
1.083443 0.000000 1.029219
0.000000 0.556557 1.031058
0.000000 0.544118 1.031105
0.000000 0.539914 1.031110
0.000000 0.536613 1.030860
0.528094 0.528094 1.029428
0.816779 0.513956 1.026861
0.975699 0.502627 1.024749
1.043889 0.497815 1.023672
1.067699 0.497695 1.023266
0.000000 0.802088 1.020687
0.000000 0.793567 1.020772
0.000000 0.790357 1.020795
0.000000 0.787859 1.020552
0.443742 0.782480 1.019110
0.774025 0.774025 1.016518
0.942915 0.767361 1.014375
1.014494 0.764377 1.013276
1.039456 0.764022 1.012858
0.000000 0.938663 1.012468
0.000000 0.934489 1.012356
0.000000 0.932764 1.012305
0.000000 0.931138 1.012017
0.353513 0.927001 1.010534
0.736725 0.920313 1.007903
0.914898 0.914898 1.005733
0.989450 0.912244 1.004626
1.015462 0.911482 1.004217
0.000000 0.996225 1.008471
0.000000 0.994776 1.008163
0.000000 0.994129 1.008028
0.000000 0.993157 1.007682
0.294044 0.989658 1.006149
0.717156 0.983705 1.003481
0.900240 0.978804 1.001286
0.976302 0.976302 1.000165
1.002867 0.975403 0.999750
0.000000 1.016242 1.007075
0.000000 1.015837 1.006673
0.000000 1.015641 1.006487
0.000000 1.014949 1.006100
0.270804 1.011709 1.004529
0.710505 1.006045 1.001835
0.894920 1.001372 0.999625
0.971337 0.998968 0.998488
0.998059 0.998059 0.998059
