transforms/sv2_base_locon_r709_g24.cube
# sv2_base_locon_r709_g24.cube
LUT_3D_SIZE 5
0.000000 0.000000 0.000000
0.236190 0.000000 0.000000
0.659361 0.000000 0.000000
0.976905 0.000000 0.000000
1.087858 0.000000 0.000000
0.000000 0.217225 0.000000
0.207802 0.207802 0.000000
0.631653 0.078062 0.000000
0.962448 0.000000 0.000000
1.086045 0.000000 0.000000
0.000000 0.607672 0.000000
0.000000 0.593190 0.000000
0.583022 0.583022 0.000000
0.938839 0.526039 0.000000
1.067324 0.505336 0.000000
0.000000 0.908456 0.000000
0.000000 0.901028 0.000000
0.416224 0.895437 0.000000
0.884820 0.884820 0.000000
1.023882 0.865944 0.000000
0.000000 1.016489 0.000000
0.000000 1.015762 0.000000
0.302550 1.011819 0.000000
0.840669 1.003226 0.000000
0.998391 0.998391 0.000000
0.000000 0.000000 0.220821
0.237176 0.000000 0.224933
0.659184 0.000000 0.155640
0.976346 0.000000 0.000000
1.087775 0.000000 0.000000
0.000000 0.215438 0.213494
0.205539 0.205539 0.205539
0.627072 0.074121 0.131485
0.960279 0.000000 0.000000
1.085917 0.000000 0.000000
0.000000 0.603148 0.000000
0.000000 0.588026 0.000000
0.577579 0.577579 0.000000
0.936651 0.519562 0.000000
1.067702 0.497604 0.000000
0.000000 0.906094 0.000000
0.000000 0.898370 0.000000
0.405934 0.892750 0.000000
0.881975 0.881975 0.000000
1.024234 0.862462 0.000000
0.000000 1.016287 0.000000
0.000000 1.015557 0.000000
0.279238 1.011737 0.000000
0.836010 1.003119 0.000000
0.998158 0.998158 0.000000
0.000000 0.000000 0.618131
0.190177 0.000000 0.624273
0.661677 0.000000 0.627523
0.977133 0.000000 0.591405
1.087808 0.000000 0.591147
0.000000 0.170714 0.611038
0.161835 0.161835 0.599598
0.627304 0.074380 0.596233
0.960293 0.000000 0.551435
1.085907 0.000000 0.539712
0.000000 0.603230 0.597789
0.000000 0.587782 0.582722
0.577193 0.577193 0.577193
0.936432 0.518925 0.530689
1.067751 0.496572 0.515401
0.000000 0.905877 0.528187
0.000000 0.898023 0.506832
0.404407 0.892369 0.499015
0.881527 0.881527 0.487075
1.024297 0.861840 0.468273
0.000000 1.016250 0.505133
0.000000 1.015516 0.475311
0.274104 1.011719 0.463987
0.834996 1.003097 0.448347
0.998106 0.998106 0.439442
0.000000 0.000000 0.926903
0.157532 0.000000 0.928516
0.626717 0.000000 0.929151
0.978170 0.000000 0.927679
1.087864 0.000000 0.918677
0.000000 0.138177 0.922110
0.128941 0.128941 0.916923
0.588760 0.000000 0.915167
0.960623 0.000000 0.911467
1.085917 0.000000 0.897328
0.000000 0.567256 0.914972
0.000000 0.550597 0.908597
0.540217 0.540217 0.906015
0.936484 0.519124 0.901448
1.067756 0.496472 0.885885
0.000000 0.905968 0.897795
0.000000 0.898007 0.889984
0.404182 0.892294 0.886674
0.881400 0.881400 0.881400
1.024325 0.861582 0.864843
0.000000 1.016235 0.878250
0.000000 1.015496 0.867172
0.271483 1.011711 0.862664
0.834452 1.003084 0.856348
0.998076 0.998076 0.852767
0.000000 0.000000 1.038823
0.150259 0.000000 1.038784
0.620087 0.000000 1.037015
0.966962 0.000000 1.033371
1.087989 0.000000 1.031830
0.000000 0.128559 1.038115
0.118482 0.118482 1.037725
0.577154 0.000000 1.036074
0.946460 0.000000 1.032252
1.085963 0.000000 1.030224
0.000000 0.556557 1.031058
0.000000 0.538667 1.031073
0.528094 0.528094 1.029428
0.922270 0.506678 1.025519
1.067699 0.497695 1.023266
0.000000 0.893000 1.015421
0.000000 0.883992 1.015353
0.389593 0.878187 1.013669
0.867224 0.867224 1.009684
1.024305 0.861762 1.007380
0.000000 1.016242 1.007075
0.000000 1.015495 1.006390
0.270804 1.011709 1.004529
0.834233 1.003080 1.000431
0.998059 0.998059 0.998059
