transforms/sv2_base_locon_r709_g24.cube
# sv2_base_locon_r709_g24.cube
LUT_3D_SIZE 33
0.000000 0.000000 0.000000
0.009011 0.000000 0.000000
0.029480 0.000000 0.000000
0.055298 0.000000 0.000000
0.085637 0.000000 0.000000
0.119697 0.000000 0.000000
0.155945 0.000000 0.000000
0.194457 0.000000 0.000000
0.236190 0.000000 0.000000
0.281744 0.000000 0.000000
0.332882 0.000000 0.000000
0.386166 0.000000 0.000000
0.440591 0.000000 0.000000
0.495816 0.000000 0.000000
0.551328 0.000000 0.000000
0.605726 0.000000 0.000000
0.659361 0.000000 0.000000
0.709362 0.000000 0.000000
0.757116 0.000000 0.000000
0.802742 0.000000 0.000000
0.843280 0.000000 0.000000
0.881146 0.000000 0.000000
0.916404 0.000000 0.000000
0.948856 0.000000 0.000000
0.976905 0.000000 0.000000
1.001849 0.000000 0.000000
1.023486 0.000000 0.000000
1.041572 0.000000 0.000000
1.056436 0.000000 0.000000
1.067899 0.000000 0.000000
1.076630 0.000000 0.000000
1.083209 0.000000 0.000000
1.087858 0.000000 0.000000
0.000000 0.008302 0.000000
0.007963 0.007963 0.000000
0.028343 0.000000 0.000000
0.053423 0.000000 0.000000
0.082822 0.000000 0.000000
0.115924 0.000000 0.000000
0.151200 0.000000 0.000000
0.188600 0.000000 0.000000
0.228908 0.000000 0.000000
0.272863 0.000000 0.000000
0.322317 0.000000 0.000000
0.374320 0.000000 0.000000
0.427678 0.000000 0.000000
0.481999 0.000000 0.000000
0.536991 0.000000 0.000000
0.591193 0.000000 0.000000
0.644863 0.000000 0.000000
0.695425 0.000000 0.000000
0.743889 0.000000 0.000000
0.790388 0.000000 0.000000
0.832048 0.000000 0.000000
0.870985 0.000000 0.000000
0.907326 0.000000 0.000000
0.940821 0.000000 0.000000
0.970153 0.000000 0.000000
0.996179 0.000000 0.000000
1.018967 0.000000 0.000000
1.038076 0.000000 0.000000
1.053852 0.000000 0.000000
1.066045 0.000000 0.000000
1.075374 0.000000 0.000000
1.082393 0.000000 0.000000
1.087299 0.000000 0.000000
0.000000 0.027173 0.000000
0.000000 0.026588 0.000000
0.026094 0.026094 0.000000
0.052556 0.021260 0.000000
0.082110 0.006563 0.000000
0.115077 0.000000 0.000000
0.150125 0.000000 0.000000
0.187203 0.000000 0.000000
0.227093 0.000000 0.000000
0.270544 0.000000 0.000000
0.319473 0.000000 0.000000
0.370934 0.000000 0.000000
0.423869 0.000000 0.000000
0.477803 0.000000 0.000000
0.532522 0.000000 0.000000
0.586525 0.000000 0.000000
0.640112 0.000000 0.000000
0.690732 0.000000 0.000000
0.739378 0.000000 0.000000
0.786107 0.000000 0.000000
0.828012 0.000000 0.000000
0.867326 0.000000 0.000000
0.904006 0.000000 0.000000
0.937831 0.000000 0.000000
0.967517 0.000000 0.000000
0.993974 0.000000 0.000000
1.017163 0.000000 0.000000
1.036664 0.000000 0.000000
1.052773 0.000000 0.000000
1.065289 0.000000 0.000000
1.074850 0.000000 0.000000
1.082047 0.000000 0.000000
1.087067 0.000000 0.000000
0.000000 0.050985 0.000000
0.000000 0.050039 0.000000
0.000000 0.049707 0.000000
0.048971 0.048971 0.000000
0.080403 0.043841 0.000000
0.114014 0.035686 0.000000
0.149271 0.018155 0.000000
0.186383 0.000000 0.000000
0.226155 0.000000 0.000000
0.269381 0.000000 0.000000
0.318058 0.000000 0.000000
0.369317 0.000000 0.000000
0.421993 0.000000 0.000000
0.475674 0.000000 0.000000
0.530238 0.000000 0.000000
0.584092 0.000000 0.000000
0.637549 0.000000 0.000000
0.688177 0.000000 0.000000
0.736861 0.000000 0.000000
0.783724 0.000000 0.000000
0.825744 0.000000 0.000000
0.865194 0.000000 0.000000
0.902081 0.000000 0.000000
0.936090 0.000000 0.000000
0.966004 0.000000 0.000000
0.992657 0.000000 0.000000
1.016081 0.000000 0.000000
1.035806 0.000000 0.000000
1.052133 0.000000 0.000000
1.064816 0.000000 0.000000
1.074512 0.000000 0.000000
1.081825 0.000000 0.000000
1.086926 0.000000 0.000000
0.000000 0.078906 0.000000
0.000000 0.077539 0.000000
0.000000 0.077100 0.000000
0.033581 0.076642 0.000000
0.075718 0.075718 0.000000
0.111405 0.070158 0.000000
0.147577 0.062835 0.000000
0.185130 0.052292 0.000000
0.225110 0.032821 0.000000
0.268424 0.000000 0.000000
0.317105 0.000000 0.000000
0.368277 0.000000 0.000000
0.420839 0.000000 0.000000
0.474422 0.000000 0.000000
0.528895 0.000000 0.000000
0.582660 0.000000 0.000000
0.636049 0.000000 0.000000
0.686679 0.000000 0.000000
0.735374 0.000000 0.000000
0.782254 0.000000 0.000000
0.824351 0.000000 0.000000
0.863885 0.000000 0.000000
0.900875 0.000000 0.000000
0.934997 0.000000 0.000000
0.965011 0.000000 0.000000
0.991806 0.000000 0.000000
1.015368 0.000000 0.000000
1.035237 0.000000 0.000000
1.051689 0.000000 0.000000
1.064507 0.000000 0.000000
1.074286 0.000000 0.000000
1.081673 0.000000 0.000000
1.086827 0.000000 0.000000
0.000000 0.110268 0.000000
0.000000 0.108477 0.000000
0.000000 0.107887 0.000000
0.000000 0.107473 0.000000
0.060763 0.106859 0.000000
0.105763 0.105763 0.000000
0.144049 0.099979 0.000000
0.182702 0.092864 0.000000
0.223325 0.083528 0.000000
0.267024 0.070008 0.000000
0.315913 0.044589 0.000000
0.367206 0.000000 0.000000
0.419832 0.000000 0.000000
0.473428 0.000000 0.000000
0.527874 0.000000 0.000000
0.581612 0.000000 0.000000
0.635005 0.000000 0.000000
0.685630 0.000000 0.000000
0.734334 0.000000 0.000000
0.781259 0.000000 0.000000
0.823408 0.000000 0.000000
0.862988 0.000000 0.000000
0.900026 0.000000 0.000000
0.934226 0.000000 0.000000
0.964323 0.000000 0.000000
0.991216 0.000000 0.000000
1.014869 0.000000 0.000000
1.034839 0.000000 0.000000
1.051372 0.000000 0.000000
1.064274 0.000000 0.000000
1.074120 0.000000 0.000000
1.081557 0.000000 0.000000
1.086751 0.000000 0.000000
0.000000 0.143631 0.000000
0.000000 0.141429 0.000000
0.000000 0.140667 0.000000
0.000000 0.140212 0.000000
0.013678 0.139715 0.000000
0.091054 0.138947 0.000000
0.137729 0.137729 0.000000
0.178449 0.131687 0.000000
0.220275 0.124396 0.000000
0.264735 0.115136 0.000000
0.314145 0.102247 0.000000
0.365772 0.083865 0.000000
0.418595 0.051743 0.000000
0.472327 0.000000 0.000000
0.526849 0.000000 0.000000
0.580641 0.000000 0.000000
0.634052 0.000000 0.000000
0.684704 0.000000 0.000000
0.733445 0.000000 0.000000
0.780399 0.000000 0.000000
0.822608 0.000000 0.000000
0.862250 0.000000 0.000000
0.899340 0.000000 0.000000
0.933586 0.000000 0.000000
0.963742 0.000000 0.000000
0.990708 0.000000 0.000000
1.014431 0.000000 0.000000
1.034477 0.000000 0.000000
1.051078 0.000000 0.000000
1.064045 0.000000 0.000000
1.073936 0.000000 0.000000
1.081413 0.000000 0.000000
1.086637 0.000000 0.000000
0.000000 0.179018 0.000000
0.000000 0.176348 0.000000
0.000000 0.175371 0.000000
0.000000 0.174831 0.000000
0.000000 0.174350 0.000000
0.064303 0.173750 0.000000
0.122837 0.172857 0.000000
0.171529 0.171529 0.000000
0.215395 0.165081 0.000000
0.261146 0.157351 0.000000
0.311435 0.147414 0.000000
0.363650 0.135006 0.000000
0.416872 0.119143 0.000000
0.470850 0.097363 0.000000
0.525554 0.060205 0.000000
0.579484 0.000000 0.000000
0.633020 0.000000 0.000000
0.683734 0.000000 0.000000
0.732525 0.000000 0.000000
0.779543 0.000000 0.000000
0.821802 0.000000 0.000000
0.861495 0.000000 0.000000
0.898645 0.000000 0.000000
0.932946 0.000000 0.000000
0.963153 0.000000 0.000000
0.990177 0.000000 0.000000
1.013957 0.000000 0.000000
1.034064 0.000000 0.000000
1.050720 0.000000 0.000000
1.063735 0.000000 0.000000
1.073669 0.000000 0.000000
1.081178 0.000000 0.000000
1.086424 0.000000 0.000000
0.000000 0.217225 0.000000
0.000000 0.213958 0.000000
0.000000 0.212717 0.000000
0.000000 0.212038 0.000000
0.000000 0.211508 0.000000
0.000000 0.210970 0.000000
0.098937 0.210266 0.000000
0.155929 0.209256 0.000000
0.207802 0.207802 0.000000
0.255637 0.200823 0.000000
0.307329 0.192249 0.000000
0.360483 0.182121 0.000000
0.414351 0.170164 0.000000
0.468776 0.155750 0.000000
0.523798 0.137723 0.000000
0.577944 0.114256 0.000000
0.631653 0.078062 0.000000
0.682502 0.000000 0.000000
0.731403 0.000000 0.000000
0.778507 0.000000 0.000000
0.820840 0.000000 0.000000
0.860597 0.000000 0.000000
0.897809 0.000000 0.000000
0.932182 0.000000 0.000000
0.962448 0.000000 0.000000
0.989522 0.000000 0.000000
1.013356 0.000000 0.000000
1.033518 0.000000 0.000000
1.050222 0.000000 0.000000
1.063284 0.000000 0.000000
1.073246 0.000000 0.000000
1.080782 0.000000 0.000000
1.086045 0.000000 0.000000
0.000000 0.258858 0.000000
0.000000 0.254933 0.000000
0.000000 0.253395 0.000000
0.000000 0.252529 0.000000
0.000000 0.251928 0.000000
0.000000 0.251404 0.000000
0.040249 0.250783 0.000000
0.132259 0.249974 0.000000
0.191120 0.248855 0.000000
0.247253 0.247253 0.000000
0.301151 0.239417 0.000000
0.355746 0.230478 0.000000
0.410596 0.220360 0.000000
0.465705 0.208818 0.000000
0.521258 0.195417 0.000000
0.575786 0.179971 0.000000
0.629739 0.161519 0.000000
0.680802 0.139567 0.000000
0.729876 0.110891 0.000000
0.777135 0.062846 0.000000
0.819574 0.000000 0.000000
0.859421 0.000000 0.000000
0.896710 0.000000 0.000000
0.931152 0.000000 0.000000
0.961494 0.000000 0.000000
0.988628 0.000000 0.000000
1.012523 0.000000 0.000000
1.032737 0.000000 0.000000
1.049487 0.000000 0.000000
1.062586 0.000000 0.000000
1.072581 0.000000 0.000000
1.080137 0.000000 0.000000
1.085419 0.000000 0.000000
0.000000 0.305658 0.000000
0.000000 0.301014 0.000000
0.000000 0.299199 0.000000
0.000000 0.298138 0.000000
0.000000 0.297447 0.000000
0.000000 0.296871 0.000000
0.000000 0.296294 0.000000
0.086289 0.295610 0.000000
0.165786 0.294713 0.000000
0.228591 0.293462 0.000000
0.291650 0.291650 0.000000
0.348521 0.283437 0.000000
0.404896 0.274393 0.000000
0.461080 0.264403 0.000000
0.517408 0.253249 0.000000
0.572531 0.241032 0.000000
0.626946 0.227389 0.000000
0.678328 0.212694 0.000000
0.727679 0.196361 0.000000
0.775163 0.177815 0.000000
0.817734 0.157742 0.000000
0.857732 0.133996 0.000000
0.895151 0.103467 0.000000
0.929699 0.051280 0.000000
0.960123 0.000000 0.000000
0.987330 0.000000 0.000000
1.011299 0.000000 0.000000
1.031572 0.000000 0.000000
1.048375 0.000000 0.000000
1.061514 0.000000 0.000000
1.071541 0.000000 0.000000
1.079114 0.000000 0.000000
1.084410 0.000000 0.000000
0.000000 0.354630 0.000000
0.000000 0.349460 0.000000
0.000000 0.347344 0.000000
0.000000 0.346133 0.000000
0.000000 0.345331 0.000000
0.000000 0.344699 0.000000
0.000000 0.344139 0.000000
0.000000 0.343522 0.000000
0.124698 0.342762 0.000000
0.202930 0.341759 0.000000
0.272281 0.340308 0.000000
0.338375 0.338375 0.000000
0.396968 0.329970 0.000000
0.454691 0.320878 0.000000
0.512119 0.310982 0.000000
0.568050 0.300422 0.000000
0.623095 0.289022 0.000000
0.674957 0.277195 0.000000
0.724656 0.264692 0.000000
0.772439 0.251360 0.000000
0.815264 0.238109 0.000000
0.855435 0.224236 0.000000
0.893017 0.209666 0.000000
0.927700 0.194505 0.000000
0.958233 0.179421 0.000000
0.985547 0.164010 0.000000
1.009592 0.148395 0.000000
1.029939 0.133250 0.000000
1.046804 0.118830 0.000000
1.059991 0.106381 0.000000
1.070053 0.096487 0.000000
1.077649 0.089588 0.000000
1.082957 0.087055 0.000000
0.000000 0.404765 0.000000
0.000000 0.399162 0.000000
0.000000 0.396809 0.000000
0.000000 0.395434 0.000000
0.000000 0.394532 0.000000
0.000000 0.393839 0.000000
0.000000 0.393268 0.000000
0.000000 0.392703 0.000000
0.000000 0.392013 0.000000
0.165534 0.391181 0.000000
0.247226 0.389979 0.000000
0.318728 0.388408 0.000000
0.386397 0.386397 0.000000
0.446233 0.377859 0.000000
0.505170 0.368718 0.000000
0.562172 0.359140 0.000000
0.618043 0.349002 0.000000
0.670540 0.338719 0.000000
0.720731 0.328104 0.000000
0.768884 0.317106 0.000000
0.812010 0.306523 0.000000
0.852444 0.295841 0.000000
0.890229 0.285097 0.000000
0.925083 0.274465 0.000000
0.955761 0.264503 0.000000
0.983195 0.255053 0.000000
1.007347 0.246265 0.000000
1.027778 0.238603 0.000000
1.044714 0.232148 0.000000
1.057955 0.227291 0.000000
1.068053 0.224001 0.000000
1.075679 0.222057 0.000000
1.081002 0.221667 0.000000
0.000000 0.455704 0.000000
0.000000 0.449742 0.000000
0.000000 0.447209 0.000000
0.000000 0.445653 0.000000
0.000000 0.444684 0.000000
0.000000 0.443937 0.000000
0.000000 0.443333 0.000000
0.000000 0.442776 0.000000
0.000000 0.442152 0.000000
0.096333 0.441408 0.000000
0.213411 0.440378 0.000000
0.294295 0.439066 0.000000
0.366588 0.437404 0.000000
0.435331 0.435331 0.000000
0.496268 0.426678 0.000000
0.554706 0.417723 0.000000
0.611623 0.408361 0.000000
0.664934 0.399029 0.000000
0.715760 0.389542 0.000000
0.764413 0.379873 0.000000
0.807902 0.370722 0.000000
0.848643 0.361664 0.000000
0.886695 0.352737 0.000000
0.921771 0.344086 0.000000
0.952633 0.336119 0.000000
0.980213 0.328776 0.000000
1.004490 0.322121 0.000000
1.025024 0.316474 0.000000
1.042043 0.311808 0.000000
1.055346 0.308425 0.000000
1.065489 0.306199 0.000000
1.073147 0.305006 0.000000
1.078488 0.304922 0.000000
0.000000 0.507137 0.000000
0.000000 0.500978 0.000000
0.000000 0.498307 0.000000
0.000000 0.496682 0.000000
0.000000 0.495616 0.000000
0.000000 0.494840 0.000000
0.000000 0.494208 0.000000
0.000000 0.493643 0.000000
0.000000 0.493063 0.000000
0.000000 0.492385 0.000000
0.162502 0.491488 0.000000
0.262940 0.490349 0.000000
0.342610 0.488943 0.000000
0.415371 0.487199 0.000000
0.485075 0.485075 0.000000
0.545362 0.476554 0.000000
0.603657 0.467734 0.000000
0.657950 0.459001 0.000000
0.709570 0.450250 0.000000
0.758858 0.441429 0.000000
0.802826 0.433144 0.000000
0.843950 0.425067 0.000000
0.882324 0.417197 0.000000
0.917664 0.409654 0.000000
0.948748 0.402828 0.000000
0.976516 0.396558 0.000000
1.000948 0.390976 0.000000
1.021603 0.386271 0.000000
1.038718 0.382490 0.000000
1.052100 0.379740 0.000000
1.062298 0.377961 0.000000
1.069991 0.377111 0.000000
1.075356 0.377134 0.000000
0.000000 0.557685 0.000000
0.000000 0.551458 0.000000
0.000000 0.548714 0.000000
0.000000 0.547018 0.000000
0.000000 0.545887 0.000000
0.000000 0.545078 0.000000
0.000000 0.544438 0.000000
0.000000 0.543851 0.000000
0.000000 0.543302 0.000000
0.000000 0.542673 0.000000
0.000000 0.541870 0.000000
0.221442 0.540874 0.000000
0.313779 0.539631 0.000000
0.392380 0.538132 0.000000
0.465542 0.536310 0.000000
0.534204 0.534204 0.000000
0.594187 0.525758 0.000000
0.649703 0.517443 0.000000
0.702239 0.509156 0.000000
0.752284 0.500906 0.000000
0.796828 0.493222 0.000000
0.838419 0.485748 0.000000
0.877169 0.478553 0.000000
0.912826 0.471700 0.000000
0.944171 0.465548 0.000000
0.972147 0.459950 0.000000
0.996759 0.454986 0.000000
1.017557 0.450837 0.000000
1.034786 0.447514 0.000000
1.048256 0.445114 0.000000
1.058517 0.443592 0.000000
1.066255 0.442886 0.000000
1.071648 0.442957 0.000000
0.000000 0.607672 0.000000
0.000000 0.601468 0.000000
0.000000 0.598714 0.000000
0.000000 0.596968 0.000000
0.000000 0.595820 0.000000
0.000000 0.594980 0.000000
0.000000 0.594317 0.000000
0.000000 0.593740 0.000000
0.000000 0.593190 0.000000
0.000000 0.592606 0.000000
0.000000 0.591866 0.000000
0.158025 0.590975 0.000000
0.277686 0.589879 0.000000
0.365364 0.588537 0.000000
0.443321 0.586948 0.000000
0.514932 0.585117 0.000000
0.583022 0.583022 0.000000
0.640018 0.575006 0.000000
0.693683 0.567063 0.000000
0.744592 0.559178 0.000000
0.789816 0.551927 0.000000
0.831958 0.544902 0.000000
0.871162 0.538142 0.000000
0.907192 0.531755 0.000000
0.938839 0.526039 0.000000
0.967061 0.520873 0.000000
0.991874 0.516317 0.000000
1.012838 0.512524 0.000000
1.030198 0.509469 0.000000
1.043769 0.507282 0.000000
1.054103 0.505908 0.000000
1.061898 0.505239 0.000000
1.067324 0.505336 0.000000
0.000000 0.654569 0.000000
0.000000 0.648646 0.000000
0.000000 0.645945 0.000000
0.000000 0.644246 0.000000
0.000000 0.643098 0.000000
0.000000 0.642255 0.000000
0.000000 0.641606 0.000000
0.000000 0.641037 0.000000
0.000000 0.640495 0.000000
0.000000 0.639933 0.000000
0.000000 0.639253 0.000000
0.000000 0.638427 0.000000
0.232198 0.637442 0.000000
0.334604 0.636244 0.000000
0.419036 0.634821 0.000000
0.494350 0.633186 0.000000
0.564865 0.631321 0.000000
0.629317 0.629317 0.000000
0.684260 0.621614 0.000000
0.736164 0.614000 0.000000
0.782136 0.606996 0.000000
0.824890 0.600278 0.000000
0.864592 0.593839 0.000000
0.901024 0.587776 0.000000
0.933000 0.582356 0.000000
0.961494 0.577471 0.000000
0.986527 0.573175 0.000000
1.007677 0.569577 0.000000
1.025186 0.566703 0.000000
1.038864 0.564641 0.000000
1.049282 0.563310 0.000000
1.057137 0.562650 0.000000
1.062606 0.562671 0.000000
0.000000 0.699498 0.000000
0.000000 0.693892 0.000000
0.000000 0.691321 0.000000
0.000000 0.689674 0.000000
0.000000 0.688555 0.000000
0.000000 0.687732 0.000000
0.000000 0.687093 0.000000
0.000000 0.686544 0.000000
0.000000 0.686015 0.000000
0.000000 0.685476 0.000000
0.000000 0.684841 0.000000
0.000000 0.684087 0.000000
0.165663 0.683176 0.000000
0.298074 0.682092 0.000000
0.391919 0.680801 0.000000
0.472020 0.679320 0.000000
0.545524 0.677633 0.000000
0.611941 0.675824 0.000000
0.673882 0.673882 0.000000
0.726909 0.666466 0.000000
0.773720 0.659664 0.000000
0.817145 0.653147 0.000000
0.857401 0.646936 0.000000
0.894282 0.641108 0.000000
0.926615 0.635906 0.000000
0.955408 0.631224 0.000000
0.980692 0.627093 0.000000
1.002037 0.623639 0.000000
1.019705 0.620876 0.000000
1.033505 0.618858 0.000000
1.044015 0.617556 0.000000
1.051936 0.616864 0.000000
1.057455 0.616802 0.000000
0.000000 0.742575 0.000000
0.000000 0.737338 0.000000
0.000000 0.734934 0.000000
0.000000 0.733382 0.000000
0.000000 0.732292 0.000000
0.000000 0.731530 0.000000
0.000000 0.730905 0.000000
0.000000 0.730367 0.000000
0.000000 0.729873 0.000000
0.000000 0.729371 0.000000
0.000000 0.728767 0.000000
0.000000 0.728067 0.000000
0.000000 0.727234 0.000000
0.252485 0.726239 0.000000
0.361121 0.725054 0.000000
0.447642 0.723696 0.000000
0.524854 0.722153 0.000000
0.593625 0.720499 0.000000
0.657214 0.718725 0.000000
0.716841 0.716841 0.000000
0.764584 0.710190 0.000000
0.808751 0.703834 0.000000
0.849610 0.697789 0.000000
0.886986 0.692123 0.000000
0.919708 0.687080 0.000000
0.948824 0.682542 0.000000
0.974384 0.678524 0.000000
0.995948 0.675153 0.000000
1.013781 0.672475 0.000000
1.027715 0.670468 0.000000
1.038322 0.669164 0.000000
1.046319 0.668424 0.000000
1.051897 0.668269 0.000000
0.000000 0.781015 0.000000
0.000000 0.776272 0.000000
0.000000 0.774023 0.000000
0.000000 0.772570 0.000000
0.000000 0.771549 0.000000
0.000000 0.770829 0.000000
0.000000 0.770248 0.000000
0.000000 0.769739 0.000000
0.000000 0.769264 0.000000
0.000000 0.768793 0.000000
0.000000 0.768231 0.000000
0.000000 0.767577 0.000000
0.000000 0.766798 0.000000
0.194696 0.765865 0.000000
0.328171 0.764766 0.000000
0.422804 0.763511 0.000000
0.504303 0.762088 0.000000
0.575672 0.760554 0.000000
0.641040 0.758907 0.000000
0.701956 0.757160 0.000000
0.755455 0.755455 0.000000
0.800377 0.749211 0.000000
0.841846 0.743285 0.000000
0.879725 0.737743 0.000000
0.912840 0.732805 0.000000
0.942284 0.728340 0.000000
0.968107 0.724430 0.000000
0.989882 0.721126 0.000000
1.007895 0.718467 0.000000
1.021956 0.716495 0.000000
1.032665 0.715150 0.000000
1.040740 0.714350 0.000000
1.046369 0.714119 0.000000
0.000000 0.816991 0.000000
0.000000 0.812706 0.000000
0.000000 0.810686 0.000000
0.000000 0.809350 0.000000
0.000000 0.808408 0.000000
0.000000 0.807730 0.000000
0.000000 0.807189 0.000000
0.000000 0.806717 0.000000
0.000000 0.806263 0.000000
0.000000 0.805815 0.000000
0.000000 0.805304 0.000000
0.000000 0.804686 0.000000
0.000000 0.803959 0.000000
0.086771 0.803082 0.000000
0.290374 0.802058 0.000000
0.396217 0.800887 0.000000
0.482955 0.799560 0.000000
0.557339 0.798132 0.000000
0.624689 0.796595 0.000000
0.687026 0.794960 0.000000
0.741521 0.793362 0.000000
0.791751 0.791751 0.000000
0.833861 0.785909 0.000000
0.872265 0.780457 0.000000
0.905789 0.775606 0.000000
0.935570 0.771218 0.000000
0.961663 0.767359 0.000000
0.983655 0.764110 0.000000
1.001844 0.761466 0.000000
1.016043 0.759489 0.000000
1.026857 0.758105 0.000000
1.035013 0.757245 0.000000
1.040700 0.756934 0.000000
0.000000 0.850555 0.000000
0.000000 0.846731 0.000000
0.000000 0.844931 0.000000
0.000000 0.843733 0.000000
0.000000 0.842879 0.000000
0.000000 0.842260 0.000000
0.000000 0.841745 0.000000
0.000000 0.841314 0.000000
0.000000 0.840894 0.000000
0.000000 0.840466 0.000000
0.000000 0.839998 0.000000
0.000000 0.839426 0.000000
0.000000 0.838736 0.000000
0.000000 0.837915 0.000000
0.245174 0.836955 0.000000
0.367638 0.835853 0.000000
0.460843 0.834607 0.000000
0.538689 0.833269 0.000000
0.608267 0.831825 0.000000
0.672143 0.830287 0.000000
0.727709 0.828779 0.000000
0.778744 0.827260 0.000000
0.825741 0.825741 0.000000
0.864687 0.820349 0.000000
0.898633 0.815564 0.000000
0.928756 0.811236 0.000000
0.955124 0.807424 0.000000
0.977339 0.804204 0.000000
0.995706 0.801568 0.000000
1.010043 0.799578 0.000000
1.020962 0.798171 0.000000
1.029202 0.797243 0.000000
1.034951 0.796844 0.000000
0.000000 0.881492 0.000000
0.000000 0.878118 0.000000
0.000000 0.876514 0.000000
0.000000 0.875436 0.000000
0.000000 0.874668 0.000000
0.000000 0.874115 0.000000
0.000000 0.873654 0.000000
0.000000 0.873250 0.000000
0.000000 0.872872 0.000000
0.000000 0.872481 0.000000
0.000000 0.872045 0.000000
0.000000 0.871509 0.000000
0.000000 0.870863 0.000000
0.000000 0.870090 0.000000
0.186611 0.869184 0.000000
0.337017 0.868140 0.000000
0.438240 0.866949 0.000000
0.520011 0.865685 0.000000
0.592007 0.864320 0.000000
0.657554 0.862863 0.000000
0.714248 0.861437 0.000000
0.766125 0.859998 0.000000
0.813761 0.858558 0.000000
0.857138 0.857138 0.000000
0.891508 0.852409 0.000000
0.921976 0.848129 0.000000
0.948625 0.844353 0.000000
0.971066 0.841156 0.000000
0.989607 0.838526 0.000000
1.004080 0.836530 0.000000
1.015107 0.835085 0.000000
1.023431 0.834103 0.000000
1.029243 0.833607 0.000000
0.000000 0.908456 0.000000
0.000000 0.905632 0.000000
0.000000 0.904217 0.000000
0.000000 0.903301 0.000000
0.000000 0.902627 0.000000
0.000000 0.902130 0.000000
0.000000 0.901726 0.000000
0.000000 0.901373 0.000000
0.000000 0.901028 0.000000
0.000000 0.900669 0.000000
0.000000 0.900254 0.000000
0.000000 0.899752 0.000000
0.000000 0.899143 0.000000
0.000000 0.898414 0.000000
0.086598 0.897558 0.000000
0.305342 0.896569 0.000000
0.416224 0.895437 0.000000
0.502286 0.894233 0.000000
0.576774 0.892934 0.000000
0.643954 0.891548 0.000000
0.701753 0.890186 0.000000
0.754479 0.888805 0.000000
0.802767 0.887425 0.000000
0.846640 0.886078 0.000000
0.884820 0.884820 0.000000
0.915610 0.880590 0.000000
0.942532 0.876828 0.000000
0.965173 0.873656 0.000000
0.983885 0.871029 0.000000
0.998486 0.869019 0.000000
1.009610 0.867541 0.000000
1.018008 0.866526 0.000000
1.023882 0.865944 0.000000
0.000000 0.932469 0.000000
0.000000 0.930113 0.000000
0.000000 0.928933 0.000000
0.000000 0.928149 0.000000
0.000000 0.927578 0.000000
0.000000 0.927156 0.000000
0.000000 0.926808 0.000000
0.000000 0.926499 0.000000
0.000000 0.926195 0.000000
0.000000 0.925870 0.000000
0.000000 0.925491 0.000000
0.000000 0.925020 0.000000
0.000000 0.924446 0.000000
0.000000 0.923755 0.000000
0.000000 0.922933 0.000000
0.271677 0.921989 0.000000
0.394623 0.920908 0.000000
0.485272 0.919757 0.000000
0.562357 0.918514 0.000000
0.631199 0.917186 0.000000
0.690116 0.915889 0.000000
0.743638 0.914563 0.000000
0.792538 0.913236 0.000000
0.836892 0.911941 0.000000
0.875450 0.910729 0.000000
0.909609 0.909609 0.000000
0.936764 0.905875 0.000000
0.959610 0.902709 0.000000
0.978470 0.900089 0.000000
0.993194 0.898065 0.000000
1.004411 0.896558 0.000000
1.012880 0.895498 0.000000
1.018811 0.894855 0.000000
0.000000 0.953444 0.000000
0.000000 0.951563 0.000000
0.000000 0.950620 0.000000
0.000000 0.949974 0.000000
0.000000 0.949509 0.000000
0.000000 0.949161 0.000000
0.000000 0.948869 0.000000
0.000000 0.948602 0.000000
0.000000 0.948335 0.000000
0.000000 0.948039 0.000000
0.000000 0.947691 0.000000
0.000000 0.947253 0.000000
0.000000 0.946713 0.000000
0.000000 0.946057 0.000000
0.000000 0.945283 0.000000
0.235534 0.944375 0.000000
0.373770 0.943340 0.000000
0.469359 0.942236 0.000000
0.549033 0.941040 0.000000
0.619506 0.939763 0.000000
0.679480 0.938506 0.000000
0.733772 0.937236 0.000000
0.783238 0.935958 0.000000
0.828042 0.934704 0.000000
0.866933 0.933532 0.000000
0.901362 0.932443 0.000000
0.931455 0.931455 0.000000
0.954473 0.928292 0.000000
0.973473 0.925672 0.000000
