transforms/sv2_look_1_r709_g24.cube
# sv2_look_1_r709_g24.cube
LUT_3D_SIZE 5
0.000000 0.000000 0.000000
0.105765 0.000000 0.000000
0.405494 0.000000 0.000000
0.798597 0.000000 0.000000
1.039249 0.000000 0.000000
0.000000 0.128999 0.000000
0.148717 0.145498 0.000000
0.504209 0.042064 0.000000
0.878039 0.000000 0.000000
1.070287 0.000000 0.000000
0.000000 0.497977 0.000000
0.000000 0.537367 0.000000
0.564139 0.560012 0.000000
0.925159 0.534679 0.000000
1.064130 0.542221 0.000000
0.000000 0.880581 0.000000
0.000000 0.906946 0.000000
0.535321 0.919714 0.000000
0.926468 0.925227 0.000000
1.012324 0.928520 0.000000
0.000000 1.015766 0.000000
0.000000 1.014439 0.000000
0.629928 1.007711 0.000000
0.952034 0.999694 0.000000
0.998151 0.998151 0.000000
0.000000 0.000000 0.099345
0.110764 0.000000 0.094726
0.416608 0.000000 0.000000
0.808489 0.000000 0.000000
1.043989 0.000000 0.000000
0.000000 0.137393 0.126824
0.158111 0.153790 0.141374
0.519834 0.066887 0.098470
0.889760 0.000000 0.000000
1.073166 0.000000 0.000000
0.000000 0.513486 0.000000
0.000000 0.554056 0.000000
0.581263 0.577347 0.000000
0.935344 0.553219 0.000000
1.062279 0.563866 0.000000
0.000000 0.890870 0.000000
0.000000 0.916292 0.000000
0.558180 0.928597 0.000000
0.935450 0.934158 0.000000
1.010608 0.937165 0.000000
0.000000 1.015695 0.000000
0.000000 1.014189 0.000000
0.656966 1.007170 0.186457
0.959714 0.999404 0.257403
0.998112 0.998112 0.328737
0.000000 0.000000 0.363068
0.077134 0.000000 0.374410
0.427120 0.000000 0.387534
0.817429 0.000000 0.349392
1.047462 0.000000 0.334143
0.000000 0.108208 0.433252
0.131019 0.127678 0.466418
0.532839 0.080848 0.488838
0.898314 0.000000 0.465312
1.075509 0.000000 0.468323
0.000000 0.526291 0.506971
0.000000 0.567716 0.548485
0.596270 0.590671 0.570691
0.942494 0.568523 0.564017
1.060656 0.581453 0.580632
0.000000 0.899472 0.531251
0.000000 0.924056 0.583381
0.576952 0.935206 0.616483
0.941278 0.940251 0.644705
1.009166 0.944391 0.668354
0.000000 1.015648 0.620524
0.000000 1.013984 0.675521
0.676091 1.006771 0.711998
0.965898 0.999172 0.740098
0.998084 0.998084 0.771716
0.000000 0.000000 0.728726
0.040315 0.000000 0.744934
0.392798 0.000000 0.761681
0.825506 0.000000 0.770909
1.050235 0.000000 0.758657
0.000000 0.076683 0.793779
0.101827 0.098593 0.818945
0.505118 0.000000 0.838106
0.906224 0.000000 0.849644
1.077104 0.000000 0.845535
0.000000 0.501033 0.852506
0.000000 0.545145 0.879975
0.573974 0.570056 0.896617
0.948409 0.582700 0.908022
1.059261 0.596104 0.909855
0.000000 0.906999 0.890915
0.000000 0.930978 0.915932
0.594071 0.941381 0.930297
0.947122 0.945624 0.938108
1.008098 0.949696 0.946415
0.000000 1.015613 0.926447
0.000000 1.013792 0.950237
0.692988 1.006413 0.962277
0.970473 0.998998 0.970369
0.998061 0.998061 0.979082
0.000000 0.000000 0.976757
0.020459 0.000000 0.984698
0.376143 0.000000 0.990736
0.807834 0.000000 0.993646
1.052417 0.000000 0.994617
0.000000 0.061787 1.006217
0.089729 0.086552 1.015357
0.496468 0.000000 1.020148
0.894719 0.000000 1.020867
1.078651 0.000000 1.021673
0.000000 0.494983 1.020916
0.000000 0.542281 1.026060
0.573141 0.569227 1.026764
0.942424 0.585522 1.022576
1.057874 0.610445 1.019614
0.000000 0.900733 1.014446
0.000000 0.927006 1.012156
0.602505 0.939269 1.007992
0.946049 0.944967 1.003057
1.007087 0.954778 1.001241
0.000000 1.015596 1.006455
0.000000 1.013612 1.005444
0.709265 1.006071 1.001847
0.974795 0.998852 0.998433
0.998059 0.998059 0.998059
