transforms/sv2_look_7525_r709_g24.cube
# sv2_look_7525_r709_g24.cube
LUT_3D_SIZE 5
0.000000 0.000000 0.000000
0.164775 0.000000 0.000000
0.659361 0.000000 0.000000
1.018646 0.000000 0.000000
1.087858 0.000000 0.000000
0.000000 0.151756 0.000000
0.145509 0.145509 0.000000
0.633832 0.000000 0.000000
1.008989 0.000000 0.000000
1.086597 0.000000 0.000000
0.000000 0.607672 0.000000
0.000000 0.594177 0.000000
0.583022 0.583022 0.000000
0.986287 0.517342 0.000000
1.067324 0.505336 0.000000
0.000000 0.948736 0.000000
0.000000 0.943843 0.000000
0.378639 0.938288 0.000000
0.926535 0.926535 0.000000
1.015195 0.914580 0.000000
0.000000 1.016489 0.000000
0.000000 1.015912 0.000000
0.302550 1.011819 0.000000
0.899333 1.001564 0.000000
0.998391 0.998391 0.000000
0.000000 0.000000 0.154346
0.165396 0.000000 0.156858
0.658629 0.000000 0.000000
1.018096 0.000000 0.000000
1.087771 0.000000 0.000000
0.000000 0.150608 0.149249
0.144050 0.144050 0.144050
0.629721 0.000000 0.000000
1.007599 0.000000 0.000000
1.086456 0.000000 0.000000
0.000000 0.603298 0.000000
0.000000 0.589337 0.000000
0.577885 0.577885 0.000000
0.984982 0.511001 0.000000
1.067679 0.498101 0.000000
0.000000 0.947143 0.000000
0.000000 0.942067 0.000000
0.366696 0.936534 0.000000
0.924616 0.924616 0.000000
1.015393 0.912283 0.000000
0.000000 1.016302 0.000000
0.000000 1.015718 0.000000
0.281251 1.011744 0.000000
0.896430 1.001436 0.000000
0.998180 0.998180 0.000000
0.000000 0.000000 0.618131
0.111563 0.000000 0.622430
0.661677 0.000000 0.627523
1.018685 0.000000 0.587759
1.087808 0.000000 0.591147
0.000000 0.099746 0.610643
0.094399 0.094399 0.600764
0.630175 0.000000 0.598007
1.007611 0.000000 0.547969
1.086445 0.000000 0.543282
0.000000 0.603230 0.597789
0.000000 0.588892 0.583646
0.577193 0.577193 0.577193
0.984751 0.509838 0.524048
1.067751 0.496572 0.515401
0.000000 0.946844 0.517423
0.000000 0.941672 0.495893
0.363708 0.936099 0.485592
0.924111 0.924111 0.470500
1.015450 0.911622 0.458429
0.000000 1.016250 0.505133
0.000000 1.015660 0.477941
0.274104 1.011719 0.463987
0.895446 1.001395 0.445329
0.998106 0.998106 0.439442
0.000000 0.000000 0.968507
0.075976 0.000000 0.969006
0.622688 0.000000 0.969294
1.019564 0.000000 0.966937
1.087881 0.000000 0.961081
0.000000 0.064582 0.964816
0.058974 0.058974 0.961636
0.586473 0.000000 0.960070
1.007997 0.000000 0.956031
1.086469 0.000000 0.947367
0.000000 0.562634 0.957791
0.000000 0.546825 0.953755
0.535313 0.535313 0.951198
0.984807 0.510139 0.946140
1.067753 0.496548 0.936246
0.000000 0.946898 0.938356
0.000000 0.941660 0.933177
0.363188 0.936025 0.929806
0.923970 0.923970 0.923970
1.015469 0.911393 0.913381
0.000000 1.016233 0.926063
0.000000 1.015639 0.919125
0.271070 1.011709 0.914781
0.895018 1.001376 0.908201
0.998071 0.998071 0.906123
0.000000 0.000000 1.038823
0.071867 0.000000 1.038798
0.620087 0.000000 1.037015
1.012457 0.000000 1.032744
1.087989 0.000000 1.031830
0.000000 0.059127 1.038293
0.053047 0.053047 1.037963
0.580185 0.000000 1.036273
0.999097 0.000000 1.031743
1.086525 0.000000 1.030492
0.000000 0.556557 1.031058
0.000000 0.539914 1.031110
0.528094 0.528094 1.029428
0.975699 0.502627 1.024749
1.067699 0.497695 1.023266
0.000000 0.938663 1.012468
0.000000 0.932764 1.012305
0.353513 0.927001 1.010534
0.914898 0.914898 1.005733
1.015462 0.911482 1.004217
0.000000 1.016242 1.007075
0.000000 1.015641 1.006487
0.270804 1.011709 1.004529
0.894920 1.001372 0.999625
0.998059 0.998059 0.998059
