transforms/sv2_look_1_r709_g24.cube
# sv2_look_1_r709_g24.cube
LUT_3D_SIZE 9
0.000000 0.000000 0.000000
0.036636 0.000000 0.000000
0.105765 0.000000 0.000000
0.227206 0.000000 0.000000
0.405494 0.000000 0.000000
0.609560 0.000000 0.000000
0.798597 0.000000 0.000000
0.943596 0.000000 0.000000
1.039249 0.000000 0.000000
0.000000 0.029084 0.000000
0.031981 0.029427 0.000000
0.139404 0.000000 0.000000
0.266172 0.000000 0.000000
0.454295 0.000000 0.000000
0.657677 0.000000 0.000000
0.838733 0.000000 0.000000
0.974519 0.000000 0.000000
1.057204 0.000000 0.000000
0.000000 0.128999 0.000000
0.000000 0.142859 0.000000
0.148717 0.145498 0.000000
0.306329 0.125365 0.000000
0.504209 0.042064 0.000000
0.707513 0.000000 0.000000
0.878039 0.000000 0.000000
1.002224 0.000000 0.000000
1.070287 0.000000 0.000000
0.000000 0.284663 0.000000
0.000000 0.301901 0.000000
0.073818 0.316362 0.000000
0.330371 0.325972 0.000000
0.545548 0.306315 0.000000
0.747862 0.276786 0.000000
0.909467 0.244658 0.000000
1.021014 0.221494 0.000000
1.074367 0.222841 0.000000
0.000000 0.497977 0.000000
0.000000 0.519998 0.000000
0.000000 0.537367 0.000000
0.286860 0.551208 0.000000
0.564139 0.560012 0.000000
0.770294 0.545652 0.000000
0.925159 0.534679 0.000000
1.023901 0.532130 0.000000
1.064130 0.542221 0.000000
0.000000 0.712845 0.000000
0.000000 0.733453 0.000000
0.000000 0.748448 0.000000
0.156352 0.760760 0.000000
0.543853 0.770002 0.000000
0.777782 0.775264 0.000000
0.927009 0.766230 0.000000
1.013323 0.765642 0.000000
1.037977 0.774827 0.000000
0.000000 0.880581 0.000000
0.000000 0.895593 0.000000
0.000000 0.906946 0.000000
0.000000 0.914439 0.000000
0.535321 0.919714 0.000000
0.772722 0.922806 0.000000
0.926468 0.925227 0.000000
0.998927 0.923143 0.000000
1.012324 0.928520 0.000000
0.000000 0.983866 0.000000
0.000000 0.990705 0.000000
0.000000 0.995066 0.000000
0.000000 0.997223 0.000000
0.565539 0.996594 0.000000
0.790508 0.995061 0.000000
0.930428 0.993555 0.000000
0.993852 0.993627 0.000000
0.998816 0.995094 0.000000
0.000000 1.015766 0.000000
0.000000 1.015497 0.000000
0.000000 1.014439 0.000000
0.269125 1.011804 0.000000
0.629928 1.007711 0.000000
0.831987 1.003229 0.000000
0.952034 0.999694 0.000000
0.998154 0.998154 0.000000
0.998151 0.998151 0.000000
0.000000 0.000000 0.027389
0.036782 0.000000 0.026197
0.118449 0.000000 0.000000
0.231656 0.000000 0.000000
0.411143 0.000000 0.000000
0.615688 0.000000 0.000000
0.803764 0.000000 0.000000
0.948059 0.000000 0.000000
1.041742 0.000000 0.000000
0.000000 0.029601 0.022546
0.032642 0.030106 0.023372
0.163794 0.000000 0.000000
0.271490 0.000000 0.000000
0.460479 0.000000 0.000000
0.663833 0.000000 0.000000
0.843981 0.000000 0.000000
0.978295 0.000000 0.000000
1.059284 0.000000 0.000000
0.000000 0.137362 0.000000
0.000000 0.154008 0.000000
0.156988 0.152874 0.000000
0.317268 0.128898 0.000000
0.512579 0.057236 0.000000
0.714852 0.000000 0.000000
0.884686 0.000000 0.000000
1.006219 0.000000 0.000000
1.071842 0.000000 0.000000
0.000000 0.291216 0.000000
0.000000 0.309217 0.000000
0.070440 0.326293 0.000000
0.338631 0.334268 0.000000
0.554418 0.314802 0.000000
0.756153 0.286122 0.000000
0.915669 0.256982 0.000000
1.024397 0.237011 0.000000
1.075245 0.240278 0.000000
0.000000 0.506311 0.000000
0.000000 0.528773 0.000000
0.000000 0.546439 0.000000
0.297263 0.560453 0.000000
0.573554 0.569425 0.000000
0.777855 0.555278 0.000000
0.930682 0.544776 0.000000
1.026524 0.543186 0.000000
1.063163 0.554040 0.000000
0.000000 0.720936 0.000000
0.000000 0.740938 0.000000
0.000000 0.756249 0.000000
0.181281 0.768846 0.000000
0.554644 0.777420 0.000000
0.785063 0.782516 0.000000
0.931952 0.774092 0.000000
1.014538 0.774373 0.000000
1.036638 0.783878 0.000000
0.000000 0.886124 0.000000
0.000000 0.901657 0.000000
0.000000 0.912005 0.000000
0.000000 0.919713 0.000000
0.547528 0.924943 0.000000
0.780368 0.927360 0.000000
0.931322 0.930053 0.000000
1.000262 0.928378 0.000000
1.011403 0.933180 0.000000
0.000000 0.986393 0.000000
0.000000 0.993366 0.000000
0.000000 0.997295 0.000000
0.000000 0.998920 0.000000
0.580557 0.998355 0.000000
0.800267 0.996405 0.000000
0.935761 0.994951 0.000000
0.995207 0.994974 0.000000
0.998510 0.996408 0.000000
0.000000 1.015725 0.000000
0.000000 1.015438 0.000000
0.000000 1.014305 0.000000
0.303669 1.011576 0.000000
0.644670 1.007421 0.000000
0.841791 1.002944 0.000000
0.956336 0.999533 0.000000
0.998134 0.998134 0.000000
0.998131 0.998131 0.000000
0.000000 0.000000 0.099345
0.015077 0.000000 0.114138
0.110764 0.000000 0.094726
0.235749 0.000000 0.073197
0.416608 0.000000 0.000000
0.621662 0.000000 0.000000
0.808489 0.000000 0.000000
0.951429 0.000000 0.000000
1.043989 0.000000 0.000000
0.000000 0.017232 0.122644
0.019903 0.017508 0.147707
0.166006 0.000000 0.142398
0.281217 0.000000 0.105170
0.466778 0.000000 0.062660
0.670003 0.000000 0.000000
0.848718 0.000000 0.000000
0.981728 0.000000 0.000000
1.061105 0.000000 0.000000
0.000000 0.137393 0.126824
0.000000 0.155466 0.142030
0.158111 0.153790 0.141374
0.363707 0.113233 0.112605
0.519834 0.066887 0.098470
0.721308 0.000000 0.000000
0.889760 0.000000 0.000000
1.009616 0.000000 0.000000
1.073166 0.000000 0.000000
0.000000 0.297004 0.110896
0.000000 0.318053 0.122101
0.000000 0.347328 0.074772
0.351331 0.345643 0.050375
0.562543 0.321654 0.099748
0.763128 0.294302 0.000000
0.920933 0.267023 0.000000
1.027265 0.249336 0.000000
1.075879 0.254141 0.000000
0.000000 0.513486 0.000000
0.000000 0.536195 0.000000
0.000000 0.554056 0.000000
0.305145 0.568386 0.000000
0.581263 0.577347 0.000000
0.784264 0.563100 0.000000
0.935344 0.553219 0.000000
1.028348 0.552465 0.000000
1.062279 0.563866 0.000000
0.000000 0.727783 0.000000
0.000000 0.747262 0.000000
0.000000 0.762844 0.000000
0.200287 0.775621 0.000000
0.563890 0.783276 0.000000
0.791192 0.788623 0.000000
0.936120 0.780723 0.000000
1.015580 0.781763 0.000000
1.035656 0.790414 0.000000
0.000000 0.890870 0.000000
0.000000 0.906291 0.000000
0.000000 0.916292 0.000000
0.000000 0.924180 0.000000
0.558180 0.928597 0.000000
0.786795 0.931218 0.000000
0.935450 0.934158 0.000000
1.001174 0.931972 0.000000
1.010608 0.937165 0.000000
0.000000 0.988554 0.000000
0.000000 0.995156 0.000000
0.000000 0.999196 0.000000
0.140453 1.000374 0.000000
0.591831 0.999527 0.000000
0.807279 0.997595 0.000000
0.939591 0.995959 0.000000
0.996219 0.996044 0.128043
0.998258 0.997466 0.194040
0.000000 1.015695 0.000000
0.000000 1.015387 0.000000
0.000000 1.014189 0.000000
0.328996 1.011384 0.138233
0.656966 1.007170 0.186457
0.848770 1.002735 0.222962
0.959714 0.999404 0.257403
0.998114 0.998114 0.293816
0.998112 0.998112 0.328737
0.000000 0.000000 0.202680
0.001663 0.000000 0.205548
0.094616 0.000000 0.210050
0.239578 0.000000 0.212618
0.422014 0.000000 0.192237
0.627467 0.000000 0.159924
0.813103 0.000000 0.111817
0.954665 0.000000 0.000000
1.045933 0.000000 0.000000
0.000000 0.007716 0.225561
0.014722 0.012766 0.238290
0.128912 0.000000 0.258790
0.282270 0.000000 0.251852
0.472678 0.000000 0.234922
0.675901 0.000000 0.209515
0.853142 0.000000 0.179442
0.984921 0.000000 0.151353
1.062784 0.000000 0.138867
0.000000 0.124294 0.257172
0.000000 0.135935 0.285494
0.137921 0.133779 0.337421
0.368665 0.111943 0.328887
0.526699 0.074170 0.279999
0.727286 0.000000 0.260628
0.894138 0.000000 0.241543
1.012758 0.000000 0.229177
1.074385 0.000000 0.231520
0.000000 0.302334 0.287019
0.000000 0.322242 0.305559
0.000000 0.350361 0.329213
0.353596 0.347473 0.328032
0.614187 0.307829 0.299240
0.768756 0.302128 0.304828
0.925142 0.276256 0.292678
1.029907 0.260310 0.288585
1.076462 0.266298 0.297816
0.000000 0.520071 0.283166
0.000000 0.543068 0.306159
0.000000 0.561327 0.323530
0.233613 0.591196 0.282936
0.593494 0.588446 0.277775
0.790215 0.570275 0.336710
0.939403 0.561003 0.328937
1.029685 0.561037 0.331134
1.061453 0.572895 0.345332
0.000000 0.733298 0.265490
0.000000 0.753111 0.297080
0.000000 0.768944 0.320092
0.217582 0.781071 0.338282
0.572321 0.788683 0.352777
0.796845 0.794253 0.364217
0.939702 0.786866 0.362239
1.016658 0.787795 0.370535
1.034746 0.796441 0.389072
0.000000 0.895273 0.262645
0.000000 0.910069 0.302938
0.000000 0.920267 0.333018
0.068920 0.928151 0.356235
0.567847 0.931983 0.374971
0.792733 0.934798 0.391036
0.938485 0.937485 0.407503
1.001910 0.935321 0.421540
1.009872 0.940856 0.443274
0.000000 0.990564 0.301336
0.000000 0.996829 0.347899
0.000000 1.000522 0.381128
0.188328 1.001727 0.407396
0.602189 1.000538 0.429219
0.813766 0.998534 0.449088
0.942794 0.996916 0.467982
0.997018 0.996836 0.489091
0.998102 0.998102 0.511897
0.000000 1.015669 0.378429
0.000000 1.015339 0.422572
0.000000 1.014084 0.455045
0.350574 1.011205 0.480521
0.667134 1.006960 0.501748
0.854891 1.002551 0.521771
0.962862 0.999285 0.542540
0.998099 0.998099 0.563308
0.998098 0.998098 0.584521
0.000000 0.000000 0.363068
0.000000 0.000000 0.365967
0.077134 0.000000 0.374410
0.223815 0.000000 0.382885
0.427120 0.000000 0.387534
0.632870 0.000000 0.368103
0.817429 0.000000 0.349392
0.957722 0.000000 0.336716
1.047462 0.000000 0.334143
0.000000 0.000346 0.391988
0.002340 0.001297 0.405137
0.108773 0.000000 0.418093
0.267146 0.000000 0.429376
0.478287 0.000000 0.436119
0.681418 0.000000 0.419495
0.857381 0.000000 0.404768
0.987945 0.000000 0.396175
1.064049 0.000000 0.397822
0.000000 0.108208 0.433252
0.000000 0.120219 0.450823
0.131019 0.127678 0.466418
0.313603 0.122018 0.486260
0.532839 0.080848 0.488838
0.732971 0.000000 0.475564
0.898314 0.000000 0.465312
1.015737 0.000000 0.461645
1.075509 0.000000 0.468323
0.000000 0.287646 0.474003
0.000000 0.308331 0.495135
0.031288 0.324069 0.518727
0.328091 0.322288 0.582077
0.620306 0.307325 0.572337
0.774000 0.309489 0.526229
0.928893 0.284920 0.519706
1.031900 0.270535 0.520301
1.076929 0.277503 0.530799
0.000000 0.526291 0.506971
0.000000 0.549562 0.530101
0.000000 0.567716 0.548485
0.222178 0.594940 0.572179
0.596270 0.590671 0.570691
0.828899 0.560964 0.549509
0.942494 0.568523 0.564017
1.030949 0.569157 0.567821
1.060656 0.581453 0.580632
0.000000 0.738588 0.514694
0.000000 0.758683 0.541319
0.000000 0.774715 0.560956
0.232818 0.786085 0.577905
0.526306 0.805645 0.545671
0.806161 0.802815 0.545440
0.942403 0.792826 0.603062
1.017677 0.793159 0.609510
1.033872 0.802169 0.623811
0.000000 0.899472 0.531251
0.000000 0.913656 0.560333
0.000000 0.924056 0.583381
0.133218 0.931259 0.601335
0.576952 0.935206 0.616483
0.798388 0.938214 0.630371
0.941278 0.940251 0.644705
1.002616 0.938533 0.653500
1.009166 0.944391 0.668354
0.000000 0.992494 0.566998
0.000000 0.998426 0.598272
0.000000 1.001777 0.622115
0.222673 1.002799 0.642672
0.611910 1.001512 0.658600
0.820041 0.999321 0.672990
0.945893 0.997721 0.687832
0.997791 0.997605 0.704233
0.998088 0.998088 0.719452
0.000000 1.015648 0.620524
0.000000 1.015295 0.653299
0.000000 1.013984 0.675521
0.369739 1.011036 0.694698
0.676091 1.006771 0.711998
0.860738 1.002375 0.725741
0.965898 0.999172 0.740098
0.998086 0.998086 0.756161
0.998084 0.998084 0.771716
0.000000 0.000000 0.550285
0.000000 0.000000 0.554819
0.057672 0.000000 0.564889
0.204081 0.000000 0.574780
0.409768 0.000000 0.583347
0.638001 0.000000 0.588193
0.821529 0.000000 0.573595
0.960602 0.000000 0.565144
1.048909 0.000000 0.565555
0.000000 0.000000 0.582460
0.000000 0.000000 0.595235
0.090369 0.000000 0.608238
0.248769 0.000000 0.619564
0.461967 0.000000 0.629151
0.686707 0.000000 0.635043
0.861400 0.000000 0.622565
0.990835 0.000000 0.616126
1.065218 0.000000 0.618783
0.000000 0.091178 0.623206
0.000000 0.103342 0.640199
0.114942 0.111655 0.655116
0.295306 0.107428 0.668499
0.518074 0.048930 0.679116
0.738410 0.000000 0.685984
0.902316 0.000000 0.676046
1.018593 0.000000 0.672565
1.076321 0.000000 0.678416
0.000000 0.271620 0.663756
0.000000 0.292964 0.683015
0.000000 0.309117 0.698198
0.323960 0.319731 0.711674
0.563054 0.321811 0.724970
0.779051 0.316456 0.731215
0.932515 0.293083 0.723029
1.033668 0.280191 0.721721
1.077219 0.287951 0.729402
0.000000 0.512496 0.697866
0.000000 0.536253 0.718566
0.000000 0.555025 0.734354
0.304701 0.569817 0.749147
0.573832 0.568605 0.800541
0.834103 0.561107 0.792706
0.945483 0.575710 0.760643
1.032173 0.576914 0.760974
1.059949 0.588923 0.769577
0.000000 0.743671 0.725503
0.000000 0.764058 0.745442
0.000000 0.780089 0.761647
0.246485 0.790928 0.775004
0.519434 0.808990 0.791051
0.808562 0.804803 0.789440
0.965328 0.787553 0.777566
1.018285 0.798351 0.793581
1.033024 0.807700 0.802906
0.000000 0.903515 0.737377
0.000000 0.917144 0.759103
0.000000 0.927705 0.775187
0.169331 0.934268 0.789555
0.585652 0.938331 0.800365
0.772652 0.947092 0.780690
0.945830 0.944517 0.782235
1.003240 0.941648 0.825048
1.008617 0.947122 0.835038
0.000000 0.994063 0.761825
0.000000 0.999981 0.785952
0.000000 1.003002 0.802153
0.250601 1.003698 0.816311
0.621192 1.002387 0.828528
0.826042 1.000088 0.838191
0.948950 0.998346 0.848355
0.998075 0.998075 0.859847
0.998074 0.998074 0.870118
0.000000 1.015630 0.800379
0.000000 1.015254 0.823376
0.000000 1.013887 0.840005
0.387215 1.010872 0.853307
0.684663 1.006590 0.865449
0.866380 1.002206 0.874495
0.968293 0.999080 0.884236
0.998072 0.998072 0.894996
0.998071 0.998071 0.904352
0.000000 0.000000 0.728726
0.000000 0.000000 0.735648
0.040315 0.000000 0.744934
0.186478 0.000000 0.753889
0.392798 0.000000 0.761681
0.622762 0.000000 0.767372
0.825506 0.000000 0.770909
0.963402 0.000000 0.760981
1.050235 0.000000 0.758657
0.000000 0.000000 0.759962
0.000000 0.000000 0.770231
0.074498 0.000000 0.781081
0.233108 0.000000 0.790926
0.446546 0.000000 0.799481
0.672706 0.000000 0.805350
0.865330 0.000000 0.809232
0.993626 0.000000 0.800608
1.066356 0.000000 0.800472
0.000000 0.076683 0.793779
0.000000 0.089218 0.807605
0.101827 0.098593 0.818945
0.282636 0.093474 0.829226
0.505118 0.000000 0.838106
0.726133 0.000000 0.845254
0.906224 0.000000 0.849644
1.020837 0.000000 0.843279
1.077104 0.000000 0.845535
0.000000 0.259161 0.825430
0.000000 0.281048 0.841429
0.000000 0.297805 0.853016
0.313657 0.309119 0.862828
0.551613 0.312733 0.871269
0.768264 0.308224 0.878554
0.936031 0.300914 0.883259
1.035401 0.289295 0.878824
1.077494 0.297903 0.882655
0.000000 0.501033 0.852506
0.000000 0.525741 0.867653
0.000000 0.545145 0.879975
0.299483 0.560124 0.888937
0.573974 0.570056 0.896617
0.791267 0.576727 0.903445
0.948409 0.582700 0.908022
1.033356 0.584447 0.905002
1.059261 0.596104 0.909855
0.000000 0.733296 0.873703
0.000000 0.754697 0.887903
0.000000 0.770643 0.899660
0.240668 0.782098 0.908362
0.580165 0.790667 0.915465
0.793850 0.790367 0.946226
0.968006 0.788236 0.941221
1.018872 0.803464 0.924085
1.032187 0.813113 0.929791
0.000000 0.906999 0.890915
0.000000 0.920534 0.905137
0.000000 0.930978 0.915932
0.196819 0.937201 0.924232
0.594071 0.941381 0.930297
0.768870 0.948933 0.939421
0.947122 0.945624 0.938108
1.008983 0.940124 0.934784
1.008098 0.949696 0.946415
0.000000 0.995449 0.903083
0.000000 1.001142 0.917809
0.000000 1.004201 0.928754
0.274446 1.004585 0.936577
0.630281 1.003065 0.942636
0.831893 1.000816 0.947700
0.938745 1.000033 0.939068
0.998066 0.998066 0.941068
0.998064 0.998064 0.963057
0.000000 1.015613 0.926447
0.000000 1.015214 0.940238
0.000000 1.013792 0.950237
0.403477 1.010713 0.956683
0.692988 1.006413 0.962277
0.871909 1.002040 0.965966
0.970473 0.998998 0.970369
0.998062 0.998062 0.974478
0.998061 0.998061 0.979082
0.000000 0.000000 0.874066
0.000000 0.000000 0.880088
0.027814 0.000000 0.886948
0.174034 0.000000 0.893419
0.381360 0.000000 0.899027
0.611250 0.000000 0.903327
0.814153 0.000000 0.906334
0.966206 0.000000 0.908691
1.051298 0.000000 0.902590
0.000000 0.000000 0.899417
0.000000 0.000000 0.907332
0.063242 0.000000 0.915317
0.222465 0.000000 0.922519
0.436634 0.000000 0.927871
0.662463 0.000000 0.931705
0.855033 0.000000 0.934921
0.996441 0.000000 0.937534
1.067474 0.000000 0.934466
0.000000 0.066646 0.924398
0.000000 0.079644 0.934056
0.093127 0.089931 0.942243
0.274735 0.083978 0.949616
0.497499 0.000000 0.954702
0.717860 0.000000 0.958543
0.897615 0.000000 0.961948
1.022947 0.000000 0.965076
1.077876 0.000000 0.963183
0.000000 0.251451 0.946327
0.000000 0.274132 0.956628
0.000000 0.291490 0.964435
0.308170 0.303651 0.971228
0.546197 0.307798 0.975366
0.761648 0.303966 0.978612
0.928998 0.298238 0.981605
1.037101 0.298258 0.983555
1.077748 0.307847 0.982717
0.000000 0.494822 0.962900
0.000000 0.520415 0.972291
0.000000 0.540645 0.979029
0.295810 0.555913 0.984219
0.570429 0.566511 0.987469
0.785987 0.573988 0.990005
0.942767 0.581490 0.991429
1.034523 0.591333 0.992910
1.058574 0.603221 0.993363
0.000000 0.727305 0.972700
0.000000 0.749742 0.980641
0.000000 0.765745 0.986541
0.241255 0.777964 0.990088
0.579217 0.787222 0.992539
0.796830 0.794595 0.993536
0.943818 0.800422 0.994554
1.019451 0.808540 0.995571
1.031356 0.818490 0.996374
0.000000 0.901200 0.978985
0.000000 0.915810 0.985595
0.000000 0.926394 0.990081
0.207407 0.933299 0.992942
0.596183 0.938237 0.994116
0.809481 0.940241 0.994893
0.941536 0.940149 1.001854
1.009645 0.940724 1.000191
1.007588 0.952265 0.997302
0.000000 0.996822 0.985063
0.000000 1.002271 0.991060
0.000000 1.005154 0.994569
0.294980 1.005465 0.996470
0.639165 1.003744 0.997236
0.837776 1.001318 0.997372
0.937479 1.000067 0.998701
0.998059 0.998059 0.998059
0.998059 0.998059 0.998059
0.000000 1.015603 0.992693
0.000000 1.015181 0.997983
0.000000 1.013702 1.000977
0.419133 1.010559 1.002314
0.701261 1.006240 1.001927
0.877388 1.001884 0.999866
0.972642 0.998923 0.998467
0.998059 0.998059 0.998059
0.998059 0.998059 0.998059
0.000000 0.000000 0.976757
0.000000 0.000000 0.981062
0.020459 0.000000 0.984698
0.167325 0.000000 0.988034
0.376143 0.000000 0.990736
0.606252 0.000000 0.992494
0.807834 0.000000 0.993646
0.959013 0.000000 0.994246
1.052417 0.000000 0.994617
0.000000 0.000000 0.992905
0.000000 0.000000 0.997505
0.057425 0.000000 1.001775
0.217989 0.000000 1.005418
0.433258 0.000000 1.007571
0.658924 0.000000 1.008815
0.850115 0.000000 1.009519
0.991280 0.000000 1.010055
1.068603 0.000000 1.010784
0.000000 0.061787 1.006217
0.000000 0.075695 1.011323
0.089729 0.086552 1.015357
0.273179 0.080454 1.018139
0.496468 0.000000 1.020148
0.716366 0.000000 1.020767
0.894719 0.000000 1.020867
1.018928 0.000000 1.021183
1.078651 0.000000 1.021673
0.000000 0.249702 1.016325
0.000000 0.273184 1.021043
0.000000 0.291212 1.023954
0.308868 0.304394 1.026125
0.547333 0.309071 1.026911
0.761648 0.306014 1.026833
0.927621 0.301361 1.026199
1.034373 0.303037 1.025886
1.077815 0.318033 1.025994
0.000000 0.494983 1.020916
0.000000 0.521555 1.024094
0.000000 0.542281 1.026060
0.298689 0.558030 1.027101
0.573141 0.569227 1.026764
0.787032 0.577369 1.025165
0.942424 0.585522 1.022576
1.032577 0.595769 1.020616
1.057874 0.610445 1.019614
0.000000 0.727672 1.019309
0.000000 0.751096 1.021237
0.000000 0.767091 1.021676
0.250329 0.779937 1.020068
0.583531 0.789814 1.017689
0.799140 0.796919 1.014915
0.944786 0.803315 1.012336
1.018706 0.812277 1.010508
1.030536 0.823772 1.009625
0.000000 0.900733 1.014446
0.000000 0.916388 1.013302
0.000000 0.927006 1.012156
0.226338 0.934524 1.010426
0.602505 0.939269 1.007992
0.813440 0.941734 1.005371
0.946049 0.944967 1.003057
1.004271 0.949136 1.001710
1.007087 0.954778 1.001241
0.000000 0.996019 1.007908
0.000000 1.001909 1.007286
0.000000 1.004993 1.006411
0.312653 1.005580 1.004856
0.647501 1.004062 1.002680
0.843217 1.001701 1.000405
0.956861 0.999445 0.998713
0.998059 0.998059 0.998059
0.998059 0.998059 0.998059
0.000000 1.015596 1.006455
0.000000 1.015149 1.006203
0.000000 1.013612 1.005444
0.433844 1.010407 1.003908
0.709265 1.006071 1.001847
0.882385 1.001740 0.999798
0.974795 0.998852 0.998433
0.998059 0.998059 0.998059
0.998059 0.998059 0.998059
